DMackRus/ILQR_Mujoco_Arm_Push_Clyinder/diffDyn.csv
Joint 0 dyn,Joint 0 lin,Joint 0 diff,Joint 1 dyn,Joint 1 lin,Joint 1 diff,Joint 2 dyn,Joint 2 lin,Joint 2 diff,Joint 3 dyn,Joint 3 lin,Joint 3 diff,Joint 4 dyn,Joint 4 lin,Joint 4 diff,Joint 5 dyn,Joint 5 lin,Joint 5 diff,Joint 6 dyn,Joint 6 lin,Joint 6 diff,Cube X dyn,Cube X lin,Cube X diff,Cube Y dyn,Cube Y lin,Cube Y diff,Cube rot dyn,Cube rot lin,Cube rot diff,Joint 0 vel dyn,Joint 0 vel lin,Joint 0 vel diff,Joint 1 vel dyn,Joint 1 vel lin,Joint 1 vel diff,Joint 2 vel dyn,Joint 2 vel lin,Joint 2 vel diff,Joint 3 vel dyn,Joint 3 vel lin,Joint 3 vel diff,Joint 4 vel dyn,Joint 4 vel lin,Joint 4 vel diff,Joint 5 vel dyn,Joint 5 vel lin,Joint 5 vel diff,Joint 6 vel dyn,Joint 6 vel lin,Joint 6 vel diff,Cube X  vel dyn,Cube X vel lin,Cube X vel diff,Cube Y vel dyn,Cube Y vel lin,Cube Y vel diff,Cube rot vel dyn,Cube rot vel lin,Cube rot vel diff
-0.120397,-0.120397,0,0.338907,0.338907,0,0.0645651,0.0645651,0,-2.50149,-2.50149,0,-0.00290622,-0.00290622,0,1.23687,1.23687,0,0.00789783,0.00789783,0,0.6,0.6,0,0.02,0.02,0,0,0,0,-0.00039621,-0.00039621,0,-0.000830625,-0.000830625,0,-0.00138801,-0.00138801,0,-0.00169327,-0.00169327,0,-0.0163118,-0.0163118,0,0.0739067,0.0739067,0,0.0116757,0.0116757,0,8.04912e-18,8.04912e-18,0,1.38778e-19,1.38778e-19,0,1.49368e-16,1.49368e-16,0,
-0.12029,-0.120361,-7.12095e-05,0.338749,0.338914,0.000165429,0.0646821,0.0646046,-7.75479e-05,-2.49928,-2.50057,-0.00129235,-0.00344923,-0.003292,0.000157227,1.23482,1.23621,0.00138725,0.00820643,0.00806341,-0.000143018,0.6,0.6,0,0.02,0.02,0,0,0,0,0.00797701,0.00566829,-0.00230871,-0.0236928,-0.00457866,0.0191141,0.00884125,0.00566706,-0.0031742,0.132771,0.119339,-0.0134326,-0.0128044,-0.0256072,-0.0128027,-0.148101,-0.114746,0.0333548,0.0132475,0.0160169,0.00276944,7.77156e-18,7.91034e-18,1.38778e-19,1.38778e-19,5.55111e-19,4.16334e-19,-3.0822e-17,6.87567e-17,9.95787e-17,
-0.120201,-0.120187,1.4033e-05,0.338437,0.338392,-4.54015e-05,0.0647811,0.0648025,2.1413e-05,-2.49793,-2.49768,0.000241645,-0.00357649,-0.00361131,-3.48242e-05,1.2333,1.233,-0.000293746,0.00832264,0.00827648,-4.61628e-05,0.6,0.6,3.33067e-16,0.02,0.02,-4.44089e-16,0,-5.71101e-14,-5.71101e-14,0.00946327,0.0101016,0.000638328,-0.0350679,-0.0407264,-0.0056585,0.0104835,0.0106983,0.000214715,0.136333,0.138412,0.00207848,-0.0133336,-0.0216823,-0.0083487,-0.153328,-0.140986,0.012342,0.0104948,-0.00379591,-0.0142907,7.35523e-18,5.10673e-14,5.10599e-14,-2.77556e-19,-7.90302e-14,-7.90299e-14,1.11433e-16,-8.89747e-12,-8.89758e-12,
-0.1201,-0.120085,1.524e-05,0.338052,0.337998,-5.4169e-05,0.0648926,0.0649151,2.25788e-05,-2.49655,-2.4963,0.000242253,-0.0037247,-0.00376237,-3.76739e-05,1.23179,1.23152,-0.000278153,0.00840849,0.00832389,-8.46052e-05,0.6,0.6,3.33067e-16,0.02,0.02,-3.60822e-16,0,-5.64194e-14,-5.64194e-14,0.0104793,0.0111916,0.000712291,-0.0402442,-0.0449165,-0.00467232,0.0115353,0.0117487,0.000213432,0.138943,0.141145,0.00220218,-0.0160385,-0.0287775,-0.012739,-0.14716,-0.1271,0.0200595,0.00724449,-0.0164848,-0.0237293,7.49401e-18,4.96949e-14,4.96874e-14,-4.16334e-19,-5.96475e-14,-5.96471e-14,4.50475e-17,-8.76092e-12,-8.76096e-12,
-0.11999,-0.119975,1.49687e-05,0.337641,0.337582,-5.88132e-05,0.0650125,0.0650372,2.46707e-05,-2.49514,-2.4949,0.000239216,-0.00390688,-0.0039478,-4.09178e-05,1.23042,1.23016,-0.000262455,0.00845823,0.00832337,-0.000134863,0.6,0.6,3.33067e-16,0.02,0.02,-5.37764e-16,0,-5.84488e-14,-5.84488e-14,0.0112977,0.011963,0.000665345,-0.041098,-0.044956,-0.00385801,0.0122783,0.0127209,0.000442686,0.142099,0.144209,0.0021106,-0.0200219,-0.0375595,-0.0175376,-0.128466,-0.102756,0.02571,0.00338175,-0.0325142,-0.035896,7.49401e-18,4.2579e-14,4.25715e-14,-2.77556e-19,-1.01151e-13,-1.0115e-13,7.82404e-17,-9.36518e-12,-9.36526e-12,
-0.119873,-0.119848,2.40876e-05,0.337249,0.337188,-6.04873e-05,0.065139,0.0651449,5.81347e-06,-2.49369,-2.49346,0.000228251,-0.00412407,-0.0041948,-7.0732e-05,1.22938,1.22917,-0.000209876,0.00847951,0.00825479,-0.000224719,0.6,0.6,4.44089e-16,0.02,0.02,-3.64292e-16,0,-6.18472e-14,-6.18472e-14,0.0120644,0.0139602,0.00189588,-0.0370059,-0.0393182,-0.00231231,0.0128176,0.00948984,-0.00332773,0.147852,0.149184,0.00133222,-0.0223124,-0.0525729,-0.0302605,-0.0801479,-0.036226,0.043922,0.00311356,-0.0558478,-0.0589614,7.49401e-18,7.57389e-14,7.57314e-14,-1.38778e-19,-4.86191e-14,-4.8619e-14,-1.65964e-17,-1.0617e-11,-1.0617e-11,
-0.119748,-0.119725,2.33262e-05,0.336924,0.336825,-9.92227e-05,0.0652703,0.0652762,5.83422e-06,-2.49215,-2.49195,0.000197049,-0.00435936,-0.00442113,-6.17603e-05,1.22899,1.2285,-0.000493027,0.00849173,0.00824995,-0.000241777,0.6,0.6,3.33067e-16,0.02,0.02,-4.51028e-16,0,-6.0304e-14,-6.0304e-14,0.012639,0.0143844,0.00174541,-0.0294769,-0.0376688,-0.00819191,0.0131691,0.00984024,-0.00332888,0.158374,0.153851,-0.0045234,-0.0250315,-0.0521446,-0.0271131,-0.0135891,-0.0113492,0.00223996,0.000263439,-0.0589728,-0.0592362,7.35523e-18,4.99375e-14,4.99301e-14,-2.40741e-34,-6.73978e-14,-6.73978e-14,-4.97893e-17,-1.02283e-11,-1.02283e-11,
-0.119621,-0.119596,2.47388e-05,0.336635,0.336531,-0.000103544,0.0654027,0.0654105,7.73642e-06,-2.49052,-2.49033,0.000191244,-0.00460505,-0.00466099,-5.59373e-05,1.22896,1.22843,-0.000533585,0.00849247,0.00824989,-0.000242575,0.6,0.6,3.33067e-16,0.02,0.02,-6.41848e-16,0,-5.99354e-14,-5.99354e-14,0.012729,0.0146051,0.00187618,-0.0292547,-0.038308,-0.00905334,0.0132709,0.01003,-0.00324088,0.164611,0.158337,-0.00627391,-0.0241525,-0.0505237,-0.0263712,0.00118364,-0.00224956,-0.00343319,3.47479e-05,-0.0595248,-0.0595595,7.35523e-18,4.9044e-14,4.90367e-14,6.93889e-19,-1.07621e-13,-1.07622e-13,1.0432e-16,-1.02476e-11,-1.02477e-11,
-0.119494,-0.119469,2.52098e-05,0.336334,0.336233,-0.000100409,0.0655353,0.0655433,7.9293e-06,-2.48886,-2.48866,0.000199204,-0.00483874,-0.00489266,-5.39219e-05,1.229,1.22848,-0.000513364,0.00849254,0.00824653,-0.00024601,0.6,0.6,4.44089e-16,0.02,0.02,-6.9042e-16,0,-6.05208e-14,-6.05208e-14,0.0126733,0.014573,0.00189977,-0.0306087,-0.0396591,-0.00905044,0.0132452,0.00999575,-0.00324942,0.166879,0.160604,-0.00627488,-0.0230845,-0.049092,-0.0260074,0.00493197,0.00118409,-0.00374789,1.31636e-05,-0.0599261,-0.0599393,7.49401e-18,6.47064e-14,6.46989e-14,1.38778e-19,-1.18658e-13,-1.18658e-13,6.16439e-17,-1.03104e-11,-1.03104e-11,
-0.119368,-0.119342,2.55224e-05,0.336022,0.33592,-0.000101238,0.0656672,0.0656752,7.97414e-06,-2.48719,-2.48698,0.000201999,-0.00506408,-0.00511484,-5.07658e-05,1.22905,1.22854,-0.000510577,0.00849248,0.00824321,-0.000249273,0.6,0.6,4.44089e-16,0.02,0.02,-1.03736e-15,0,-5.82159e-14,-5.82159e-14,0.0125615,0.014487,0.00192544,-0.0315708,-0.0406239,-0.0090531,0.0131525,0.00989125,-0.00326124,0.167793,0.161526,-0.00626739,-0.0223731,-0.048004,-0.025631,0.00605261,0.00189049,-0.00416212,5.39066e-06,-0.0603427,-0.0603481,7.77156e-18,6.88575e-14,6.88498e-14,-1.38778e-19,-1.96746e-13,-1.96746e-13,1.0432e-16,-9.92168e-12,-9.92178e-12,
-0.119243,-0.119217,2.57823e-05,0.335703,0.335601,-0.000102314,0.065798,0.0658059,7.92074e-06,-2.48551,-2.4853,0.000203287,-0.00528332,-0.00533137,-4.80493e-05,1.22911,1.2286,-0.000511099,0.00849237,0.00823984,-0.000252528,0.6,0.6,4.44089e-16,0.02,0.02,-8.11851e-16,0,-5.78872e-14,-5.78872e-14,0.0124303,0.0143842,0.00195385,-0.032016,-0.0410711,-0.00905517,0.0130285,0.00975182,-0.00327672,0.168127,0.161873,-0.00625451,-0.0218164,-0.0470742,-0.0252578,0.00609206,0.00148236,-0.0046097,5.69963e-07,-0.0607587,-0.0607593,7.91034e-18,7.32846e-14,7.32767e-14,-1.44445e-34,-1.4589e-13,-1.4589e-13,2.37092e-16,-9.85474e-12,-9.85498e-12,
-0.11912,-0.119094,2.60312e-05,0.335382,0.335279,-0.000103107,0.0659274,0.0659352,7.82097e-06,-2.48382,-2.48362,0.000204053,-0.00549749,-0.00554301,-4.55173e-05,1.22917,1.22866,-0.000512722,0.00849222,0.00823644,-0.000255776,0.6,0.6,4.44089e-16,0.02,0.02,-8.50015e-16,0,-5.80625e-14,-5.80625e-14,0.0122915,0.0142755,0.00198401,-0.0320835,-0.0411399,-0.00905639,0.0128884,0.00959395,-0.00329447,0.16815,0.161911,-0.00623883,-0.0213345,-0.0462218,-0.0248873,0.00555604,0.000485011,-0.00507103,-2.44492e-06,-0.0611725,-0.0611701,8.18789e-18,7.63244e-14,7.63162e-14,-1.44445e-34,-1.54367e-13,-1.54367e-13,2.18125e-16,-9.8809e-12,-9.88112e-12,
-0.118998,-0.118971,2.62773e-05,0.335063,0.334959,-0.000103636,0.0660554,0.0660631,7.69772e-06,-2.48214,-2.48194,0.000204575,-0.00570712,-0.00575018,-4.30651e-05,1.22922,1.2287,-0.00051485,0.00849204,0.00823303,-0.000259012,0.6,0.6,3.33067e-16,0.02,0.02,-2.04697e-16,0,-5.89925e-14,-5.89925e-14,0.0121497,0.0141647,0.00201508,-0.0319038,-0.0409608,-0.009057,0.0127397,0.00942624,-0.00331343,0.167989,0.161767,-0.00622187,-0.0208964,-0.0454155,-0.0245191,0.0046819,-0.000855095,-0.00553699,-4.29323e-06,-0.061584,-0.0615797,7.63278e-18,5.52641e-14,5.52565e-14,-1.38778e-19,-8.80191e-15,-8.80177e-15,1.8019e-16,-1.00897e-11,-1.00898e-11,
-0.118877,-0.11885,2.65212e-05,0.334746,0.334642,-0.000103982,0.0661818,0.0661894,7.56246e-06,-2.48047,-2.48026,0.000204956,-0.00591255,-0.00595321,-4.06589e-05,1.22926,1.22874,-0.000517243,0.00849185,0.00822962,-0.000262233,0.6,0.6,2.22045e-16,0.02,0.02,-7.00828e-16,0,-6.09033e-14,-6.09033e-14,0.0120069,0.0140534,0.00204648,-0.0315673,-0.0406245,-0.00905721,0.0125865,0.00925358,-0.00333293,0.167714,0.161509,-0.00620456,-0.020487,-0.04464,-0.024153,0.00360364,-0.00239882,-0.00600246,-5.40573e-06,-0.061993,-0.0619876,7.63278e-18,4.03693e-14,4.03617e-14,2.77556e-19,-1.20815e-13,-1.20816e-13,2.08641e-16,-1.05197e-11,-1.05199e-11,
-0.118758,-0.118731,2.67623e-05,0.334433,0.334328,-0.000104209,0.0663067,0.0663141,7.42164e-06,-2.47879,-2.47859,0.00020525,-0.00611402,-0.00615231,-3.82846e-05,1.22928,1.22876,-0.000519776,0.00849166,0.00822622,-0.000265435,0.6,0.6,1.11022e-16,0.02,0.02,-1.32186e-15,0,-6.18671e-14,-6.18671e-14,0.0118644,0.0139423,0.00207786,-0.0311324,-0.0401896,-0.00905717,0.0124314,0.00907886,-0.00335256,0.167369,0.161181,-0.00618747,-0.0200973,-0.0438865,-0.0237892,0.00240262,-0.00406173,-0.00646435,-6.05894e-06,-0.0623993,-0.0623933,7.77156e-18,3.16724e-15,3.15947e-15,-1.44445e-34,-2.60953e-13,-2.60953e-13,1.8019e-16,-1.07332e-11,-1.07334e-11,
-0.11864,-0.118613,2.70001e-05,0.334124,0.33402,-0.00010436,0.06643,0.0664373,7.2791e-06,-2.47712,-2.47691,0.000205486,-0.0063117,-0.00634763,-3.59349e-05,1.2293,1.22878,-0.000522377,0.00849146,0.00822284,-0.000268618,0.6,0.6,1.11022e-16,0.02,0.02,-1.56819e-15,0,-6.16791e-14,-6.16791e-14,0.0117228,0.0138317,0.002109,-0.0306365,-0.0396935,-0.00905697,0.0122759,0.00890383,-0.00337205,0.166979,0.160808,-0.00617093,-0.019722,-0.0431497,-0.0234276,0.00112946,-0.00579133,-0.00692079,-6.42645e-06,-0.0628029,-0.0627965,7.63278e-18,-8.70441e-16,-8.78074e-16,1.38778e-19,-3.16761e-13,-3.16761e-13,1.0195e-16,-1.06926e-11,-1.06927e-11,
-0.118524,-0.118496,2.72341e-05,0.333821,0.333717,-0.000104464,0.0665518,0.066559,7.13719e-06,-2.47545,-2.47525,0.000205683,-0.00650569,-0.0065393,-3.36052e-05,1.2293,1.22877,-0.000524999,0.00849126,0.00821948,-0.00027178,0.6,0.6,1.11022e-16,0.02,0.02,-1.7937e-15,0,-6.01748e-14,-6.01748e-14,0.0115823,0.0137221,0.00213976,-0.0301032,-0.0391599,-0.00905668,0.0121208,0.00872952,-0.00339126,0.166563,0.160408,-0.00615518,-0.0193576,-0.042426,-0.0230683,-0.000184096,-0.00755471,-0.00737061,-6.61646e-06,-0.0632037,-0.0631971,7.91034e-18,-1.51605e-15,-1.52396e-15,1.38778e-19,-3.67621e-13,-3.67621e-13,8.53531e-17,-1.03505e-11,-1.03506e-11,
-0.118409,-0.118381,2.74642e-05,0.333524,0.333419,-0.000104537,0.0666721,0.0666791,6.99729e-06,-2.47379,-2.47358,0.000205853,-0.00669611,-0.0067274,-3.12927e-05,1.22929,1.22876,-0.000527615,0.00849106,0.00821614,-0.00027492,0.6,0.6,1.11022e-16,0.02,0.02,-1.67921e-15,0,-5.82721e-14,-5.82721e-14,0.0114432,0.0136133,0.00217006,-0.0295473,-0.0386036,-0.00905633,0.0119666,0.00855656,-0.00341007,0.16613,0.15999,-0.00614032,-0.0190019,-0.0417132,-0.0227113,-0.00151808,-0.00933121,-0.00781314,-6.69627e-06,-0.0636017,-0.063595,8.18789e-18,6.55302e-15,6.54483e-15,-1.44445e-34,-3.41356e-13,-3.41356e-13,3.31929e-17,-9.91884e-12,-9.91887e-12,
-0.118295,-0.118267,2.76902e-05,0.333232,0.333127,-0.000104591,0.0667908,0.0667977,6.86025e-06,-2.47213,-2.47192,0.000206003,-0.00688302,-0.00691201,-2.89957e-05,1.22926,1.22873,-0.000530208,0.00849086,0.00821282,-0.00027804,0.6,0.6,2.22045e-16,0.02,0.02,-1.63411e-15,0,-5.60433e-14,-5.60433e-14,0.0113057,0.0135055,0.00219986,-0.0289782,-0.0380342,-0.00905594,0.0118138,0.00838532,-0.00342844,0.165688,0.159562,-0.00612645,-0.0186534,-0.0410098,-0.0223564,-0.00285993,-0.0111079,-0.00824796,-6.70774e-06,-0.0639969,-0.0639902,8.18789e-18,3.26191e-14,3.26109e-14,-4.16334e-19,-3.30816e-13,-3.30815e-13,2.8451e-17,-9.43034e-12,-9.43037e-12,
-0.118183,-0.118155,2.79119e-05,0.332946,0.332841,-0.000104633,0.066908,0.0669147,6.72656e-06,-2.47047,-2.47027,0.000206137,-0.00706649,-0.0070932,-2.67129e-05,1.22922,1.22869,-0.000532766,0.00849066,0.00820952,-0.000281137,0.6,0.6,4.44089e-16,0.02,0.02,-1.38431e-15,0,-5.37209e-14,-5.37209e-14,0.0111696,0.0133987,0.00222913,-0.0284019,-0.0374575,-0.00905553,0.0116624,0.00821602,-0.00344633,0.16524,0.159127,-0.00611359,-0.0183112,-0.0403151,-0.0220039,-0.00420175,-0.0128766,-0.00867484,-6.67691e-06,-0.0643893,-0.0643827,8.04912e-18,7.26165e-14,7.26085e-14,-4.16334e-19,-2.74502e-13,-2.74502e-13,6.63858e-17,-8.90931e-12,-8.90937e-12,
-0.118072,-0.118044,2.81294e-05,0.332665,0.33256,-0.000104666,0.0670237,0.0670303,6.5965e-06,-2.46883,-2.46862,0.000206259,-0.00724658,-0.00727103,-2.44436e-05,1.22917,1.22864,-0.000535283,0.00849046,0.00820625,-0.000284213,0.6,0.6,4.44089e-16,0.02,0.02,-1.25594e-15,0,-5.33618e-14,-5.33618e-14,0.0110351,0.0132929,0.00225785,-0.0278222,-0.0368773,-0.00905512,0.0115125,0.00804877,-0.00346372,0.164789,0.158688,-0.00610179,-0.0179747,-0.0396282,-0.0216535,-0.00553858,-0.0146323,-0.00909369,-6.61998e-06,-0.064779,-0.0647723,7.63278e-18,7.50432e-14,7.50356e-14,1.38778e-19,-2.45202e-13,-2.45202e-13,-4.50475e-17,-8.83092e-12,-8.83088e-12,
-0.117962,-0.117934,2.83426e-05,0.332391,0.332286,-0.000104695,0.0671379,0.0671443,6.47022e-06,-2.46718,-2.46697,0.00020637,-0.00742335,-0.00744554,-2.21873e-05,1.22911,1.22857,-0.000537755,0.00849027,0.008203,-0.000287267,0.6,0.6,4.44089e-16,0.02,0.02,-1.72778e-15,0,-5.39448e-14,-5.39448e-14,0.0109021,0.0131881,0.00228603,-0.0272413,-0.036296,-0.00905469,0.0113642,0.00788364,-0.00348061,0.164337,0.158246,-0.00609103,-0.0176435,-0.0389488,-0.0213053,-0.00686732,-0.0163718,-0.00950444,-6.54704e-06,-0.0651658,-0.0651592,7.49401e-18,8.33464e-14,8.33389e-14,-1.38778e-19,-3.51788e-13,-3.51788e-13,7.58695e-17,-8.95526e-12,-8.95534e-12,
-0.117854,-0.117826,2.85516e-05,0.332122,0.332017,-0.000104721,0.0672506,0.0672569,6.34779e-06,-2.46554,-2.46533,0.000206472,-0.00759685,-0.00761679,-1.99435e-05,1.22903,1.22849,-0.00054018,0.00849007,0.00819977,-0.000290299,0.6,0.6,5.55112e-16,0.02,0.02,-1.70697e-15,0,-5.24053e-14,-5.24053e-14,0.0107707,0.0130843,0.00231366,-0.0266609,-0.0357152,-0.00905427,0.0112176,0.00772066,-0.00349698,0.163886,0.157804,-0.00608133,-0.0173174,-0.0382767,-0.0209593,-0.00818603,-0.0180931,-0.0099071,-6.46437e-06,-0.0655499,-0.0655434,7.63278e-18,1.04628e-13,1.04621e-13,-2.77556e-19,-3.46839e-13,-3.46839e-13,5.21602e-17,-8.61625e-12,-8.6163e-12,
-0.117747,-0.117718,2.87564e-05,0.331859,0.331754,-0.000104744,0.0673619,0.0673681,6.22921e-06,-2.4639,-2.4637,0.000206566,-0.00776713,-0.00778484,-1.77121e-05,1.22894,1.2284,-0.000542556,0.00848988,0.00819657,-0.00029331,0.6,0.6,5.55112e-16,0.02,0.02,-2.0331e-15,0,-5.22045e-14,-5.22045e-14,0.0106407,0.0129815,0.00234075,-0.0260819,-0.0351357,-0.00905385,0.0110727,0.00755983,-0.00351285,0.163434,0.157362,-0.00607267,-0.016996,-0.0376115,-0.0206155,-0.00949351,-0.0197952,-0.0103017,-6.37588e-06,-0.0659312,-0.0659248,7.63278e-18,1.1127e-13,1.11262e-13,2.77556e-19,-4.20564e-13,-4.20564e-13,1.89674e-17,-8.56333e-12,-8.56335e-12,
-0.117642,-0.117613,2.8957e-05,0.331601,0.331497,-0.000104766,0.0674717,0.0674778,6.11447e-06,-2.46227,-2.46206,0.000206652,-0.00793422,-0.00794971,-1.54928e-05,1.22883,1.22829,-0.000544884,0.00848969,0.00819339,-0.0002963,0.6,0.6,5.55112e-16,0.02,0.02,-2.15453e-15,0,-5.2901e-14,-5.2901e-14,0.0105123,0.0128796,0.00236731,-0.0255049,-0.0345583,-0.00905343,0.0109294,0.00740116,-0.00352821,0.162984,0.156919,-0.00606506,-0.0166794,-0.0369532,-0.0202738,-0.010789,-0.0214773,-0.0106883,-6.28401e-06,-0.0663098,-0.0663035,7.35523e-18,1.04378e-13,1.0437e-13,4.16334e-19,-4.47852e-13,-4.47853e-13,1.89674e-17,-8.71567e-12,-8.71569e-12,
-0.117537,-0.117508,2.91535e-05,0.33135,0.331245,-0.000104787,0.0675801,0.0675861,6.00355e-06,-2.46064,-2.46044,0.00020673,-0.00809819,-0.00811147,-1.32855e-05,1.22872,1.22817,-0.000547161,0.00848951,0.00819024,-0.000299269,0.6,0.6,6.66134e-16,0.02,0.02,-2.1233e-15,0,-5.12759e-14,-5.12759e-14,0.0103854,0.0127787,0.00239333,-0.0249302,-0.0339832,-0.00905301,0.0107877,0.00724464,-0.00354307,0.162535,0.156477,-0.00605847,-0.0163673,-0.0363016,-0.0199343,-0.0120722,-0.0231391,-0.0110669,-6.19026e-06,-0.0666857,-0.0666795,7.49401e-18,1.27586e-13,1.27579e-13,-4.81482e-35,-4.40672e-13,-4.40672e-13,-3.31929e-17,-8.35961e-12,-8.35958e-12,
-0.117434,-0.117405,2.9346e-05,0.331104,0.330999,-0.000104807,0.0676871,0.067693,5.89638e-06,-2.45902,-2.45881,0.0002068,-0.00825907,-0.00827016,-1.10902e-05,1.22859,1.22804,-0.00054939,0.00848932,0.0081871,-0.000302216,0.6,0.6,6.66134e-16,0.02,0.02,-2.32453e-15,0,-5.11756e-14,-5.11756e-14,0.01026,0.0126788,0.00241883,-0.0243582,-0.0334108,-0.0090526,0.0106477,0.00709024,-0.00355744,0.162088,0.156035,-0.00605291,-0.0160597,-0.0356567,-0.0195969,-0.0133427,-0.0247804,-0.0114377,-6.09558e-06,-0.0670589,-0.0670528,7.63278e-18,1.33219e-13,1.33211e-13,-4.81482e-35,-4.85929e-13,-4.85929e-13,-2.8451e-17,-8.33744e-12,-8.33741e-12,
-0.117332,-0.117303,2.95344e-05,0.330864,0.330759,-0.000104827,0.0677927,0.0677985,5.79292e-06,-2.4574,-2.4572,0.000206864,-0.00841691,-0.00842582,-8.90663e-06,1.22845,1.22789,-0.000551569,0.00848914,0.008184,-0.000305143,0.6,0.6,7.77156e-16,0.02,0.02,-2.83107e-15,0,-4.88899e-14,-4.88899e-14,0.0101361,0.0125799,0.00244381,-0.0237889,-0.0328411,-0.0090522,0.0105093,0.00693796,-0.00357133,0.161642,0.155593,-0.00604836,-0.0157566,-0.0350182,-0.0192617,-0.0146004,-0.026401,-0.0118006,-6.00056e-06,-0.0674294,-0.0674234,7.35523e-18,1.68003e-13,1.67996e-13,-1.38778e-19,-6.00278e-13,-6.00277e-13,1.51739e-16,-7.835e-12,-7.83515e-12,
-0.117232,-0.117202,2.9719e-05,0.33063,0.330525,-0.000104846,0.067897,0.0679027,5.69312e-06,-2.45579,-2.45558,0.00020692,-0.00857176,-0.00857849,-6.73479e-06,1.22829,1.22774,-0.000553699,0.00848896,0.00818091,-0.000308048,0.6,0.6,7.77156e-16,0.02,0.02,-3.11903e-15,0,-5.05166e-14,-5.05166e-14,0.0100136,0.0124819,0.00246829,-0.0232226,-0.0322744,-0.0090518,0.0103725,0.00678777,-0.00358474,0.161198,0.155153,-0.0060448,-0.0154578,-0.0343863,-0.0189285,-0.0158453,-0.0280011,-0.0121557,-5.90556e-06,-0.0677973,-0.0677913,7.77156e-18,1.56867e-13,1.56859e-13,-4.16334e-19,-6.65741e-13,-6.6574e-13,1.35142e-16,-8.18906e-12,-8.1892e-12,
-0.117132,-0.117102,2.98996e-05,0.330401,0.330296,-0.000104865,0.0679999,0.0680055,5.59691e-06,-2.45418,-2.45397,0.00020697,-0.00872365,-0.00872822,-4.5746e-06,1.22812,1.22757,-0.00055578,0.00848878,0.00817785,-0.000310933,0.6,0.6,8.88178e-16,0.02,0.02,-2.96291e-15,0,-4.92517e-14,-4.92517e-14,0.00989263,0.0123849,0.00249227,-0.0226592,-0.0317106,-0.00905141,0.0102373,0.00663966,-0.00359768,0.160756,0.154713,-0.00604223,-0.0151633,-0.0337608,-0.0185974,-0.0170774,-0.0295806,-0.0125032,-5.81081e-06,-0.0681624,-0.0681566,8.04912e-18,1.70639e-13,1.70631e-13,-4.81482e-35,-6.30685e-13,-6.30685e-13,4.97893e-17,-7.91409e-12,-7.91414e-12,
-0.117036,-0.117003,3.24479e-05,0.330177,0.330071,-0.000105424,0.0680979,0.0681062,8.36369e-06,-2.4526,-2.45237,0.000229897,-0.00890754,-0.0088799,2.76364e-05,1.2278,1.22736,-0.000444842,0.00842816,0.00812352,-0.000304639,0.600091,0.600015,-7.65265e-05,0.0200067,0.0199993,-7.35109e-06,1.92272e-07,7.85002e-05,7.8308e-05,0.0095132,0.0124265,0.0029133,-0.0218987,-0.0314276,-0.00952886,0.00968582,0.00643976,-0.00324606,0.155968,0.153303,-0.00266507,-0.0195238,-0.0344438,-0.01492,-0.0376257,-0.0367594,0.000866331,-0.00687523,-0.0760406,-0.0691654,0.0151753,0.00389607,-0.0112792,0.00102217,-0.000343211,-0.00136538,0.100867,0.0199377,-0.0809294,
-0.116941,-0.116907,3.38384e-05,0.329971,0.329859,-0.000111237,0.0681939,0.0681992,5.28951e-06,-2.45106,-2.45084,0.000222577,-0.00910661,-0.00909339,1.3225e-05,1.22739,1.22685,-0.000538523,0.00835795,0.00788902,-0.000468926,0.60032,0.600262,-5.77572e-05,0.0200229,0.020011,-1.18897e-05,0.00208173,0.000855026,-0.0012267,0.00941977,0.0129019,0.00348209,-0.0197775,-0.0302193,-0.0104417,0.00956573,0.0058657,-0.00370003,0.153054,0.148023,-0.00503069,-0.0201764,-0.0401336,-0.0199572,-0.0436403,-0.0674156,-0.0237754,-0.00701331,-0.115895,-0.108882,0.0275221,0.0224482,-0.00507385,0.00200165,-0.0012446,-0.00324625,0.171809,0.0284842,-0.143324,
-0.116847,-0.116813,3.39555e-05,0.329784,0.329673,-0.000111312,0.0682891,0.0682942,5.09372e-06,-2.44954,-2.44932,0.000219251,-0.00930764,-0.00929375,1.38914e-05,1.22693,1.22638,-0.000552427,0.00828895,0.00779619,-0.000492762,0.600648,0.600599,-4.83987e-05,0.0200471,0.0200337,-1.33969e-05,0.00404396,0.0034983,-0.000545659,0.00939067,0.0129197,0.00352902,-0.0179297,-0.0284891,-0.0105595,0.0094981,0.00580852,-0.00368958,0.151549,0.146323,-0.0052268,-0.0201634,-0.0400727,-0.0199093,-0.0463029,-0.0715822,-0.0252793,-0.00680721,-0.118403,-0.111596,0.035772,0.0313433,-0.00442873,0.00265638,-0.00113381,-0.00379019,0.208696,0.066597,-0.142099,
-0.116754,-0.116719,3.41881e-05,0.329614,0.329503,-0.000110784,0.0683837,0.0683887,5.09062e-06,-2.44803,-2.44781,0.000217549,-0.00950727,-0.00949209,1.51792e-05,1.22646,1.2259,-0.000560129,0.00822193,0.00771407,-0.00050786,0.601039,0.600998,-4.14707e-05,0.0200761,0.0200623,-1.37906e-05,0.00622148,0.00573507,-0.000486405,0.00935503,0.0129268,0.0035718,-0.0165617,-0.0271991,-0.0106374,0.00942973,0.00575525,-0.00367447,0.150651,0.145275,-0.00537597,-0.0199666,-0.0397616,-0.0197949,-0.0479438,-0.0742926,-0.0263488,-0.00662358,-0.11998,-0.113356,0.0411257,0.0370909,-0.0040348,0.00304908,-0.00103218,-0.00408127,0.221202,0.0831293,-0.138072,
-0.11666,-0.116626,3.44019e-05,0.329455,0.329344,-0.000110412,0.0684775,0.0684826,5.12874e-06,-2.44653,-2.44631,0.000216629,-0.00970451,-0.00968777,1.67384e-05,1.22597,1.2254,-0.000565124,0.00815657,0.00763833,-0.000518233,0.601473,0.601436,-3.76123e-05,0.0201081,0.020094,-1.40627e-05,0.00842455,0.00797504,-0.000449513,0.00930336,0.0129096,0.00360628,-0.0155461,-0.0262416,-0.0106955,0.00935272,0.00569202,-0.0036607,0.150027,0.144542,-0.00548473,-0.0197072,-0.0393357,-0.0196284,-0.0491579,-0.0762924,-0.0271345,-0.00647312,-0.121049,-0.114576,0.0447741,0.0409895,-0.00378461,0.00327852,-0.000997829,-0.00427635,0.218441,0.0823958,-0.136045,
-0.116568,-0.116533,3.45884e-05,0.329304,0.329194,-0.000110022,0.0685706,0.0685757,5.03455e-06,-2.44503,-2.44481,0.000216077,-0.00989908,-0.00988064,1.84361e-05,1.22547,1.2249,-0.000569885,0.00809184,0.00756643,-0.000525411,0.601936,0.601901,-3.44181e-05,0.0201411,0.0201274,-1.37358e-05,0.0105436,0.0101201,-0.000423515,0.00923486,0.0128728,0.0036379,-0.0148611,-0.0254974,-0.0106363,0.009332,0.00561786,-0.00371413,0.14951,0.143961,-0.0055496,-0.0194427,-0.0388644,-0.0194217,-0.0497002,-0.0779607,-0.0282605,-0.00668083,-0.121873,-0.115192,0.0468711,0.0435958,-0.0032753,0.0031271,-0.00101276,-0.00413986,0.203884,0.0735433,-0.130341,
-0.116475,-0.11644,3.5521e-05,0.32916,0.32905,-0.000110038,0.0686636,0.0686658,2.19309e-06,-2.44354,-2.44332,0.000216886,-0.0100952,-0.0100749,2.02864e-05,1.22495,1.22438,-0.000574871,0.00802411,0.00749263,-0.000531485,0.602441,0.602389,-5.13546e-05,0.0201667,0.0201654,-1.30816e-06,0.011865,0.0123149,0.000449903,0.00926437,0.0129566,0.0036922,-0.0140164,-0.0246997,-0.0106833,0.00927257,0.00520571,-0.00406686,0.148912,0.143398,-0.00551409,-0.0197205,-0.0388706,-0.0191501,-0.0525802,-0.0815369,-0.0289567,-0.00680222,-0.122862,-0.11606,0.0526003,0.0467692,-0.00583103,0.00226524,0.000279997,-0.00198524,0.0925074,0.10858,0.0160722,
-0.116383,-0.116345,3.76214e-05,0.329025,0.328917,-0.000108535,0.068756,0.0687543,-1.74819e-06,-2.44205,-2.44183,0.000217189,-0.0102911,-0.0102739,1.71839e-05,1.22442,1.22382,-0.00059839,0.00795576,0.00741956,-0.0005362,0.602989,0.602955,-3.43297e-05,0.0201854,0.0201949,9.58196e-06,0.0123159,0.0130939,0.000777933,0.00923809,0.0130078,0.00376973,-0.0131797,-0.0235692,-0.0103895,0.00921858,0.00480861,-0.00440998,0.148291,0.142657,-0.00563477,-0.0196607,-0.0387812,-0.0191205,-0.0541623,-0.0852314,-0.031069,-0.00686563,-0.123429,-0.116564,0.0562143,0.0526636,-0.00355074,0.00171243,0.0016696,-4.28373e-05,0.0204505,0.105275,0.0848248,
-0.11629,-0.116257,3.32653e-05,0.328898,0.328787,-0.000111169,0.0688479,0.068855,7.08896e-06,-2.44057,-2.44035,0.000217161,-0.0104864,-0.0104554,3.09921e-05,1.22387,1.22332,-0.000548211,0.00788671,0.00735194,-0.000534774,0.603564,0.603506,-5.88618e-05,0.0201998,0.0201856,-1.42117e-05,0.0122056,0.0121813,-2.43014e-05,0.00919999,0.0125885,0.00338847,-0.0124219,-0.0235737,-0.0111518,0.00916985,0.00594907,-0.00322078,0.147764,0.142526,-0.00523854,-0.0195896,-0.0370567,-0.0174671,-0.0553407,-0.0788,-0.0234593,-0.0069258,-0.123952,-0.117026,0.0582739,0.0487774,-0.00949653,0.00128481,-0.00397296,-0.00525778,-0.0296716,-0.10556,-0.0758879,
-0.116199,-0.116166,3.24663e-05,0.328778,0.328667,-0.0001113,0.0689393,0.068948,8.76164e-06,-2.4391,-2.43888,0.000217691,-0.0106812,-0.0106452,3.60164e-05,1.22331,1.22277,-0.000534525,0.0078168,0.00728851,-0.000528291,0.604155,0.604089,-6.56368e-05,0.0202113,0.020192,-1.93978e-05,0.0117083,0.0114835,-0.000224799,0.00916967,0.0124887,0.00331903,-0.0117399,-0.0229765,-0.0112366,0.00913041,0.0060941,-0.0030363,0.147313,0.142293,-0.00502028,-0.0195291,-0.0363083,-0.0167792,-0.0563391,-0.0778245,-0.0214854,-0.00700379,-0.123233,-0.116229,0.0592212,0.0478887,-0.0113325,0.000943045,-0.00518191,-0.00612495,-0.0659838,-0.172796,-0.106812,
-0.116107,-0.116076,3.12232e-05,0.328664,0.328553,-0.000111018,0.0690302,0.0690415,1.12322e-05,-2.43763,-2.43741,0.000218704,-0.0108754,-0.0108332,4.22398e-05,1.22274,1.22222,-0.000515541,0.00774526,0.00723094,-0.000514329,0.604748,0.604673,-7.4883e-05,0.020221,0.020194,-2.70111e-05,0.011001,0.0104377,-0.000563287,0.00912157,0.0123478,0.00322619,-0.0112665,-0.0224542,-0.0111877,0.00911414,0.00637265,-0.00274148,0.146843,0.142218,-0.00462452,-0.0192702,-0.0353305,-0.0160604,-0.0564921,-0.0756634,-0.0191713,-0.00720688,-0.121739,-0.114532,0.0581285,0.0450996,-0.0130289,0.000945998,-0.00678958,-0.00773558,-0.0534594,-0.249368,-0.195909,
-0.116016,-0.115981,3.5104e-05,0.328552,0.328449,-0.000102789,0.069121,0.0691246,3.67335e-06,-2.43616,-2.43594,0.000220078,-0.0110658,-0.0110315,3.43048e-05,1.22217,1.22162,-0.000553702,0.00767333,0.00720247,-0.000470859,0.605292,0.605264,-2.74882e-05,0.0202316,0.0202174,-1.41513e-05,0.0110833,0.00997975,-0.00110353,0.0090668,0.0125997,0.00353293,-0.0112892,-0.0209431,-0.00965393,0.00905589,0.00522379,-0.00383209,0.146837,0.14236,-0.00447713,-0.0190423,-0.0352877,-0.0162454,-0.0558239,-0.0793357,-0.0235118,-0.00726347,-0.115922,-0.108658,0.052335,0.0453647,-0.00697033,0.00113424,-0.00330486,-0.0044391,0.0408452,-0.21372,-0.254565,
-0.115926,-0.115891,3.4996e-05,0.32844,0.328336,-0.000104061,0.0692113,0.0692153,4.01796e-06,-2.43469,-2.43447,0.000219663,-0.0112559,-0.0112191,3.67952e-05,1.22161,1.22106,-0.000549482,0.0075994,0.00712089,-0.000478504,0.6058,0.60576,-4.06147e-05,0.0202427,0.0202273,-1.54498e-05,0.0116278,0.010766,-0.000861829,0.00906061,0.0127852,0.00372459,-0.0110226,-0.020792,-0.00976946,0.00902838,0.00486804,-0.00416034,0.14672,0.142271,-0.00444864,-0.0192518,-0.0355084,-0.0162566,-0.0573676,-0.0813568,-0.0239892,-0.00746758,-0.115261,-0.107793,0.0512434,0.0424486,-0.00879485,0.000997987,-0.00314206,-0.00414005,0.032456,-0.163397,-0.195853,
-0.115835,-0.115798,3.70187e-05,0.328334,0.328227,-0.000106666,0.0693011,0.0693011,4.34491e-08,-2.43323,-2.43301,0.000221045,-0.0114478,-0.0114129,3.49821e-05,1.22102,1.22046,-0.000560298,0.00752379,0.0070345,-0.000489292,0.606333,0.606274,-5.9231e-05,0.0202552,0.0202472,-7.99533e-06,0.0116506,0.0116043,-4.62859e-05,0.00904662,0.0129664,0.00391982,-0.0102359,-0.0201894,-0.00995354,0.0089596,0.00425454,-0.00470506,0.146092,0.141642,-0.00445042,-0.0192255,-0.0358849,-0.0166593,-0.0597747,-0.0864218,-0.0266471,-0.00753002,-0.116664,-0.109134,0.0545814,0.045386,-0.00919538,0.00144758,-0.00104034,-0.00248792,-0.012415,-0.0880081,-0.0755932,
-0.115745,-0.115708,3.72551e-05,0.328236,0.32813,-0.000106033,0.0693904,0.0693904,3.38189e-08,-2.43177,-2.43155,0.000220903,-0.0116364,-0.0116009,3.55255e-05,1.22042,1.21985,-0.000566511,0.00745008,0.00696263,-0.000487452,0.606883,0.606834,-4.88449e-05,0.0202717,0.0202634,-8.31322e-06,0.0115066,0.0112522,-0.000254387,0.00897931,0.0129376,0.00395832,-0.00970337,-0.0194275,-0.00972412,0.0089032,0.00419349,-0.00470971,0.145633,0.14116,-0.00447294,-0.0185545,-0.0352705,-0.0167161,-0.0592076,-0.0873416,-0.028134,-0.00715996,-0.115994,-0.108834,0.0536119,0.0471446,-0.00646735,0.00174767,-0.000726164,-0.00247384,0.00987264,-0.116867,-0.12674,
-0.115656,-0.115618,3.7527e-05,0.328141,0.328037,-0.000104331,0.0694787,0.0694789,1.83172e-07,-2.43031,-2.43009,0.000219418,-0.0118209,-0.0117835,3.74507e-05,1.21982,1.21925,-0.000569341,0.00737788,0.00689383,-0.000484051,0.607408,0.607373,-3.4586e-05,0.0202904,0.0202827,-7.76528e-06,0.0117362,0.0112668,-0.000469391,0.00890755,0.0128746,0.00396703,-0.00925424,-0.0189448,-0.00969053,0.0087973,0.00410132,-0.00469598,0.145464,0.140881,-0.00458298,-0.0186226,-0.0346492,-0.0160267,-0.0608928,-0.0879286,-0.0270358,-0.00731437,-0.115527,-0.108213,0.0532803,0.0459845,-0.00729582,0.00195931,-0.000469282,-0.00242859,0.0063239,-0.108745,-0.115069,
-0.115567,-0.115529,3.74399e-05,0.328052,0.327946,-0.000106126,0.0695663,0.0695663,5.55641e-08,-2.42886,-2.42864,0.000220822,-0.0120045,-0.0119642,4.02498e-05,1.2192,1.21864,-0.000563363,0.00730542,0.00682277,-0.000482654,0.60795,0.607895,-5.50612e-05,0.0203108,0.0203031,-7.63369e-06,0.0116063,0.0114597,-0.000146575,0.00883597,0.0128113,0.00397532,-0.00869681,-0.0184915,-0.0097947,0.00873553,0.004012,-0.00472353,0.144964,0.14054,-0.0044244,-0.0180981,-0.0340605,-0.0159623,-0.0611494,-0.0887356,-0.0275862,-0.00707077,-0.115296,-0.108225,0.0535943,0.04551,-0.00808436,0.00205893,-0.000328297,-0.00238722,-0.00617032,-0.113049,-0.106879,
-0.115479,-0.115441,3.78099e-05,0.327966,0.327863,-0.000103455,0.0696529,0.0696531,2.08429e-07,-2.42741,-2.42719,0.000219025,-0.0121827,-0.0121423,4.04274e-05,1.21859,1.21802,-0.000573828,0.00723507,0.00675498,-0.000480092,0.608462,0.608437,-2.59238e-05,0.0203316,0.0203245,-7.11079e-06,0.0118287,0.0112218,-0.000606909,0.00874373,0.0127463,0.00400262,-0.00841261,-0.0179603,-0.00954767,0.0086113,0.00392001,-0.00469129,0.144875,0.140213,-0.00466198,-0.0180264,-0.0334409,-0.0154146,-0.0619955,-0.089348,-0.0273525,-0.00716715,-0.114763,-0.107596,0.0514157,0.0451337,-0.00628195,0.00211922,-0.000203437,-0.00232266,0.0128122,-0.121833,-0.134645,
-0.115392,-0.115355,3.75923e-05,0.327886,0.32778,-0.000106187,0.0697385,0.0697386,8.05752e-08,-2.42597,-2.42575,0.000220699,-0.0123614,-0.0123164,4.50037e-05,1.21796,1.2174,-0.000560649,0.0071632,0.00668456,-0.000478634,0.608989,0.60893,-5.93983e-05,0.0203531,0.0203458,-7.30153e-06,0.0116687,0.0115895,-7.9156e-05,0.0086857,0.0126641,0.00397842,-0.00777189,-0.0176555,-0.00988356,0.00853791,0.00382003,-0.00471788,0.144357,0.139924,-0.00443252,-0.0178819,-0.0328801,-0.0149982,-0.0635966,-0.0901079,-0.0265113,-0.00716599,-0.114793,-0.107627,0.0534224,0.0435339,-0.00988852,0.00216832,-0.000168442,-0.00233676,-0.0325065,-0.113019,-0.0805125,
-0.115306,-0.115268,3.80094e-05,0.327809,0.327706,-0.000102994,0.0698234,0.0698235,1.4198e-07,-2.42452,-2.4243,0.000218949,-0.0125342,-0.0124909,4.33527e-05,1.21734,1.21676,-0.000577839,0.00709387,0.00661637,-0.000477496,0.609492,0.609472,-2.0106e-05,0.0203745,0.0203678,-6.76533e-06,0.0117814,0.0110736,-0.000707809,0.00858215,0.0126091,0.00402694,-0.0076041,-0.0170359,-0.00943184,0.00843408,0.0037395,-0.00469459,0.144245,0.139519,-0.00472571,-0.0174307,-0.0322717,-0.014841,-0.0629937,-0.0907999,-0.0278062,-0.00703939,-0.114217,-0.107178,0.0494295,0.0442571,-0.00517243,0.00215569,-9.76105e-05,-0.0022533,0.0170836,-0.137122,-0.154206,
-0.115221,-0.115182,3.89477e-05,0.327736,0.327633,-0.000103499,0.0699074,0.0699061,-1.23014e-06,-2.42308,-2.42286,0.00022113,-0.0127066,-0.0126683,3.83345e-05,1.2167,1.21611,-0.000591675,0.00702329,0.0065366,-0.000486689,0.609992,0.609967,-2.49216e-05,0.0203962,0.0203893,-6.90608e-06,0.0117791,0.0111594,-0.000619698,0.0085024,0.0126999,0.00419751,-0.00720144,-0.016297,-0.00909557,0.00836941,0.00351277,-0.00485664,0.143821,0.139152,-0.00466973,-0.0169801,-0.0333127,-0.0163327,-0.0633278,-0.0965396,-0.0332118,-0.00688933,-0.115782,-0.108893,0.0487986,0.0490117,0.000213058,0.00215086,-0.000125804,-0.00227667,0.0152232,-0.215081,-0.230304,
-0.115136,-0.115097,3.90153e-05,0.327667,0.327564,-0.000103112,0.0699904,0.0699893,-1.05819e-06,-2.42165,-2.42143,0.000220302,-0.0128769,-0.0128354,4.14803e-05,1.21605,1.21546,-0.000589825,0.00695265,0.00646749,-0.000485152,0.610482,0.61046,-2.20503e-05,0.0204179,0.020411,-6.887e-06,0.0118076,0.0111483,-0.000659324,0.00844251,0.0126247,0.00418221,-0.00668298,-0.0159005,-0.0092175,0.00827441,0.00343683,-0.00483758,0.143491,0.138804,-0.00468726,-0.017161,-0.0326976,-0.0155366,-0.0655271,-0.0970783,-0.0315512,-0.00714591,-0.115635,-0.108489,0.0500553,0.0481049,-0.00195037,0.00217979,-0.000123719,-0.00230351,-0.019385,-0.213146,-0.193761,
-0.115052,-0.115013,3.89379e-05,0.327601,0.327499,-0.00010206,0.0700726,0.0700721,-5.54986e-07,-2.42021,-2.41999,0.000219202,-0.0130436,-0.0129999,4.3642e-05,1.2154,1.21481,-0.000593176,0.00688299,0.00639998,-0.000483011,0.610962,0.610954,-7.9232e-06,0.0204393,0.0204326,-6.65362e-06,0.0118909,0.0110042,-0.000886752,0.00835274,0.0124483,0.00409552,-0.00637081,-0.0156073,-0.00923654,0.00817525,0.00349086,-0.00468439,0.143239,0.138324,-0.00491489,-0.0168658,-0.0310854,-0.0142196,-0.0658074,-0.094838,-0.0290307,-0.00709923,-0.114313,-0.107214,0.048295,0.0453518,-0.00294322,0.00215007,-0.000138003,-0.00228807,-0.00187232,-0.180592,-0.178719,
-0.114969,-0.11493,3.95069e-05,0.32754,0.327438,-0.00010211,0.0701539,0.0701527,-1.20765e-06,-2.41878,-2.41856,0.000220052,-0.0132089,-0.0131673,4.16332e-05,1.21474,1.21414,-0.000602478,0.00681282,0.00632364,-0.000489182,0.61144,0.611434,-6.43013e-06,0.0204606,0.0204538,-6.7619e-06,0.0118896,0.0109927,-0.000896905,0.00827283,0.0124343,0.00416146,-0.00594318,-0.0150339,-0.00909068,0.00808334,0.00337002,-0.00471332,0.142875,0.137876,-0.00499929,-0.0166539,-0.0311376,-0.0144837,-0.0666852,-0.097642,-0.0309568,-0.00709316,-0.114954,-0.10786,0.0481683,0.0476645,-0.000503832,0.0021265,-0.000205751,-0.00233225,-0.00897161,-0.217859,-0.208887,
-0.114887,-0.114847,3.95332e-05,0.327483,0.327381,-0.000101848,0.0702342,0.0702332,-9.94738e-07,-2.41736,-2.41714,0.000219455,-0.013372,-0.0133278,4.42866e-05,1.21407,1.21347,-0.000601544,0.00674273,0.00625393,-0.0004888,0.611913,0.611909,-3.96631e-06,0.0204815,0.0204748,-6.7574e-06,0.0118984,0.0109673,-0.000931102,0.00819076,0.0123401,0.00414931,-0.00551192,-0.0146629,-0.00915095,0.00799129,0.00331219,-0.0046791,0.142514,0.137498,-0.00501594,-0.016474,-0.0304068,-0.0139328,-0.0676842,-0.0978116,-0.0301273,-0.00711399,-0.114783,-0.107669,0.0482256,0.0466934,-0.00153224,0.00210098,-0.000244064,-0.00234505,-0.0180136,-0.209894,-0.19188,
-0.114806,-0.114766,3.9632e-05,0.327429,0.327328,-0.000100932,0.0703136,0.0703128,-8.55535e-07,-2.41593,-2.41571,0.000218679,-0.0135313,-0.0134862,4.50906e-05,1.21341,1.2128,-0.000607777,0.00667375,0.0061838,-0.00048995,0.612372,0.612381,8.96117e-06,0.0205021,0.0204954,-6.65852e-06,0.0120661,0.0109274,-0.0011387,0.00809249,0.0122391,0.00414664,-0.00528766,-0.0142892,-0.00900155,0.00788972,0.00326699,-0.00462273,0.142317,0.137098,-0.00521972,-0.0160862,-0.0296261,-0.01354,-0.0674405,-0.0978506,-0.0304101,-0.00701513,-0.11456,-0.107545,0.0455386,0.0458263,0.000287711,0.00204814,-0.0002929,-0.00234104,0.0182108,-0.201616,-0.219827,
-0.114725,-0.114686,3.94058e-05,0.327379,0.327276,-0.000103764,0.0703921,0.0703912,-9.15123e-07,-2.41451,-2.41429,0.000220158,-0.0136913,-0.013641,5.03401e-05,1.21272,1.21213,-0.000592414,0.0066029,0.00611234,-0.000490563,0.612844,0.612817,-2.74287e-05,0.0205225,0.0205154,-7.16135e-06,0.0119419,0.0113847,-0.000557177,0.00802317,0.0121568,0.00413362,-0.00473222,-0.0140647,-0.00933243,0.00783345,0.00317368,-0.00465977,0.141768,0.136803,-0.00496423,-0.0157938,-0.0291568,-0.013363,-0.0684821,-0.0986719,-0.0301897,-0.00693001,-0.11502,-0.10809,0.0471799,0.0441451,-0.00303474,0.00202944,-0.0003757,-0.00240514,-0.0117536,-0.181246,-0.169493,
-0.114646,-0.114606,3.97411e-05,0.327333,0.327232,-0.000101064,0.0704698,0.070469,-7.77097e-07,-2.4131,-2.41288,0.000218104,-0.0138462,-0.0137967,4.94832e-05,1.21204,1.21143,-0.000607223,0.00653422,0.00604194,-0.000492277,0.613294,0.613302,7.99811e-06,0.0205425,0.0205356,-6.87764e-06,0.0121416,0.0110289,-0.00111276,0.00793794,0.0121038,0.0041659,-0.00450644,-0.0135305,-0.00902409,0.00772054,0.00310278,-0.00461776,0.141671,0.136381,-0.0052903,-0.0156743,-0.0286475,-0.0129731,-0.0688584,-0.0994587,-0.0306003,-0.00701299,-0.114924,-0.107911,0.044745,0.0449983,0.000253238,0.00199604,-0.000405552,-0.0024016,0.0200652,-0.196074,-0.21614,
-0.114566,-0.114527,3.95087e-05,0.327292,0.327188,-0.000103895,0.0705467,0.0705458,-8.97455e-07,-2.41168,-2.41146,0.000219802,-0.0140022,-0.013948,5.42325e-05,1.21133,1.21074,-0.000593035,0.00646338,0.00596997,-0.000493415,0.61376,0.613732,-2.8093e-05,0.0205625,0.0205551,-7.3931e-06,0.0120255,0.011486,-0.000539473,0.00787831,0.0120284,0.00415013,-0.0039486,-0.0133036,-0.00935495,0.00767166,0.00301634,-0.00465533,0.141113,0.136077,-0.00503537,-0.0153947,-0.0281917,-0.0127969,-0.0699284,-0.100302,-0.0303739,-0.0069252,-0.115399,-0.108473,0.0465858,0.0435484,-0.00303748,0.00198341,-0.000488881,-0.00247229,-0.0115992,-0.177748,-0.166149,
-0.114488,-0.114448,3.98203e-05,0.327254,0.327152,-0.000101618,0.0706227,0.070622,-7.05386e-07,-2.41027,-2.41005,0.0002179,-0.0141539,-0.0140998,5.41338e-05,1.21063,1.21003,-0.000604583,0.00639428,0.0058995,-0.000494786,0.61421,0.614212,1.82438e-06,0.0205821,0.0205749,-7.15042e-06,0.0121272,0.0111254,-0.00100176,0.00780519,0.0119819,0.00417672,-0.0036158,-0.0127672,-0.0091514,0.00756626,0.0029522,-0.00461406,0.140941,0.135652,-0.00528958,-0.0153988,-0.0276938,-0.012295,-0.070919,-0.101066,-0.030147,-0.0070716,-0.115306,-0.108235,0.0456397,0.0445321,-0.00110768,0.00196379,-0.00051701,-0.0024808,-0.00268628,-0.193362,-0.190676,
-0.114411,-0.11437,4.03958e-05,0.32722,0.327119,-0.000101262,0.070698,0.0706967,-1.34724e-06,-2.40887,-2.40865,0.000218646,-0.014304,-0.014253,5.10164e-05,1.20993,1.20931,-0.000618108,0.00632493,0.00582251,-0.000502422,0.61466,0.61467,9.84157e-06,0.0206014,0.0205942,-7.25261e-06,0.0121859,0.0110718,-0.0011141,0.00772902,0.0119502,0.00422123,-0.00327469,-0.0122193,-0.00894462,0.00748125,0.0028771,-0.00460415,0.140633,0.135147,-0.00548598,-0.0150948,-0.0275393,-0.0124445,-0.0711793,-0.10321,-0.0320303,-0.00699002,-0.115728,-0.108738,0.0447342,0.0469283,0.0021941,0.00192488,-0.00061009,-0.00253497,0.00847154,-0.224908,-0.233379,
-0.114334,-0.114293,4.08217e-05,0.32719,0.327089,-0.000101224,0.0707724,0.0707707,-1.77664e-06,-2.40746,-2.40724,0.000219057,-0.0144524,-0.0144023,5.0072e-05,1.20921,1.20858,-0.000625197,0.00625555,0.00574781,-0.000507742,0.615111,0.615123,1.2315e-05,0.0206205,0.0206131,-7.38179e-06,0.0122029,0.0110635,-0.0011394,0.00764495,0.0119236,0.00427869,-0.00292916,-0.011715,-0.00878582,0.00741247,0.00277822,-0.00463424,0.140267,0.134718,-0.00554877,-0.0146324,-0.027433,-0.0128006,-0.0710717,-0.105288,-0.0342161,-0.00679882,-0.11626,-0.109461,0.0438008,0.0486953,0.0048946,0.001878,-0.000690043,-0.00256804,0.0215196,-0.249298,-0.270818,
-0.114258,-0.114217,4.10658e-05,0.327164,0.327062,-0.000101489,0.070846,0.070844,-1.97146e-06,-2.40606,-2.40584,0.000219161,-0.0145993,-0.014548,5.1294e-05,1.20848,1.20786,-0.000625999,0.00618594,0.0056751,-0.000510833,0.615562,0.615571,9.30183e-06,0.0206393,0.0206317,-7.54275e-06,0.012176,0.0110977,-0.00107828,0.00757482,0.0119014,0.0043266,-0.00248459,-0.0112582,-0.00877363,0.00733355,0.00265904,-0.00467451,0.139895,0.134363,-0.00553233,-0.0144777,-0.0273617,-0.012884,-0.0720501,-0.10728,-0.0352297,-0.00681142,-0.116889,-0.110078,0.0443748,0.0498143,0.00543945,0.00185385,-0.000757904,-0.00261175,0.00894219,-0.266321,-0.275263,
-0.114182,-0.114141,4.09396e-05,0.327141,0.32704,-0.000100942,0.0709188,0.0709172,-1.56094e-06,-2.40466,-2.40445,0.000218087,-0.0147434,-0.0146889,5.44121e-05,1.20776,1.20713,-0.000624833,0.00611699,0.00560723,-0.00050976,0.616005,0.61602,1.56806e-05,0.0206577,0.0206501,-7.53271e-06,0.0122521,0.0110748,-0.00117729,0.00749771,0.0117999,0.00430216,-0.00214682,-0.0109539,-0.00880706,0.00724959,0.00262564,-0.00462395,0.139623,0.134019,-0.00560382,-0.014274,-0.0265171,-0.0122431,-0.0725856,-0.106769,-0.0341833,-0.00680621,-0.116613,-0.109807,0.0436552,0.0483056,0.0046504,0.0018224,-0.000801894,-0.00262429,0.0164929,-0.247444,-0.263937,
-0.114108,-0.114066,4.13483e-05,0.327123,0.327022,-0.000100829,0.0709907,0.0709887,-2.01989e-06,-2.40327,-2.40305,0.000218411,-0.0148862,-0.0148328,5.33681e-05,1.20702,1.20639,-0.000632759,0.00604771,0.00553252,-0.000515195,0.616449,0.616468,1.97856e-05,0.0206759,0.0206682,-7.69735e-06,0.0122654,0.0110401,-0.00122523,0.00744104,0.0117632,0.00432215,-0.00170192,-0.0104514,-0.0087495,0.00715786,0.00254625,-0.00461161,0.139322,0.13356,-0.00576147,-0.0143368,-0.026321,-0.0119842,-0.0740293,-0.108582,-0.0345531,-0.00695924,-0.116996,-0.110037,0.0444148,0.0501309,0.00571607,0.00181222,-0.000884647,-0.00269687,-0.000383651,-0.271763,-0.27138,
-0.114034,-0.113992,4.13002e-05,0.327108,0.327008,-0.000100428,0.0710619,0.0710601,-1.80967e-06,-2.40188,-2.40166,0.00021778,-0.0150268,-0.0149714,5.53713e-05,1.20628,1.20564,-0.000633962,0.00597878,0.00546337,-0.00051541,0.616891,0.616916,2.57175e-05,0.0206938,0.0206861,-7.74695e-06,0.0122794,0.0109657,-0.00131366,0.00736436,0.0116504,0.00428599,-0.00136107,-0.0101204,-0.00875933,0.00709818,0.00254795,-0.00455023,0.138987,0.133142,-0.00584532,-0.013964,-0.0253576,-0.0113935,-0.0741096,-0.107829,-0.0337192,-0.00682781,-0.116507,-0.109679,0.0436176,0.0490285,0.00541096,0.00177967,-0.000937708,-0.00271738,0.0100089,-0.256626,-0.266635,
-0.11396,-0.113919,4.1496e-05,0.327097,0.326997,-0.000100575,0.0711324,0.0711304,-1.99995e-06,-2.40049,-2.40027,0.00021792,-0.0151654,-0.0151094,5.60845e-05,1.20553,1.20489,-0.000636647,0.00591003,0.00539143,-0.0005186,0.617331,0.617356,2.5113e-05,0.0207115,0.0207036,-7.87455e-06,0.0122892,0.0109918,-0.00129736,0.00729787,0.0116267,0.0043288,-0.00102012,-0.00968911,-0.00866899,0.00702407,0.00244622,-0.00457785,0.138689,0.13279,-0.00589971,-0.0136896,-0.0252262,-0.0115366,-0.0743433,-0.109537,-0.0351938,-0.0067509,-0.117042,-0.110291,0.0428259,0.0499197,0.00709381,0.00174945,-0.000997299,-0.00274675,0.0196732,-0.270472,-0.290145,
-0.113888,-0.113846,4.16928e-05,0.32709,0.326989,-0.000100543,0.0712022,0.0712,-2.11988e-06,-2.39911,-2.39889,0.000217774,-0.0153027,-0.0152455,5.72287e-05,1.20477,1.20413,-0.000638273,0.00584104,0.00531977,-0.000521269,0.617768,0.617793,2.56539e-05,0.020729,0.020721,-7.99349e-06,0.0123159,0.0110201,-0.00129585,0.00724499,0.0116011,0.00435614,-0.000582063,-0.0092713,-0.00868924,0.0069371,0.00234795,-0.00458915,0.138394,0.132445,-0.00594883,-0.0137892,-0.0250765,-0.0112873,-0.0759283,-0.111149,-0.0352206,-0.00693301,-0.117561,-0.110628,0.0437383,0.0506644,0.0069261,0.0017445,-0.00105498,-0.00279947,-8.20422e-05,-0.282519,-0.282437,
-0.113816,-0.113774,4.16987e-05,0.327086,0.326986,-9.98854e-05,0.0712712,0.0712693,-1.88061e-06,-2.39772,-2.39751,0.000216991,-0.0154377,-0.015379,5.87074e-05,1.20401,1.20337,-0.000641523,0.00577254,0.00525068,-0.000521853,0.618201,0.618236,3.53751e-05,0.0207463,0.0207383,-7.98096e-06,0.0123659,0.0109232,-0.00144271,0.00717626,0.0114827,0.00430644,-0.000241632,-0.00894237,-0.00870074,0.0068596,0.00236814,-0.00449147,0.138114,0.132002,-0.00611213,-0.0135919,-0.0240438,-0.0104519,-0.0764064,-0.110159,-0.0337531,-0.00691298,-0.11694,-0.110027,0.0431481,0.0495934,0.0064453,0.00171579,-0.00110863,-0.00282442,0.0057088,-0.267316,-0.273024,
-0.113744,-0.113703,4.17088e-05,0.327086,0.326986,-0.00010056,0.0713395,0.0713376,-1.85957e-06,-2.39634,-2.39613,0.000217278,-0.0155712,-0.0155103,6.08695e-05,1.20324,1.20261,-0.000639003,0.00570395,0.00518063,-0.00052332,0.618637,0.618665,2.76377e-05,0.0207633,0.0207551,-8.12333e-06,0.0123373,0.0110187,-0.00131863,0.00710179,0.0114243,0.00432249,0.00010347,-0.00860685,-0.00871032,0.00680167,0.00230037,-0.0045013,0.137748,0.131663,-0.00608567,-0.0131556,-0.0236133,-0.0104577,-0.0762538,-0.110841,-0.0345868,-0.0067186,-0.117162,-0.110443,0.0424038,0.0492519,0.00684814,0.00167591,-0.00116781,-0.00284372,0.0160072,-0.264157,-0.280165,
-0.113674,-0.113632,4.1735e-05,0.32709,0.326989,-0.000100822,0.0714069,0.0714052,-1.72566e-06,-2.39497,-2.39475,0.000216783,-0.0157039,-0.0156395,6.43314e-05,1.20247,1.20183,-0.000633412,0.00563478,0.00511123,-0.000523555,0.619071,0.619093,2.21676e-05,0.02078,0.0207718,-8.26694e-06,0.0122967,0.0110766,-0.00122004,0.00705456,0.0113996,0.004345,0.00064813,-0.00823789,-0.00888602,0.00671574,0.00218855,-0.00452719,0.137374,0.13138,-0.00599382,-0.013411,-0.0234627,-0.0100517,-0.0786543,-0.112235,-0.0335808,-0.00699785,-0.117709,-0.110711,0.0449608,0.0493521,0.00439134,0.00168026,-0.00121429,-0.00289456,-0.0302159,-0.268907,-0.238692,
-0.113604,-0.113562,4.20041e-05,0.327098,0.326999,-9.881e-05,0.0714738,0.071472,-1.76925e-06,-2.3936,-2.39338,0.000215703,-0.0158323,-0.0157699,6.23619e-05,1.20169,1.20104,-0.000649408,0.00556756,0.00504117,-0.000526386,0.619497,0.619549,5.19402e-05,0.0207964,0.0207884,-8.05724e-06,0.0123735,0.0106832,-0.00169029,0.0069664,0.0113584,0.00439201,0.000779944,-0.00770087,-0.00848081,0.00665144,0.00213249,-0.00451894,0.137207,0.130936,-0.00627095,-0.0127841,-0.0230089,-0.0102247,-0.0771843,-0.112914,-0.0357294,-0.00668879,-0.117594,-0.110905,0.0412092,0.0508621,0.0096529,0.00162133,-0.00124774,-0.00286908,0.0274684,-0.29133,-0.318798,
-0.113534,-0.113491,4.28991e-05,0.327109,0.327009,-9.97001e-05,0.0715398,0.0715368,-3.01781e-06,-2.39223,-2.39201,0.000217571,-0.0159611,-0.0159021,5.89816e-05,1.20091,1.20025,-0.0006584,0.00549888,0.00496192,-0.000536955,0.619925,0.619967,4.19713e-05,0.0208127,0.0208043,-8.36209e-06,0.0123587,0.0108456,-0.0015131,0.00691133,0.011487,0.00457568,0.00121786,-0.00705068,-0.00826854,0.00658859,0.00186222,-0.00472636,0.136813,0.130611,-0.006202,-0.0126778,-0.0243327,-0.0116549,-0.0783023,-0.119155,-0.0408524,-0.00672191,-0.11985,-0.113128,0.042251,0.0561738,0.0139228,0.00160861,-0.00133607,-0.00294468,0.00738737,-0.366517,-0.373905,
-0.113466,-0.113423,4.26985e-05,0.327123,0.327024,-9.92235e-05,0.0716052,0.0716026,-2.54791e-06,-2.39086,-2.39064,0.000216387,-0.0160874,-0.016025,6.24012e-05,1.20012,1.19946,-0.000656145,0.00543085,0.00489559,-0.00053526,0.620348,0.620396,4.80831e-05,0.0208287,0.0208203,-8.38426e-06,0.0123912,0.0107856,-0.00160564,0.00685074,0.0113731,0.00452234,0.0015596,-0.00678375,-0.00834335,0.00652043,0.00187558,-0.00464485,0.136532,0.130246,-0.006286,-0.012509,-0.023316,-0.010807,-0.0788044,-0.117876,-0.0390718,-0.00671183,-0.119269,-0.112557,0.0418195,0.0543183,0.0124988,0.0015872,-0.00137521,-0.00296242,0.0106542,-0.342301,-0.352955,
-0.113397,-0.113354,4.28837e-05,0.327141,0.327042,-9.93411e-05,0.0716699,0.0716672,-2.69002e-06,-2.3895,-2.38928,0.000216391,-0.0162129,-0.0161495,6.34406e-05,1.19932,1.19866,-0.000657378,0.00536237,0.00482438,-0.000537988,0.620773,0.620821,4.72964e-05,0.0208446,0.020836,-8.52581e-06,0.0123502,0.0107701,-0.00158014,0.00679903,0.0113335,0.00453446,0.00200539,-0.00637861,-0.008384,0.0064582,0.00181541,-0.00464279,0.136165,0.129857,-0.00630722,-0.0124593,-0.0230063,-0.0105469,-0.079991,-0.118928,-0.0389372,-0.00677388,-0.119517,-0.112743,0.0428834,0.0550054,0.012122,0.00157869,-0.00143253,-0.00301122,-0.00977945,-0.352305,-0.342526,
-0.11333,-0.113286,4.35772e-05,0.327163,0.327065,-9.78689e-05,0.0717336,0.0717305,-3.0902e-06,-2.38814,-2.38792,0.000216369,-0.016334,-0.0162731,6.08925e-05,1.19851,1.19784,-0.000666309,0.00529739,0.00476467,-0.000532715,0.621189,0.621256,6.63712e-05,0.0208611,0.0208529,-8.20919e-06,0.0125191,0.0105719,-0.0019472,0.00670535,0.0113007,0.00459539,0.00231656,-0.00590155,-0.00821811,0.00629523,0.00164505,-0.00465018,0.135887,0.129491,-0.00639672,-0.0122263,-0.0225739,-0.0103475,-0.082243,-0.121078,-0.0388345,-0.00650479,-0.118483,-0.111979,0.0419993,0.0557483,0.013749,0.00172964,-0.00115449,-0.00288413,0.0161967,-0.362855,-0.379052,
-0.113263,-0.113222,4.11222e-05,0.327191,0.327088,-0.000103542,0.0717959,0.0717979,1.95486e-06,-2.38678,-2.38657,0.000214381,-0.016456,-0.0163805,7.54738e-05,1.19767,1.19705,-0.000618116,0.00523228,0.00464445,-0.000587828,0.621635,0.621665,3.04477e-05,0.0208789,0.0208656,-1.33787e-05,0.0123351,0.0108748,-0.00146029,0.0066255,0.0110336,0.00440812,0.00320792,-0.00602722,-0.00923514,0.0061925,0.00230825,-0.00388425,0.135247,0.128661,-0.0065865,-0.0122097,-0.0213616,-0.0091519,-0.0840946,-0.116417,-0.0323221,-0.00645883,-0.12596,-0.119501,0.0460342,0.0560495,0.0100153,0.00181272,-0.00268419,-0.00449692,-0.0380624,-0.362119,-0.324057,
-0.113198,-0.113156,4.1651e-05,0.327224,0.327125,-9.94003e-05,0.0718573,0.0718592,1.80847e-06,-2.38543,-2.38522,0.000213094,-0.0165713,-0.0164996,7.16804e-05,1.19684,1.19621,-0.000630255,0.00517021,0.00458339,-0.00058682,0.622073,0.622143,6.99528e-05,0.0208978,0.0208842,-1.36395e-05,0.0123558,0.0102697,-0.00208603,0.00649218,0.0109782,0.00448601,0.00333867,-0.00527299,-0.00861166,0.00609106,0.00220235,-0.00388871,0.134975,0.128191,-0.00678372,-0.0114264,-0.0209015,-0.00947509,-0.0833736,-0.116945,-0.0335715,-0.0061487,-0.125279,-0.11913,0.042548,0.0580681,0.0155201,0.00193489,-0.0025842,-0.00451908,0.0229532,-0.389936,-0.412889,
-0.113133,-0.113087,4.60627e-05,0.327263,0.327165,-9.73812e-05,0.0719173,0.0719103,-6.98925e-06,-2.38408,-2.38386,0.000220323,-0.0166877,-0.0166274,6.03048e-05,1.19599,1.19533,-0.000659095,0.00510882,0.00463797,-0.000470846,0.622521,0.622557,3.62358e-05,0.0209173,0.0209137,-3.58199e-06,0.0122134,0.0106042,-0.00160917,0.00642232,0.0114471,0.00502474,0.00419577,-0.003241,-0.00743677,0.00593499,0.000456717,-0.00547827,0.134569,0.129087,-0.00548236,-0.0115911,-0.0232355,-0.0116444,-0.0858831,-0.125753,-0.0398699,-0.00586636,-0.110094,-0.104227,0.0461454,0.0587378,0.0125924,0.00197138,0.000565114,-0.00140627,-0.0326219,-0.450483,-0.417861,
-0.11307,-0.113021,4.87786e-05,0.327305,0.327209,-9.66923e-05,0.0719758,0.0719612,-1.45556e-05,-2.38274,-2.38252,0.000223694,-0.0167963,-0.0167399,5.64347e-05,1.19513,1.1944,-0.000722435,0.00505261,0.00470974,-0.000342872,0.622965,0.623007,4.25108e-05,0.0209388,0.0209472,8.40156e-06,0.0122271,0.0104466,-0.00178048,0.00625798,0.0112614,0.00500345,0.00446642,-0.00304082,-0.00750725,0.00576646,-0.00103741,-0.00680387,0.134198,0.129086,-0.00511269,-0.0109732,-0.0208997,-0.00992653,-0.0864854,-0.135659,-0.0491734,-0.00563125,-0.092042,-0.0864107,0.0442172,0.0522147,0.00799745,0.00222463,0.00472505,0.00250042,0.0045643,-0.381551,-0.386115,
-0.113008,-0.112962,4.67638e-05,0.327355,0.327252,-0.000102745,0.0720327,0.0720224,-1.03338e-05,-2.3814,-2.38118,0.000221032,-0.016905,-0.0168385,6.65699e-05,1.19425,1.19356,-0.000698056,0.0049968,0.00459127,-0.000405538,0.623422,0.623438,1.60201e-05,0.0209612,0.0209653,4.10068e-06,0.012023,0.0106731,-0.0013499,0.00612739,0.0110415,0.00491412,0.00514495,-0.00325897,-0.00840392,0.00565828,-0.000486394,-0.00614468,0.133738,0.128314,-0.00542419,-0.0105761,-0.0203828,-0.00980669,-0.0872698,-0.133511,-0.0462408,-0.00543581,-0.100507,-0.0950712,0.0456725,0.0525675,0.00689496,0.00229045,0.00313902,0.000848572,-0.0193321,-0.37563,-0.356298,
-0.112948,-0.112902,4.54328e-05,0.327409,0.327304,-0.000104378,0.0720884,0.0720799,-8.40327e-06,-2.38006,-2.37985,0.000219345,-0.0170092,-0.0169322,7.69934e-05,1.19338,1.19269,-0.00068918,0.00494286,0.00454564,-0.000397228,0.623872,0.623878,6.199e-06,0.0209848,0.0209893,4.51958e-06,0.011912,0.0107114,-0.0012006,0.00602201,0.0108465,0.00482452,0.00564814,-0.00344263,-0.00909077,0.00550171,-0.000517536,-0.00601924,0.133467,0.128007,-0.00545967,-0.0105923,-0.0189384,-0.00834609,-0.0881788,-0.133022,-0.0448431,-0.00541185,-0.0995593,-0.0941475,0.0458159,0.0475804,0.00176455,0.00235663,0.00338753,0.00103089,-0.0279499,-0.310806,-0.282856,
-0.112888,-0.112844,4.48618e-05,0.327466,0.32736,-0.000105393,0.0721428,0.0721352,-7.62426e-06,-2.37873,-2.37851,0.000218833,-0.01711,-0.0170284,8.15693e-05,1.19249,1.19181,-0.000685233,0.00489023,0.00449848,-0.00039175,0.624314,0.624313,-9.64294e-07,0.0210092,0.0210142,4.94562e-06,0.01185,0.0107506,-0.00109947,0.00590607,0.0107259,0.00481985,0.00594913,-0.00334389,-0.00929302,0.00537797,-0.000622449,-0.00600042,0.133179,0.127727,-0.00545149,-0.0102674,-0.0181406,-0.00787319,-0.0887491,-0.133224,-0.0444746,-0.00529069,-0.0988564,-0.0935657,0.0446695,0.0447879,0.000118347,0.00244538,0.00358307,0.00113769,-0.0167094,-0.280109,-0.263399,
-0.11283,-0.112785,4.48859e-05,0.327527,0.32742,-0.000106794,0.0721961,0.0721884,-7.66491e-06,-2.3774,-2.37718,0.000218975,-0.0172083,-0.0171246,8.36712e-05,1.1916,1.19092,-0.000683606,0.00483858,0.0044508,-0.000387783,0.624753,0.624741,-1.21546e-05,0.0210342,0.0210398,5.60932e-06,0.0117652,0.0108348,-0.000930382,0.00579767,0.0107059,0.00490826,0.00623536,-0.0029855,-0.00922087,0.00526671,-0.000851015,-0.00611773,0.13287,0.127496,-0.00537408,-0.00988319,-0.018076,-0.00819281,-0.0892829,-0.134223,-0.0449398,-0.00515322,-0.0984113,-0.0932581,0.0435372,0.043893,0.000355843,0.00252263,0.00375036,0.00122773,-0.00605012,-0.278339,-0.272289,
-0.112773,-0.112728,4.47519e-05,0.327592,0.327483,-0.000108458,0.0722482,0.0722408,-7.3427e-06,-2.37608,-2.37586,0.000218739,-0.0173048,-0.0172173,8.75644e-05,1.19071,1.19003,-0.000680499,0.00478767,0.00440398,-0.000383692,0.625188,0.625163,-2.50371e-05,0.0210596,0.0210659,6.23446e-06,0.0116635,0.010936,-0.000727457,0.00569706,0.0106968,0.00499972,0.00670991,-0.0026861,-0.00939601,0.00514871,-0.00107428,-0.00622299,0.132554,0.127273,-0.00528016,-0.00977055,-0.0179978,-0.00822721,-0.0901702,-0.1352,-0.0450298,-0.00509053,-0.0980036,-0.0929131,0.0439556,0.0426505,-0.00130508,0.00254519,0.00390452,0.00135933,-0.0212752,-0.270331,-0.249055,
-0.112717,-0.112673,4.40405e-05,0.327659,0.32755,-0.000109062,0.0722993,0.0722931,-6.27237e-06,-2.37475,-2.37453,0.000218021,-0.0173976,-0.0173054,9.21676e-05,1.1898,1.18913,-0.000677098,0.00473804,0.00435817,-0.000379866,0.625614,0.625586,-2.80785e-05,0.0210858,0.0210921,6.33381e-06,0.0116348,0.0109485,-0.00068632,0.0055789,0.0105656,0.00498674,0.00683619,-0.00266988,-0.00950607,0.0050809,-0.00109813,-0.00617903,0.132225,0.126953,-0.00527207,-0.00913047,-0.0170687,-0.00793824,-0.0904293,-0.135313,-0.0448839,-0.004902,-0.0974438,-0.0925418,0.0418095,0.0397345,-0.00207506,0.00265968,0.00403909,0.00137941,0.0076179,-0.23425,-0.241868,
-0.112661,-0.112617,4.45988e-05,0.327732,0.327621,-0.000111327,0.0723493,0.0723424,-6.84032e-06,-2.37343,-2.37321,0.000218547,-0.0174896,-0.0173961,9.3481e-05,1.18889,1.18821,-0.000675994,0.00468892,0.0043122,-0.000376717,0.626044,0.625997,-4.67394e-05,0.0211122,0.0211195,7.35173e-06,0.0114744,0.0110846,-0.000389801,0.00548386,0.0106574,0.0051735,0.0073028,-0.00209853,-0.00940133,0.00497725,-0.00146608,-0.00644333,0.131875,0.126767,-0.00510742,-0.00892617,-0.0176665,-0.00874028,-0.091217,-0.136964,-0.045747,-0.00481429,-0.0971313,-0.092317,0.0422823,0.0404753,-0.00180697,0.00267772,0.00418984,0.00151212,-0.00663515,-0.256052,-0.249417,
-0.112607,-0.112563,4.36993e-05,0.327806,0.327697,-0.000109323,0.0723983,0.0723939,-4.41189e-06,-2.37211,-2.3719,0.000216139,-0.0175779,-0.0174805,9.73949e-05,1.18797,1.18732,-0.000656127,0.00464094,0.00423255,-0.000408393,0.626457,0.62643,-2.72539e-05,0.0211395,0.0211433,3.75712e-06,0.0115252,0.0108207,-0.00070447,0.00541165,0.0105327,0.00512108,0.0076813,-0.00187452,-0.00955582,0.00483506,-0.00113286,-0.00596792,0.131659,0.12624,-0.00541865,-0.00907742,-0.0169879,-0.00791052,-0.0921708,-0.134004,-0.041833,-0.00482694,-0.101299,-0.0964719,0.0421047,0.0408364,-0.00126835,0.0027201,0.00330124,0.000581133,-0.0108385,-0.26011,-0.249271,
-0.112553,-0.112507,4.66048e-05,0.327884,0.327779,-0.000105098,0.0724464,0.0724361,-1.03627e-05,-2.3708,-2.37058,0.000221286,-0.017664,-0.0175773,8.67305e-05,1.18705,1.18637,-0.000682279,0.00459377,0.00427255,-0.000321219,0.626872,0.626838,-3.4094e-05,0.0211672,0.0211785,1.1316e-05,0.0114945,0.0108632,-0.000631226,0.00530648,0.0106546,0.00534812,0.00782999,-0.000421583,-0.00825157,0.00478703,-0.00216941,-0.00695644,0.13131,0.126643,-0.00466713,-0.0084365,-0.017348,-0.00891149,-0.0924005,-0.138339,-0.0459381,-0.00465288,-0.0893533,-0.0847004,0.0403409,0.0388374,-0.00150357,0.00282769,0.00575171,0.00292402,0.0145341,-0.261423,-0.275957,
-0.112501,-0.112454,4.6843e-05,0.327967,0.32786,-0.00010774,0.0724932,0.0724832,-9.94285e-06,-2.36949,-2.36927,0.000220994,-0.0177491,-0.0176598,8.93056e-05,1.18611,1.18544,-0.000673227,0.00454909,0.00421938,-0.00032971,0.62729,0.627241,-4.98109e-05,0.0211954,0.0212067,1.1364e-05,0.0113947,0.0109772,-0.000417507,0.00520329,0.0106834,0.00548009,0.00839499,7.00681e-06,-0.00838798,0.00464646,-0.00234183,-0.00698829,0.130931,0.126313,-0.00461747,-0.00820215,-0.0175832,-0.00938108,-0.0940471,-0.138597,-0.0445495,-0.00431699,-0.0911855,-0.0868685,0.0414462,0.0396139,-0.00183229,0.00288706,0.00560567,0.00271861,-0.00164567,-0.27978,-0.278135,
-0.112449,-0.112401,4.8665e-05,0.328054,0.327947,-0.000107544,0.0725388,0.0725234,-1.5437e-05,-2.36818,-2.36796,0.000224143,-0.0178305,-0.0177476,8.29297e-05,1.18517,1.18444,-0.000728528,0.00450612,0.00426146,-0.000244665,0.627707,0.627655,-5.15873e-05,0.0212246,0.021244,1.94369e-05,0.0113556,0.0109454,-0.0004102,0.00509628,0.0106278,0.00553157,0.00880449,0.000471368,-0.00833312,0.00453171,-0.0034571,-0.00798881,0.130561,0.126244,-0.00431717,-0.00797647,-0.0173275,-0.00935102,-0.0947662,-0.148374,-0.0536079,-0.00421503,-0.079553,-0.075338,0.0412771,0.0368817,-0.00439544,0.00296911,0.0082964,0.00532729,0.00268676,-0.252473,-0.25516,
-0.112399,-0.112351,4.75053e-05,0.328146,0.328036,-0.000110198,0.0725833,0.0725702,-1.30553e-05,-2.36688,-2.36666,0.000221994,-0.0179106,-0.0178205,9.00913e-05,1.18422,1.1835,-0.000717382,0.00446372,0.00418471,-0.000279016,0.628126,0.628068,-5.74906e-05,0.021254,0.0212714,1.74377e-05,0.011275,0.0109253,-0.000349739,0.00502029,0.0104587,0.00543845,0.00937608,0.00043242,-0.00894366,0.00439602,-0.00320856,-0.00760459,0.130259,0.125643,-0.00461585,-0.00808191,-0.016496,-0.00841406,-0.0953911,-0.147356,-0.0519651,-0.00425379,-0.0840409,-0.0797872,0.0423006,0.0367006,-0.00559992,0.00292435,0.00753929,0.00461495,-0.01495,-0.254236,-0.239286,
-0.112349,-0.112304,4.55505e-05,0.328241,0.32813,-0.000111464,0.0726269,0.072618,-8.88095e-06,-2.36558,-2.36536,0.000219602,-0.0179885,-0.0178885,9.99877e-05,1.18326,1.18257,-0.000687994,0.00442221,0.00411102,-0.000311189,0.628544,0.628481,-6.29786e-05,0.0212836,0.021298,1.43473e-05,0.0111937,0.0109061,-0.000287596,0.00491937,0.0102562,0.00533678,0.00969184,0.000237308,-0.00945453,0.00433279,-0.00264983,-0.00698263,0.129933,0.12515,-0.00478384,-0.00771957,-0.0151111,-0.00739149,-0.0958629,-0.143085,-0.0472222,-0.00407511,-0.0884033,-0.0843282,0.0418668,0.0341197,-0.00774711,0.00295532,0.00660474,0.00364942,-0.0100447,-0.219273,-0.209228,
-0.1123,-0.112255,4.5254e-05,0.32834,0.328227,-0.000112642,0.0726696,0.0726612,-8.44612e-06,-2.36428,-2.36406,0.000219262,-0.0180643,-0.0179607,0.000103593,1.1823,1.18161,-0.000687272,0.00438145,0.00407656,-0.000304894,0.628958,0.628887,-7.15813e-05,0.0213135,0.0213288,1.53206e-05,0.0111412,0.0109708,-0.000170409,0.00484207,0.0102232,0.00538112,0.0100152,0.000465071,-0.00955008,0.00424906,-0.00279613,-0.00704519,0.129655,0.124891,-0.00476327,-0.00754151,-0.0147878,-0.00724629,-0.0963414,-0.143614,-0.0472728,-0.00400496,-0.0881101,-0.0841051,0.0415262,0.0327368,-0.00878939,0.00297138,0.00680192,0.00383054,-0.00818351,-0.207498,-0.199315,
-0.112252,-0.112207,4.51148e-05,0.328442,0.328328,-0.000113411,0.0727116,0.0727033,-8.2365e-06,-2.36298,-2.36277,0.000219051,-0.0181383,-0.0180322,0.000106094,1.18133,1.18065,-0.000686597,0.00434129,0.00404179,-0.000299505,0.629369,0.629292,-7.76781e-05,0.0213434,0.0213596,1.61348e-05,0.0110971,0.0110057,-9.14439e-05,0.00477003,0.0101777,0.00540764,0.0103345,0.000707845,-0.00962664,0.00417035,-0.00291461,-0.00708496,0.129382,0.124625,-0.00475695,-0.00737379,-0.0144267,-0.00705288,-0.0968014,-0.144054,-0.0472529,-0.00394247,-0.0877585,-0.083816,0.0412543,0.0315979,-0.00965632,0.00298108,0.00698124,0.00400015,-0.007875,-0.199095,-0.19122,
-0.112205,-0.11216,4.49989e-05,0.328547,0.328432,-0.000114137,0.0727527,0.0727447,-8.05058e-06,-2.36169,-2.36147,0.000218792,-0.0182108,-0.0181023,0.000108501,1.18036,1.17968,-0.000685688,0.00430164,0.00400621,-0.000295425,0.629778,0.629695,-8.29796e-05,0.0213736,0.0213905,1.69463e-05,0.0110509,0.0110304,-2.05609e-05,0.00470161,0.0101276,0.00542603,0.0106484,0.000930653,-0.00971773,0.00409551,-0.00301627,-0.00711177,0.129111,0.124345,-0.00476592,-0.00721482,-0.0140445,-0.00682964,-0.0972416,-0.14442,-0.0471782,-0.00389296,-0.0875448,-0.0836518,0.0410295,0.0305579,-0.0104716,0.00299905,0.00717925,0.0041802,-0.00834269,-0.190792,-0.182449,
-0.112158,-0.112114,4.48081e-05,0.328654,0.32854,-0.000114639,0.0727932,0.0727855,-7.73521e-06,-2.3604,-2.36018,0.000218419,-0.0182813,-0.0181705,0.000110855,1.17939,1.1787,-0.000684668,0.00426248,0.00396978,-0.000292701,0.630182,0.630096,-8.6054e-05,0.0214042,0.0214216,1.73675e-05,0.0110352,0.0110548,1.95941e-05,0.00465279,0.0100768,0.00542405,0.0109812,0.0011218,-0.0098594,0.00399823,-0.00309009,-0.00708832,0.128871,0.124056,-0.00481456,-0.00723529,-0.0136437,-0.00640841,-0.0976838,-0.144745,-0.0470612,-0.00404304,-0.0875267,-0.0834837,0.0409684,0.0295129,-0.0114555,0.00301726,0.00733308,0.00431581,-0.0117412,-0.181071,-0.16933,
-0.112112,-0.112067,4.5791e-05,0.328765,0.328648,-0.000116996,0.0728331,0.0728218,-1.12045e-05,-2.35912,-2.3589,0.000219788,-0.0183501,-0.0182409,0.000109224,1.17841,1.17771,-0.000695617,0.00422398,0.00399651,-0.000227469,0.630583,0.630483,-9.98695e-05,0.0214352,0.0214587,2.34994e-05,0.0110357,0.010903,-0.000132669,0.00457888,0.00991716,0.00533828,0.0111051,0.00073534,-0.0103698,0.00396976,-0.00364164,-0.0076114,0.128597,0.124004,-0.00459305,-0.00676599,-0.0128163,-0.0060503,-0.098027,-0.146611,-0.0485841,-0.00377344,-0.0782598,-0.0744864,0.0395488,0.0244329,-0.0151159,0.00315681,0.00934421,0.0061874,0.00706016,-0.197793,-0.204853,
-0.112067,-0.112018,4.90114e-05,0.328879,0.328758,-0.000121053,0.0728722,0.072853,-1.92698e-05,-2.35783,-2.35761,0.000223206,-0.0184182,-0.0183174,0.000100783,1.17742,1.1767,-0.000719523,0.00418525,0.00407873,-0.000106522,0.630986,0.630861,-0.000125228,0.021466,0.021501,3.49935e-05,0.0109684,0.0104977,-0.000470678,0.00452518,0.00981506,0.00528988,0.0114027,0.00022923,-0.0111735,0.00391211,-0.00473651,-0.00864862,0.128328,0.124191,-0.00413656,-0.00659734,-0.0126453,-0.00604797,-0.0984012,-0.150121,-0.05172,-0.00373457,-0.0609552,-0.0572206,0.0394275,0.0183966,-0.0210309,0.00315413,0.0127388,0.0095847,0.00583998,-0.285533,-0.291373,
-0.112022,-0.111975,4.67618e-05,0.328994,0.328878,-0.000116254,0.0729106,0.072899,-1.15812e-05,-2.35655,-2.35633,0.000219442,-0.0184841,-0.0183753,0.000108734,1.17643,1.17574,-0.00069201,0.00414912,0.00391794,-0.000231181,0.631379,0.631281,-9.81975e-05,0.0214978,0.0215211,2.32572e-05,0.01095,0.0108143,-0.000135729,0.00444177,0.00996739,0.00552562,0.0116597,0.00154922,-0.0101105,0.00378473,-0.00379804,-0.00758278,0.128081,0.123448,-0.00463248,-0.00644923,-0.0129303,-0.00648106,-0.0993878,-0.147057,-0.0476691,-0.00334323,-0.0787353,-0.075392,0.0394688,0.0253465,-0.0141222,0.00321503,0.0092182,0.00600318,-0.0175183,-0.226213,-0.208694,
-0.111978,-0.111934,4.4593e-05,0.32911,0.329,-0.000110588,0.072948,0.0729439,-4.09076e-06,-2.35527,-2.35505,0.000215872,-0.0185451,-0.0184304,0.000114727,1.17544,1.17477,-0.000663121,0.00411561,0.00375086,-0.000364749,0.631756,0.631695,-6.073e-05,0.0215325,0.0215422,9.76982e-06,0.0109311,0.0108732,-5.79691e-05,0.00433888,0.00985898,0.00552011,0.0115893,0.00246577,-0.00912352,0.00370056,-0.00261822,-0.00631878,0.127816,0.122561,-0.00525467,-0.0060684,-0.012308,-0.00623965,-0.10002,-0.143761,-0.0437406,-0.00336297,-0.0958116,-0.0924486,0.036675,0.0306849,-0.00599006,0.0036091,0.00576678,0.00215768,0.00646036,-0.17801,-0.18447,
-0.111935,-0.111893,4.21689e-05,0.329227,0.329119,-0.000108079,0.0729844,0.0729877,3.34073e-06,-2.35399,-2.35378,0.000212131,-0.0186053,-0.0184804,0.000124889,1.17443,1.17379,-0.00063735,0.00408201,0.00358747,-0.00049454,0.632116,0.632069,-4.66497e-05,0.0215699,0.0215691,-8.09312e-07,0.0110202,0.0112928,0.000272605,0.00427605,0.00976408,0.00548804,0.011877,0.00320701,-0.00866999,0.00354458,-0.00146827,-0.00501284,0.127583,0.121707,-0.00587645,-0.00627308,-0.011764,-0.00549093,-0.100938,-0.140843,-0.0399054,-0.00325957,-0.112817,-0.109557,0.0366204,0.0344048,-0.00221561,0.00373838,0.0025866,-0.00115179,-0.0101172,-0.106994,-0.0968764,
-0.111893,-0.11185,4.29623e-05,0.329347,0.329238,-0.000109258,0.0730198,0.07302,2.56704e-07,-2.35272,-2.35251,0.000213168,-0.0186647,-0.0185437,0.000120999,1.17342,1.17278,-0.000641612,0.00404879,0.00359107,-0.000457723,0.632477,0.632427,-4.99483e-05,0.0216085,0.02161,1.49451e-06,0.0110167,0.0110651,4.83823e-05,0.00419895,0.00933049,0.00513154,0.0122483,0.00299516,-0.00925313,0.00345347,-0.00152163,-0.0049751,0.127262,0.121391,-0.00587191,-0.00612931,-0.0105133,-0.00438398,-0.101611,-0.140855,-0.0392442,-0.00312272,-0.109822,-0.106699,0.0368556,0.03142,-0.00543567,0.00383261,0.00346764,-0.000364971,-0.0121302,-0.109411,-0.0972805,
-0.111852,-0.111807,4.43544e-05,0.329471,0.329362,-0.000108903,0.0730546,0.0730512,-3.34966e-06,-2.35145,-2.35124,0.000214475,-0.0187222,-0.0186058,0.000116372,1.1724,1.17174,-0.000660177,0.0040157,0.00361881,-0.000396897,0.632839,0.632791,-4.83916e-05,0.0216478,0.0216537,5.91785e-06,0.0110699,0.0110638,-6.05159e-06,0.00411566,0.00933016,0.0052145,0.0124289,0.00344645,-0.00898246,0.00346385,-0.00216558,-0.00562943,0.126928,0.121213,-0.00571431,-0.00572431,-0.0105778,-0.00485352,-0.101755,-0.143926,-0.0421707,-0.00330221,-0.101806,-0.0985035,0.0358535,0.0313785,-0.00447501,0.00397348,0.00496037,0.000986889,0.0145493,-0.107638,-0.122188,
-0.111811,-0.111764,4.75404e-05,0.329599,0.329486,-0.00011294,0.0730883,0.0730786,-9.64564e-06,-2.35018,-2.34997,0.000216649,-0.0187801,-0.0186725,0.000107535,1.17138,1.17071,-0.000676706,0.00398373,0.00366228,-0.000321446,0.633213,0.633146,-6.74753e-05,0.0216867,0.0217002,1.35165e-05,0.0109306,0.0107404,-0.000190142,0.00403666,0.0091093,0.00507264,0.0129144,0.00323053,-0.00968386,0.00338046,-0.00277025,-0.00615071,0.126613,0.121067,-0.00554517,-0.00561672,-0.0103739,-0.00475716,-0.102128,-0.146116,-0.0439882,-0.00327468,-0.0943838,-0.0911091,0.037055,0.0292017,-0.00785325,0.00392833,0.00711572,0.00318739,-0.00436443,-0.192003,-0.187639,
-0.111771,-0.111723,4.76965e-05,0.329729,0.329618,-0.000111727,0.073122,0.07311,-1.19844e-05,-2.34892,-2.3487,0.000216576,-0.0188351,-0.0187288,0.00010639,1.17036,1.16968,-0.000680976,0.00395104,0.00365809,-0.000292956,0.633577,0.633522,-5.52243e-05,0.0217264,0.0217417,1.53053e-05,0.0110388,0.0103481,-0.000690793,0.00401854,0.00903082,0.00501228,0.0130602,0.00325699,-0.00980319,0.00335837,-0.00310675,-0.00646512,0.126412,0.120875,-0.00553706,-0.00551528,-0.00999351,-0.00447823,-0.102289,-0.146624,-0.0443346,-0.00326196,-0.0907303,-0.0874683,0.0359549,0.0277227,-0.00823222,0.00399977,0.00797131,0.00397154,0.0188286,-0.22571,-0.244538,
-0.111731,-0.111681,4.95739e-05,0.329863,0.329751,-0.000111982,0.0731547,0.0731404,-1.43513e-05,-2.34765,-2.34744,0.000217171,-0.018891,-0.0187888,0.000102235,1.16933,1.16865,-0.00067888,0.00391944,0.0036294,-0.00029004,0.633949,0.633889,-5.94398e-05,0.0217657,0.0217822,1.65003e-05,0.0109988,0.0102969,-0.000701884,0.00394855,0.00901382,0.00506526,0.0135358,0.00383612,-0.00969972,0.00328093,-0.00335837,-0.0066393,0.126139,0.120639,-0.00549982,-0.0054492,-0.0102495,-0.00480033,-0.102638,-0.146344,-0.043706,-0.00323986,-0.0912578,-0.0880179,0.0373178,0.0295214,-0.00779633,0.00392128,0.00816801,0.00424673,-0.00636449,-0.279043,-0.272678,
-0.111691,-0.111642,4.94011e-05,0.329999,0.32989,-0.000109519,0.0731875,0.0731725,-1.49768e-05,-2.34639,-2.34618,0.000216702,-0.0189441,-0.0188424,0.000101741,1.16831,1.16763,-0.000679389,0.00388712,0.00359669,-0.000290422,0.634313,0.634272,-4.16941e-05,0.0218052,0.0218206,1.53243e-05,0.0110916,0.0100632,-0.00102835,0.00394194,0.00896179,0.00501985,0.0136408,0.00421907,-0.00942178,0.00327277,-0.00339985,-0.00667262,0.125942,0.120329,-0.00561364,-0.00531652,-0.0099338,-0.00461728,-0.102753,-0.146343,-0.0435904,-0.0032259,-0.0913809,-0.088155,0.0360462,0.0302577,-0.00578857,0.00398202,0.00807298,0.00409096,0.0175048,-0.291297,-0.308802,
-0.111652,-0.111601,5.16591e-05,0.33014,0.33003,-0.00010992,0.0732194,0.0732018,-1.76115e-05,-2.34514,-2.34492,0.000217681,-0.018998,-0.0189016,9.64503e-05,1.16728,1.16659,-0.000680775,0.0038559,0.0035772,-0.000278699,0.634689,0.634641,-4.81073e-05,0.021844,0.0218609,1.68992e-05,0.0109758,0.0100632,-0.000912638,0.00388189,0.00905411,0.00517222,0.0140644,0.00495093,-0.00911345,0.00320794,-0.00381307,-0.00702101,0.125671,0.120149,-0.00552219,-0.0052236,-0.010605,-0.00538139,-0.103053,-0.146771,-0.0437175,-0.00320367,-0.0902492,-0.0870456,0.0370568,0.0326711,-0.00438568,0.0039031,0.00834134,0.00443824,-0.00270396,-0.339511,-0.336807,
-0.111614,-0.111562,5.13555e-05,0.330281,0.330174,-0.00010697,0.0732515,0.0732331,-1.83121e-05,-2.34388,-2.34366,0.00021698,-0.0190493,-0.0189531,9.6203e-05,1.16624,1.16556,-0.000681532,0.0038239,0.00354509,-0.000278807,0.635051,0.635024,-2.71886e-05,0.0218834,0.0218988,1.54484e-05,0.0110921,0.00979304,-0.00129902,0.00388198,0.00900702,0.00512503,0.0141675,0.00530674,-0.00886077,0.00320352,-0.00384356,-0.00704708,0.125497,0.119849,-0.00564753,-0.00513706,-0.0102775,-0.0051404,-0.103171,-0.146739,-0.0435677,-0.00319583,-0.0903506,-0.0871548,0.0358038,0.0331786,-0.00262515,0.00396094,0.00824693,0.00428598,0.0191307,-0.349163,-0.368293,
-0.111575,-0.111521,5.3818e-05,0.330426,0.330319,-0.000107028,0.0732826,0.0732613,-2.13433e-05,-2.34263,-2.34241,0.000218098,-0.0191015,-0.0190116,8.99141e-05,1.16521,1.16453,-0.000683223,0.00379299,0.00352745,-0.000265541,0.635424,0.635393,-3.16531e-05,0.0219219,0.021939,1.71126e-05,0.0109875,0.00976496,-0.00122257,0.00382474,0.00906115,0.00523641,0.0145854,0.00604941,-0.008536,0.00314124,-0.00422365,-0.00736489,0.12523,0.119655,-0.00557473,-0.00505156,-0.0108713,-0.00581972,-0.103462,-0.147067,-0.0436048,-0.00317477,-0.089411,-0.0862362,0.0368183,0.0357075,-0.00111076,0.00387851,0.00854891,0.0046704,-0.00202004,-0.400179,-0.398159,
-0.111537,-0.111483,5.34977e-05,0.330573,0.330469,-0.000104089,0.0733141,0.073292,-2.20605e-05,-2.34138,-2.34116,0.000217386,-0.0191511,-0.0190614,8.96476e-05,1.16417,1.16349,-0.000683908,0.00376127,0.00349566,-0.000265608,0.635784,0.635773,-1.06815e-05,0.0219611,0.0219767,1.56206e-05,0.0111056,0.00949826,-0.00160738,0.00382899,0.00901584,0.00518685,0.0146846,0.006401,-0.00828355,0.00314071,-0.00425107,-0.00739179,0.125059,0.119358,-0.0057004,-0.00497124,-0.0105475,-0.00557631,-0.10357,-0.147007,-0.043437,-0.00316826,-0.0895083,-0.0863401,0.0355541,0.036206,0.000651973,0.00393747,0.00845119,0.00451372,0.0190467,-0.410403,-0.42945,
-0.111499,-0.111443,5.59837e-05,0.330723,0.330619,-0.000104149,0.0733446,0.0733195,-2.51178e-05,-2.34013,-2.33991,0.000218508,-0.0192017,-0.0191184,8.33103e-05,1.16313,1.16245,-0.000685564,0.00373063,0.00347835,-0.00025228,0.636155,0.63614,-1.51242e-05,0.0219993,0.0220166,1.73039e-05,0.010999,0.00946665,-0.00153238,0.00377344,0.00906455,0.00529111,0.0150986,0.0071311,-0.00796746,0.00307995,-0.00462247,-0.00770242,0.124793,0.11916,-0.00563272,-0.00489281,-0.0111308,-0.00623803,-0.103854,-0.147314,-0.0434594,-0.00314828,-0.0886115,-0.0854632,0.0365601,0.0386929,0.00213281,0.00385434,0.0087556,0.00490126,-0.002399,-0.460859,-0.45846,
-0.111461,-0.111405,5.56447e-05,0.330875,0.330773,-0.000101217,0.0733754,0.0733496,-2.58481e-05,-2.33888,-2.33866,0.000217777,-0.0192497,-0.0191667,8.30397e-05,1.16209,1.16141,-0.00068623,0.00369917,0.00344687,-0.0002523,0.636512,0.636518,5.91375e-06,0.0220382,0.022054,1.57816e-05,0.0111113,0.00919541,-0.00191584,0.00378105,0.00902014,0.00523909,0.0151946,0.00747987,-0.00771469,0.00308258,-0.00464721,-0.00772979,0.124625,0.118865,-0.00575947,-0.00481832,-0.010808,-0.00598969,-0.103952,-0.147231,-0.0432797,-0.00314298,-0.0887038,-0.0855609,0.0352771,0.0391772,0.00390013,0.00391543,0.00865652,0.00474109,0.0183459,-0.471274,-0.48962,
-0.111424,-0.111366,5.80862e-05,0.33103,0.330929,-0.0001014,0.0734054,0.0733766,-2.87928e-05,-2.33764,-2.33742,0.000218867,-0.0192989,-0.0192219,7.69745e-05,1.16105,1.16036,-0.000687763,0.00366878,0.00342929,-0.000239482,0.63688,0.63688,7.99203e-07,0.0220763,0.0220937,1.74597e-05,0.0109976,0.00916876,-0.00182879,0.00372682,0.00907538,0.00534856,0.015605,0.00818783,-0.0074172,0.00302304,-0.00501806,-0.0080411,0.124359,0.118667,-0.00569227,-0.00474668,-0.0114042,-0.00665752,-0.104229,-0.14755,-0.0433205,-0.00312413,-0.0878009,-0.0846768,0.0362739,0.0415691,0.00529519,0.00383287,0.00895271,0.00511984,-0.00318016,-0.519959,-0.516779,
-0.111386,-0.111329,5.77286e-05,0.331187,0.331088,-9.84726e-05,0.0734357,0.0734062,-2.95336e-05,-2.33639,-2.33617,0.000218113,-0.0193455,-0.0192688,7.67035e-05,1.16001,1.15932,-0.000688438,0.00363755,0.00339809,-0.000239463,0.637234,0.637256,2.19219e-05,0.022115,0.0221309,1.59161e-05,0.011101,0.00888976,-0.00221123,0.00373741,0.00903156,0.00529416,0.0156978,0.00853388,-0.00716394,0.00302851,-0.00504013,-0.00806864,0.124195,0.118374,-0.00582056,-0.00467753,-0.0110808,-0.00640326,-0.104314,-0.147446,-0.0431316,-0.00311999,-0.087889,-0.084769,0.0349709,0.0420401,0.00706922,0.00389606,0.00885297,0.00495691,0.017418,-0.530428,-0.547846,
-0.111349,-0.111289,5.99499e-05,0.331347,0.331249,-9.82983e-05,0.0734652,0.0734328,-3.24564e-05,-2.33515,-2.33493,0.000218963,-0.0193934,-0.0193222,7.12338e-05,1.15896,1.15827,-0.000690184,0.00360734,0.00338006,-0.000227277,0.637595,0.637615,1.95799e-05,0.0221531,0.0221705,1.74034e-05,0.0110427,0.00886612,-0.00217654,0.00368066,0.00907799,0.00539733,0.0161321,0.00920559,-0.00692647,0.00296311,-0.00541337,-0.00837648,0.123936,0.118173,-0.00576254,-0.00465378,-0.0116228,-0.00696897,-0.104624,-0.147771,-0.0431466,-0.0031054,-0.0869942,-0.0838888,0.0362064,0.0442763,0.00806997,0.00380753,0.0091697,0.00536217,-0.00859698,-0.57632,-0.567723,
-0.111312,-0.111252,5.97032e-05,0.331509,0.331413,-9.58775e-05,0.0734949,0.0734618,-3.3132e-05,-2.33391,-2.3337,0.000218413,-0.0194387,-0.019368,7.07052e-05,1.15792,1.15723,-0.000690601,0.00357633,0.00334898,-0.000227354,0.637948,0.637985,3.75567e-05,0.0221916,0.0222077,1.61067e-05,0.0111048,0.00860699,-0.00249776,0.00369436,0.00903338,0.00533901,0.01621,0.00956288,-0.00664716,0.00297462,-0.00543889,-0.00841351,0.123762,0.117878,-0.00588402,-0.00454597,-0.011312,-0.00676604,-0.10467,-0.14765,-0.0429803,-0.00309762,-0.0870846,-0.083987,0.0347821,0.0448885,0.0101065,0.00387451,0.00906549,0.00519099,0.0139805,-0.589194,-0.603174,
-0.111275,-0.111215,5.98955e-05,0.331673,0.331576,-9.77584e-05,0.0735241,0.0734916,-3.24853e-05,-2.33268,-2.33246,0.000218086,-0.0194853,-0.0194117,7.36052e-05,1.15687,1.15618,-0.000688278,0.0035463,0.00331634,-0.00022996,0.638303,0.638327,2.38862e-05,0.0222298,0.0222467,1.69348e-05,0.0110919,0.00884165,-0.00225028,0.00364192,0.00905085,0.00540892,0.016668,0.00970463,-0.00696339,0.0028938,-0.00544732,-0.00834111,0.123527,0.117634,-0.00589252,-0.00464465,-0.0111641,-0.00651949,-0.105051,-0.147785,-0.0427341,-0.00306586,-0.087315,-0.0842491,0.0362291,0.0440698,0.00784064,0.00377499,0.00908431,0.00530932,-0.0160383,-0.578443,-0.562404,
-0.111239,-0.111179,5.9797e-05,0.33184,0.331744,-9.58873e-05,0.0735532,0.0735201,-3.3119e-05,-2.33144,-2.33123,0.000217767,-0.0195296,-0.0194569,7.26825e-05,1.15582,1.15513,-0.000688387,0.00351549,0.00328549,-0.000230002,0.638655,0.638693,3.82003e-05,0.022268,0.0222839,1.58793e-05,0.0110989,0.00859679,-0.00250213,0.0036526,0.00900649,0.00535388,0.0167237,0.0100713,-0.00665243,0.00292181,-0.00547958,-0.00840139,0.123331,0.11734,-0.0059912,-0.00442531,-0.0108778,-0.0064525,-0.105016,-0.147638,-0.0426222,-0.00307742,-0.0873978,-0.0843204,0.0346409,0.044811,0.0101701,0.00385195,0.00897371,0.00512176,0.00950714,-0.593395,-0.602903,
-0.111202,-0.111142,5.98202e-05,0.332009,0.331912,-9.64475e-05,0.0735823,0.0735494,-3.28608e-05,-2.33021,-2.32999,0.000217216,-0.0195739,-0.0194991,7.48184e-05,1.15476,1.15408,-0.00068743,0.0034851,0.00325281,-0.000232296,0.638998,0.639032,3.40224e-05,0.0223067,0.0223227,1.60217e-05,0.0112287,0.00880005,-0.00242862,0.00367383,0.0090259,0.00535207,0.0170416,0.0102011,-0.00684057,0.002825,-0.00548123,-0.00830623,0.123185,0.117097,-0.00608817,-0.00471211,-0.0107197,-0.00600754,-0.105424,-0.147772,-0.0423485,-0.00286713,-0.0876596,-0.0847925,0.0350781,0.0439,0.0088219,0.00379995,0.00899029,0.00519034,-0.00246386,-0.580971,-0.578507,
-0.111166,-0.111105,6.11189e-05,0.332181,0.332085,-9.5699e-05,0.0736107,0.0735759,-3.47751e-05,-2.32898,-2.32876,0.000217853,-0.0196184,-0.0195479,7.04939e-05,1.15371,1.15302,-0.000688146,0.00345494,0.00322919,-0.000225744,0.639352,0.63939,3.75136e-05,0.0223445,0.0223614,1.69064e-05,0.0111269,0.00863567,-0.0024912,0.00360828,0.00874443,0.00513615,0.0172563,0.0105695,-0.00668674,0.00286595,-0.00526776,-0.00813371,0.122897,0.116701,-0.00619598,-0.00432276,-0.0098883,-0.00556555,-0.105362,-0.147241,-0.0418788,-0.00305812,-0.0890662,-0.086008,0.0347302,0.044684,0.00995381,0.00382187,0.00914203,0.00532016,0.00095962,-0.596676,-0.597636,
-0.11113,-0.111069,6.08131e-05,0.332354,0.33226,-9.42299e-05,0.0736394,0.0736044,-3.50521e-05,-2.32775,-2.32754,0.000217013,-0.0196609,-0.0195893,7.15971e-05,1.15266,1.15197,-0.000688008,0.00342434,0.00319753,-0.000226808,0.639692,0.639741,4.83179e-05,0.0223831,0.0223991,1.60251e-05,0.0112431,0.00856007,-0.00268307,0.00362128,0.00873274,0.00511146,0.0173674,0.0108018,-0.00656563,0.00287263,-0.00527578,-0.0081484,0.122739,0.116437,-0.00630191,-0.00428183,-0.00963709,-0.00535526,-0.105439,-0.147206,-0.0417664,-0.00305865,-0.0892088,-0.0861501,0.0336199,0.0444036,0.0107837,0.00388282,0.00909769,0.00521487,0.0171733,-0.594998,-0.612171,
-0.111094,-0.111031,6.30412e-05,0.332531,0.332437,-9.39987e-05,0.0736674,0.0736293,-3.80241e-05,-2.32653,-2.32631,0.00021788,-0.0197052,-0.0196392,6.60072e-05,1.1516,1.15091,-0.000689904,0.0033947,0.00317984,-0.000214865,0.640041,0.640087,4.65259e-05,0.022421,0.0224387,1.76209e-05,0.0111712,0.00851288,-0.00265828,0.00356377,0.00873204,0.00516828,0.017803,0.0114323,-0.00637066,0.00280388,-0.00558264,-0.00838652,0.122475,0.116204,-0.00627134,-0.00429996,-0.0100558,-0.00575583,-0.105728,-0.147444,-0.0417165,-0.00304601,-0.0886316,-0.0855856,0.0349812,0.0465788,0.0115976,0.00378377,0.0094297,0.00564593,-0.0106202,-0.63842,-0.6278,
-0.111058,-0.110995,6.27917e-05,0.33271,0.332618,-9.16103e-05,0.0736955,0.0736568,-3.87744e-05,-2.3253,-2.32509,0.000217267,-0.0197469,-0.0196817,6.51942e-05,1.15054,1.14985,-0.00069032,0.00336428,0.00314949,-0.000214789,0.640382,0.640446,6.48074e-05,0.0224593,0.0224756,1.63014e-05,0.011204,0.00822654,-0.00297744,0.00358152,0.00869129,0.00510976,0.017883,0.011789,-0.00609398,0.00282139,-0.00561496,-0.00843635,0.12231,0.115914,-0.00639624,-0.00418203,-0.00977296,-0.00559093,-0.105746,-0.147249,-0.0415028,-0.00303913,-0.0886887,-0.0856496,0.0335907,0.0472521,0.0136614,0.0038515,0.00931578,0.00546428,0.0105716,-0.652144,-0.662715,
-0.111022,-0.110959,6.28315e-05,0.33289,0.332797,-9.21275e-05,0.0737236,0.073685,-3.8555e-05,-2.32408,-2.32387,0.000216803,-0.0197889,-0.0197218,6.70998e-05,1.14948,1.14879,-0.000689157,0.00333426,0.00311753,-0.000216729,0.640715,0.640776,6.07967e-05,0.0224979,0.0225143,1.63984e-05,0.0113298,0.00842154,-0.00290822,0.0036039,0.00871141,0.00510752,0.0182047,0.0119261,-0.00627859,0.00272374,-0.00561705,-0.0083408,0.122161,0.115676,-0.00648513,-0.00449125,-0.00962374,-0.00513249,-0.10617,-0.147328,-0.041158,-0.00283628,-0.0889077,-0.0860714,0.0341415,0.0464397,0.0122982,0.00380258,0.00933327,0.00553069,-0.00351315,-0.642016,-0.638502,
-0.110987,-0.110923,6.37886e-05,0.333073,0.332982,-9.07922e-05,0.0737512,0.0737106,-4.05456e-05,-2.32286,-2.32264,0.000217122,-0.0198312,-0.0197684,6.28681e-05,1.14842,1.14773,-0.00068997,0.0033044,0.00309338,-0.00021102,0.641054,0.641124,6.9226e-05,0.0225362,0.0225528,1.66756e-05,0.0113131,0.0082594,-0.00305369,0.00353901,0.00841678,0.00487776,0.0184649,0.0122472,-0.00621773,0.00274206,-0.00539597,-0.00813803,0.121894,0.115288,-0.00660652,-0.00425633,-0.00877125,-0.00451491,-0.10617,-0.146611,-0.0404406,-0.00300592,-0.0903405,-0.0873346,0.0342524,0.0470291,0.0127768,0.00380041,0.00941566,0.00561524,-0.00825963,-0.653185,-0.644925,
-0.110951,-0.110888,6.3706e-05,0.333258,0.333168,-9.01074e-05,0.0737788,0.0737381,-4.07127e-05,-2.32164,-2.32143,0.000216618,-0.019872,-0.0198084,6.35852e-05,1.14736,1.14667,-0.000689448,0.00327415,0.00306203,-0.000212123,0.641389,0.641464,7.48131e-05,0.0225745,0.0225908,1.63019e-05,0.0113547,0.00820458,-0.0031501,0.00354657,0.00840435,0.00485778,0.018556,0.0124991,-0.00605694,0.00276715,-0.00541266,-0.00817981,0.121713,0.115021,-0.00669149,-0.00407483,-0.00854748,-0.00447265,-0.106133,-0.146538,-0.0404051,-0.00302186,-0.0904766,-0.0874548,0.0330043,0.0470195,0.0140153,0.00385829,0.00936601,0.00550772,0.0106192,-0.655819,-0.666439,
-0.110916,-0.110851,6.50327e-05,0.333445,0.333355,-8.98176e-05,0.0738061,0.0737635,-4.25794e-05,-2.32043,-2.32021,0.000216876,-0.0199133,-0.0198528,6.05023e-05,1.1463,1.14561,-0.000690509,0.00324436,0.00303889,-0.000205468,0.641722,0.641797,7.51951e-05,0.0226129,0.0226296,1.66738e-05,0.0113927,0.00823383,-0.00315892,0.0035228,0.00851432,0.00499152,0.0188443,0.0129965,-0.00584779,0.00273099,-0.00578028,-0.00851127,0.121503,0.114847,-0.00665621,-0.00410721,-0.00926912,-0.00516191,-0.106322,-0.146881,-0.0405584,-0.00301831,-0.0895341,-0.0865158,0.0333426,0.0485047,0.015162,0.00383089,0.0094671,0.00563621,0.00119937,-0.685537,-0.686736,
-0.110881,-0.110816,6.50913e-05,0.333635,0.333546,-8.95059e-05,0.0738331,0.0737903,-4.27954e-05,-2.31921,-2.319,0.000216578,-0.0199545,-0.0198935,6.09918e-05,1.14523,1.14454,-0.000689296,0.00321465,0.00300869,-0.000205965,0.642056,0.642134,7.75395e-05,0.022651,0.0226677,1.67364e-05,0.0113635,0.00816615,-0.00319736,0.003501,0.00837282,0.00487181,0.0191087,0.0131975,-0.00591119,0.0027014,-0.00562343,-0.00832483,0.121287,0.114523,-0.00676441,-0.00408281,-0.00860731,-0.0045245,-0.106451,-0.146465,-0.0400146,-0.00300935,-0.0903909,-0.0873815,0.0334643,0.0482515,0.0147872,0.00379886,0.00944693,0.00564807,-0.0040613,-0.683375,-0.679314,
-0.110846,-0.110781,6.50254e-05,0.333827,0.333739,-8.85218e-05,0.0738603,0.0738171,-4.31277e-05,-2.318,-2.31779,0.000216063,-0.0199943,-0.0199331,6.123e-05,1.14417,1.14348,-0.000689268,0.00318457,0.00297792,-0.000206647,0.642384,0.642469,8.52782e-05,0.0226892,0.0227054,1.61858e-05,0.0114276,0.00809578,-0.0033318,0.00351413,0.00836027,0.00484614,0.0192137,0.0134455,-0.00576824,0.00271386,-0.00563911,-0.00835298,0.121128,0.114262,-0.00686602,-0.00399275,-0.0083861,-0.00439335,-0.106458,-0.146364,-0.039906,-0.00300614,-0.0905202,-0.0875141,0.0323671,0.0482517,0.0158846,0.0038417,0.00938977,0.00554807,0.0118418,-0.686141,-0.697983,
-0.110811,-0.110744,6.65095e-05,0.334022,0.333933,-8.86499e-05,0.0738867,0.0738417,-4.50586e-05,-2.31679,-2.31658,0.000216493,-0.0200358,-0.0199778,5.79814e-05,1.1431,1.14241,-0.00068955,0.00315536,0.00295589,-0.000199475,0.642716,0.642798,8.22776e-05,0.0227271,0.022744,1.68804e-05,0.0113743,0.00809619,-0.00327813,0.00346374,0.00841787,0.00495413,0.0196665,0.013945,-0.00572153,0.00262687,-0.00595921,-0.00858608,0.12088,0.114063,-0.006817,-0.00416934,-0.00899686,-0.00482752,-0.106854,-0.146598,-0.0397439,-0.00297902,-0.0898363,-0.0868572,0.0340328,0.0498682,0.0158354,0.00374254,0.00951015,0.00576761,-0.0208842,-0.717261,-0.696377,
-0.110776,-0.110709,6.6418e-05,0.334219,0.334132,-8.68348e-05,0.0739133,0.0738676,-4.56762e-05,-2.31558,-2.31537,0.000216021,-0.0200753,-0.0200182,5.71625e-05,1.14203,1.14134,-0.000690417,0.00312545,0.00292602,-0.000199434,0.643046,0.643143,9.69496e-05,0.0227647,0.0227809,1.62004e-05,0.0113214,0.0077908,-0.00353056,0.00347405,0.00837708,0.00490303,0.0197263,0.0143087,-0.00541755,0.00265785,-0.00599394,-0.00865179,0.120709,0.113773,-0.00693627,-0.00395621,-0.00873352,-0.00477732,-0.106668,-0.146344,-0.0396759,-0.00298675,-0.0898821,-0.0868953,0.0325185,0.0507251,0.0182066,0.00376841,0.00939471,0.0056263,0.00288339,-0.733414,-0.736297,
-0.110741,-0.110675,6.64387e-05,0.334417,0.33433,-8.69768e-05,0.0739399,0.0738943,-4.56175e-05,-2.31438,-2.31416,0.000215528,-0.0201144,-0.0200557,5.87286e-05,1.14097,1.14028,-0.000689413,0.00309553,0.00289473,-0.0002008,0.643366,0.643461,9.55578e-05,0.0228026,0.0228186,1.60076e-05,0.0114284,0.00792055,-0.00350783,0.00348569,0.00839456,0.00490887,0.0198454,0.0144272,-0.00541813,0.00266415,-0.0059872,-0.00865135,0.120563,0.113551,-0.0070115,-0.0039277,-0.00855139,-0.0046237,-0.106723,-0.146355,-0.0396324,-0.00299161,-0.090086,-0.0870944,0.0316279,0.0498091,0.0181812,0.00380624,0.00938872,0.00558248,0.014724,-0.721856,-0.73658,
-0.110706,-0.11064,6.64733e-05,0.334616,0.334529,-8.74491e-05,0.0739664,0.073921,-4.54153e-05,-2.31317,-2.31296,0.000215144,-0.0201539,-0.0200935,6.03966e-05,1.1399,1.13921,-0.000687956,0.00306596,0.00286314,-0.000202815,0.643681,0.643774,9.20667e-05,0.0228407,0.0228568,1.60281e-05,0.0115639,0.00811649,-0.00344741,0.00350435,0.00840946,0.00490511,0.0201766,0.0145773,-0.00559929,0.00256627,-0.00598675,-0.00855302,0.120405,0.113315,-0.00708977,-0.00424101,-0.00839717,-0.00415616,-0.107209,-0.146393,-0.0391835,-0.00280618,-0.0903118,-0.0875056,0.0324619,0.0492891,0.0168272,0.00376505,0.00939478,0.00562973,-0.00405901,-0.716611,-0.712552,
-0.110672,-0.110604,6.74977e-05,0.33482,0.334733,-8.69102e-05,0.0739921,0.0739453,-4.68546e-05,-2.31197,-2.31176,0.000215614,-0.0201942,-0.0201368,5.73202e-05,1.13883,1.13814,-0.000689506,0.00303657,0.00283824,-0.000198328,0.644011,0.644106,9.51932e-05,0.0228781,0.0228953,1.72169e-05,0.0114257,0.00792381,-0.00350189,0.0034381,0.00808858,0.00465047,0.0204063,0.0148712,-0.0055351,0.0025996,-0.00567877,-0.00827837,0.120118,0.11287,-0.00724825,-0.00391101,-0.00734319,-0.00343218,-0.106995,-0.145557,-0.0385626,-0.00297306,-0.0919807,-0.0890077,0.0323603,0.0498563,0.017496,0.00374606,0.00953095,0.00578489,-0.00400348,-0.726305,-0.722302,
-0.110637,-0.11057,6.72065e-05,0.335025,0.334939,-8.54473e-05,0.0740182,0.073971,-4.71595e-05,-2.31077,-2.31056,0.000214656,-0.0202327,-0.0201744,5.83408e-05,1.13776,1.13707,-0.000689382,0.00300682,0.00280767,-0.000199151,0.644328,0.644435,0.000106456,0.0229157,0.0229322,1.65493e-05,0.0114794,0.00778587,-0.00369354,0.00345123,0.00807795,0.00462672,0.0205153,0.015102,-0.0054133,0.00260753,-0.00568923,-0.00829676,0.119979,0.11262,-0.0073585,-0.00387773,-0.00710545,-0.00322772,-0.107,-0.145395,-0.0383955,-0.00297509,-0.0920872,-0.0891121,0.0313436,0.0496902,0.0183467,0.00377002,0.00946373,0.0056937,0.0102472,-0.726245,-0.736492,
-0.110603,-0.110535,6.72575e-05,0.335231,0.335145,-8.55612e-05,0.0740443,0.0739972,-4.71439e-05,-2.30957,-2.30936,0.000214276,-0.0202711,-0.0202116,5.94362e-05,1.13669,1.136,-0.000688608,0.00297702,0.00277635,-0.000200669,0.644638,0.644743,0.000105545,0.0229536,0.02297,1.6382e-05,0.0116274,0.0079479,-0.00367953,0.00345833,0.00809284,0.00463451,0.0206606,0.0152429,-0.00541773,0.00260879,-0.00568684,-0.00829563,0.11982,0.112391,-0.00742918,-0.00385633,-0.00694375,-0.00308742,-0.107073,-0.145402,-0.0383285,-0.00297865,-0.0923011,-0.0893225,0.0307497,0.0490871,0.0183373,0.00380585,0.00945974,0.00565389,0.0170685,-0.719641,-0.73671,
-0.110568,-0.110499,6.9305e-05,0.33544,0.335355,-8.51988e-05,0.0740696,0.0740194,-5.0167e-05,-2.30838,-2.30816,0.000215222,-0.0203114,-0.0202585,5.29319e-05,1.13561,1.13492,-0.000690564,0.00294805,0.00275809,-0.000189957,0.64496,0.645065,0.000105769,0.022991,0.0230085,1.75365e-05,0.0115281,0.00784783,-0.00368031,0.00340113,0.00797843,0.0045773,0.0211017,0.015795,-0.00530673,0.00253488,-0.00586229,-0.00839717,0.119536,0.112096,-0.00744022,-0.00393124,-0.00718304,-0.00325181,-0.107375,-0.145294,-0.0379196,-0.00296523,-0.092375,-0.0894098,0.0324427,0.0513212,0.0188785,0.00372013,0.00968472,0.00596459,-0.0147963,-0.758616,-0.74382,
-0.110534,-0.110465,6.90723e-05,0.335652,0.335569,-8.28956e-05,0.0740951,0.0740442,-5.08678e-05,-2.30718,-2.30697,0.000214391,-0.0203497,-0.0202974,5.22843e-05,1.13454,1.13385,-0.000692037,0.00291846,0.00272857,-0.000189883,0.645276,0.645401,0.000124566,0.0230282,0.023045,1.68099e-05,0.0115027,0.00750341,-0.00399933,0.00341549,0.00793852,0.00452303,0.0211902,0.0161548,-0.00503535,0.00254908,-0.00589544,-0.00844452,0.119395,0.111808,-0.00758699,-0.00384245,-0.00691812,-0.00307567,-0.10725,-0.144989,-0.037739,-0.00295797,-0.0924021,-0.0894441,0.0311972,0.05218,0.0209828,0.00372352,0.0095676,0.00584407,0.0038811,-0.774224,-0.778105,
-0.1105,-0.110431,6.91071e-05,0.335865,0.335782,-8.30046e-05,0.0741206,0.0740697,-5.08435e-05,-2.30599,-2.30578,0.00021397,-0.0203877,-0.0203341,5.36264e-05,1.13347,1.13277,-0.000690998,0.00288882,0.00269764,-0.000191185,0.645583,0.645707,0.000123451,0.0230656,0.0230821,1.65807e-05,0.0116027,0.00762149,-0.00398118,0.00342518,0.00795375,0.00452857,0.0213181,0.0162806,-0.00503749,0.00255304,-0.00589062,-0.00844366,0.119249,0.11159,-0.00765899,-0.00382578,-0.0067444,-0.00291862,-0.107291,-0.144955,-0.037664,-0.00296336,-0.0926,-0.0896367,0.0304603,0.0514242,0.0209639,0.00374968,0.00954889,0.00579921,0.0131133,-0.765219,-0.778333,
-0.110466,-0.110397,6.91633e-05,0.336079,0.335996,-8.31127e-05,0.0741461,0.0740953,-5.08393e-05,-2.3048,-2.30458,0.000213602,-0.0204256,-0.0203709,5.46537e-05,1.13239,1.1317,-0.000690173,0.00285915,0.00266642,-0.000192732,0.645885,0.646008,0.000122825,0.0231032,0.0231197,1.64225e-05,0.011762,0.00779038,-0.00397167,0.00343034,0.00796746,0.00453712,0.0214755,0.0164318,-0.0050437,0.00255199,-0.00589091,-0.0084429,0.119083,0.111357,-0.00772668,-0.00380952,-0.00659125,-0.00278173,-0.107367,-0.144942,-0.0375746,-0.00296594,-0.0928103,-0.0898444,0.0300258,0.0509883,0.0209625,0.00378437,0.00954415,0.00575978,0.0172799,-0.761223,-0.778503,
-0.110432,-0.11036,7.13221e-05,0.336297,0.336214,-8.31309e-05,0.0741707,0.0741172,-5.35222e-05,-2.30361,-2.30339,0.000214714,-0.0204655,-0.0204167,4.88616e-05,1.13131,1.13062,-0.000692939,0.00283032,0.00264774,-0.000182587,0.646204,0.646324,0.000120011,0.0231403,0.0231585,1.82495e-05,0.0115969,0.00767003,-0.00392689,0.00337521,0.00784621,0.004471,0.0218987,0.0169888,-0.00490992,0.00248343,-0.00598158,-0.00846501,0.118794,0.111012,-0.00778188,-0.00384486,-0.00660304,-0.00275819,-0.107583,-0.144989,-0.0374065,-0.00294344,-0.0930805,-0.090137,0.0315708,0.0532759,0.0217051,0.00369374,0.00989599,0.00620225,-0.0112358,-0.801541,-0.790305,
-0.110398,-0.110327,7.09818e-05,0.336517,0.336436,-8.03604e-05,0.0741956,0.0741413,-5.43143e-05,-2.30242,-2.30221,0.000213563,-0.0205034,-0.020455,4.83299e-05,1.13024,1.12954,-0.000694876,0.00280091,0.00261858,-0.000182327,0.646513,0.646655,0.000142321,0.0231771,0.0231946,1.74718e-05,0.011589,0.00728658,-0.00430243,0.00338739,0.00780747,0.00442008,0.0219974,0.017337,-0.00466037,0.00249116,-0.00601353,-0.00850469,0.118668,0.110733,-0.00793471,-0.00380596,-0.00633148,-0.00252551,-0.107491,-0.144641,-0.0371499,-0.00294134,-0.0930867,-0.0901453,0.0304733,0.054035,0.0235617,0.0036797,0.0097704,0.0060907,0.00467186,-0.815288,-0.81996,
-0.110364,-0.110293,7.10169e-05,0.336737,0.336657,-8.04584e-05,0.0742206,0.0741663,-5.42894e-05,-2.30124,-2.30102,0.000213173,-0.020541,-0.0204915,4.95747e-05,1.12916,1.12847,-0.000693871,0.00277144,0.00258774,-0.0001837,0.646813,0.646954,0.000141349,0.023214,0.0232312,1.72523e-05,0.0116875,0.00740059,-0.00428695,0.00339484,0.00782068,0.00442584,0.0221278,0.0174644,-0.0046634,0.00249288,-0.00600913,-0.00850201,0.118523,0.110517,-0.00800594,-0.00379377,-0.00616109,-0.00236732,-0.107524,-0.144589,-0.0370652,-0.002947,-0.0932891,-0.0903421,0.0298223,0.0533689,0.0235466,0.00369459,0.00974352,0.00604894,0.0124791,-0.807699,-0.820178,
-0.11033,-0.110259,7.10637e-05,0.33696,0.336879,-8.05628e-05,0.0742455,0.0741912,-5.42749e-05,-2.30005,-2.29984,0.000212803,-0.0205786,-0.020528,5.06244e-05,1.12809,1.1274,-0.00069301,0.00274193,0.00255664,-0.000185297,0.647109,0.64725,0.000140814,0.0232511,0.0232682,1.7091e-05,0.0118358,0.007557,-0.0042788,0.00339919,0.00783302,0.00443383,0.0222849,0.0176148,-0.00467002,0.00249114,-0.00600748,-0.00849862,0.118359,0.110285,-0.00807353,-0.00378233,-0.00600842,-0.00222609,-0.107592,-0.144563,-0.0369709,-0.0029505,-0.093507,-0.0905565,0.0294337,0.0529804,0.0235467,0.00372448,0.00973681,0.00601232,0.015918,-0.804433,-0.820351,
-0.110296,-0.110223,7.28783e-05,0.337185,0.337105,-7.96105e-05,0.0742699,0.0742129,-5.69944e-05,-2.29887,-2.29866,0.000213514,-0.0206172,-0.0205727,4.45684e-05,1.12701,1.12631,-0.00069768,0.00271282,0.00253653,-0.000176297,0.647413,0.647559,0.000146245,0.023288,0.0233065,1.84827e-05,0.011818,0.00744349,-0.00437456,0.00337372,0.00772185,0.00434813,0.0225763,0.0181332,-0.00444305,0.00245592,-0.00608174,-0.00853765,0.118129,0.109937,-0.00819223,-0.00379179,-0.00599352,-0.00220173,-0.107714,-0.144629,-0.036915,-0.00293789,-0.0937897,-0.0908518,0.0300345,0.0551157,0.0250812,0.00369412,0.0100708,0.00637668,0.0033733,-0.841437,-0.84481,
-0.110262,-0.11019,7.20715e-05,0.337412,0.337333,-7.92168e-05,0.0742943,0.0742382,-5.60674e-05,-2.29769,-2.29748,0.000212374,-0.0206554,-0.020607,4.84382e-05,1.12593,1.12524,-0.000694609,0.00268374,0.00250237,-0.00018137,0.647712,0.647862,0.000150327,0.0233249,0.0233429,1.80165e-05,0.011851,0.0074128,-0.00443822,0.00339215,0.00764039,0.00424824,0.0228874,0.0181891,-0.0046983,0.00236678,-0.00587297,-0.00823975,0.117979,0.10965,-0.00832893,-0.00410378,-0.00520851,-0.00110472,-0.108235,-0.143986,-0.0357505,-0.00278512,-0.0945737,-0.0917886,0.0308168,0.0539502,0.0231334,0.00366287,0.00993781,0.00627495,-0.0137568,-0.82437,-0.810613,
-0.110229,-0.110157,7.19337e-05,0.337641,0.337562,-7.89025e-05,0.0743185,0.0742626,-5.59501e-05,-2.29651,-2.2963,0.00021199,-0.0206934,-0.020644,4.93702e-05,1.12485,1.12416,-0.00069394,0.00265445,0.002471,-0.000183453,0.648014,0.648167,0.000153593,0.0233615,0.0233796,1.80928e-05,0.011817,0.0073243,-0.00449271,0.00335715,0.00747617,0.00411903,0.0229892,0.0182907,-0.00469849,0.00242384,-0.00561813,-0.00804197,0.117766,0.109307,-0.00845913,-0.00378405,-0.00427751,-0.000493459,-0.107783,-0.143056,-0.0352727,-0.00292566,-0.0956407,-0.092715,0.0298228,0.0531862,0.0233635,0.00365296,0.00985609,0.00620312,0.00190906,-0.812617,-0.814526,
-0.110195,-0.110123,7.18723e-05,0.337872,0.337793,-7.89996e-05,0.0743428,0.074287,-5.58193e-05,-2.29533,-2.29512,0.000211417,-0.0207309,-0.0206797,5.12261e-05,1.12378,1.12308,-0.000692209,0.00262517,0.00244013,-0.000185034,0.648308,0.648461,0.000152774,0.023398,0.0234159,1.79218e-05,0.0118864,0.00740917,-0.00447723,0.00336357,0.00748768,0.00412411,0.0231234,0.0184224,-0.00470103,0.0024242,-0.00561424,-0.00803844,0.117624,0.109094,-0.00853018,-0.00377548,-0.00410197,-0.000326497,-0.10778,-0.142953,-0.0351729,-0.0029288,-0.0958285,-0.0928997,0.0291984,0.0525451,0.0233467,0.00365188,0.00981496,0.00616308,0.00949807,-0.805245,-0.814743,
-0.110162,-0.110089,7.2826e-05,0.338105,0.338026,-7.84107e-05,0.0743668,0.0743093,-5.74302e-05,-2.29416,-2.29395,0.00021156,-0.0207692,-0.020721,4.82578e-05,1.1227,1.122,-0.000694117,0.00259616,0.00241555,-0.00018061,0.648603,0.648759,0.000156501,0.0234345,0.0234527,1.82155e-05,0.0119143,0.00737802,-0.00453626,0.00334466,0.00747307,0.00412842,0.0234264,0.0188037,-0.00462266,0.00237621,-0.00576316,-0.00813937,0.117416,0.10884,-0.00857571,-0.00390978,-0.00431308,-0.000403297,-0.108113,-0.143093,-0.0349804,-0.0029155,-0.095733,-0.0928175,0.0300516,0.0538472,0.0237956,0.00364368,0.00992133,0.00627765,-0.00804022,-0.828112,-0.820072,
-0.110128,-0.110056,7.25024e-05,0.33834,0.338262,-7.79111e-05,0.0743906,0.0743335,-5.71817e-05,-2.29299,-2.29278,0.000210927,-0.0208069,-0.0207573,4.96508e-05,1.12162,1.12092,-0.000693312,0.00256694,0.0023836,-0.000183344,0.648898,0.64906,0.000161638,0.0234708,0.0234891,1.82757e-05,0.0119131,0.00729164,-0.00462143,0.00334524,0.00731139,0.00396615,0.0235467,0.0188926,-0.00465413,0.00238989,-0.00549731,-0.0078872,0.117252,0.108501,-0.00875112,-0.00378011,-0.00334544,0.000434669,-0.107881,-0.142103,-0.0342219,-0.00291793,-0.0967939,-0.093876,0.0292266,0.0529916,0.023765,0.00362204,0.00982705,0.00620501,0.0039561,-0.814993,-0.818949,
-0.110095,-0.110022,7.25205e-05,0.338576,0.338498,-7.79879e-05,0.0744146,0.0743574,-5.71345e-05,-2.29181,-2.2916,0.000210468,-0.0208444,-0.0207933,5.11014e-05,1.12054,1.11985,-0.000691976,0.00253773,0.00235308,-0.000184652,0.649187,0.649348,0.000160968,0.023507,0.0235251,1.81005e-05,0.0119911,0.00738156,-0.00460949,0.00335027,0.0073223,0.00397203,0.0236884,0.0190314,-0.00465699,0.0023886,-0.00549461,-0.00788321,0.117106,0.108285,-0.00882027,-0.0037763,-0.00317801,0.000598293,-0.107886,-0.142001,-0.0341148,-0.002921,-0.0969781,-0.0940571,0.0287127,0.0524672,0.0237545,0.00362175,0.00979094,0.00616919,0.00972405,-0.809405,-0.819129,
-0.110061,-0.109988,7.36437e-05,0.338815,0.338737,-7.80812e-05,0.074438,0.0743795,-5.84687e-05,-2.29064,-2.29043,0.000210954,-0.020883,-0.0208345,4.85438e-05,1.11946,1.11876,-0.00069388,0.00250885,0.0023283,-0.000180545,0.649483,0.649642,0.0001593,0.023543,0.023562,1.89276e-05,0.0119193,0.00733639,-0.00458293,0.00332794,0.00730084,0.0039729,0.0239636,0.019416,-0.00454756,0.00235634,-0.00559044,-0.00794678,0.116884,0.108,-0.00888472,-0.00379505,-0.00325928,0.000535772,-0.107984,-0.142211,-0.0342269,-0.00290963,-0.0970147,-0.094105,0.0292516,0.053802,0.0245504,0.00359162,0.00999013,0.00639851,-0.00148167,-0.833129,-0.831647,
-0.110028,-0.109955,7.34883e-05,0.339055,0.338979,-7.66452e-05,0.0744616,0.0744027,-5.88344e-05,-2.28948,-2.28927,0.000210034,-0.0209207,-0.0208718,4.88723e-05,1.11838,1.11768,-0.000694819,0.00247974,0.00229871,-0.000181029,0.649772,0.649943,0.000171188,0.0235788,0.0235976,1.87765e-05,0.0119583,0.00717859,-0.00477968,0.00333426,0.00728894,0.00395468,0.0240926,0.0196653,-0.00442729,0.00235646,-0.00560321,-0.00795966,0.11675,0.107752,-0.00899831,-0.00378843,-0.0030496,0.000738832,-0.107933,-0.141951,-0.0340176,-0.00291053,-0.0970907,-0.0941802,0.0286047,0.0540249,0.0254202,0.00357331,0.00992649,0.00635317,0.00665315,-0.838638,-0.845292,
