DMackRus/ILQR_Mujoco_Arm_Push_Clyinder/diffDyn.csv
Joint 0 dyn,Joint 0 lin,Joint 0 diff,Joint 1 dyn,Joint 1 lin,Joint 1 diff,Joint 2 dyn,Joint 2 lin,Joint 2 diff,Joint 3 dyn,Joint 3 lin,Joint 3 diff,Joint 4 dyn,Joint 4 lin,Joint 4 diff,Joint 5 dyn,Joint 5 lin,Joint 5 diff,Joint 6 dyn,Joint 6 lin,Joint 6 diff,Cube X dyn,Cube X lin,Cube X diff,Cube Y dyn,Cube Y lin,Cube Y diff,Cube rot dyn,Cube rot lin,Cube rot diff,Joint 0 vel dyn,Joint 0 vel lin,Joint 0 vel diff,Joint 1 vel dyn,Joint 1 vel lin,Joint 1 vel diff,Joint 2 vel dyn,Joint 2 vel lin,Joint 2 vel diff,Joint 3 vel dyn,Joint 3 vel lin,Joint 3 vel diff,Joint 4 vel dyn,Joint 4 vel lin,Joint 4 vel diff,Joint 5 vel dyn,Joint 5 vel lin,Joint 5 vel diff,Joint 6 vel dyn,Joint 6 vel lin,Joint 6 vel diff,Cube X  vel dyn,Cube X vel lin,Cube X vel diff,Cube Y vel dyn,Cube Y vel lin,Cube Y vel diff,Cube rot vel dyn,Cube rot vel lin,Cube rot vel diff
-0.120397,-0.120397,0,0.338914,0.338914,0,0.0645902,0.0645902,0,-2.50149,-2.50149,0,-0.00280361,-0.00280361,0,1.23688,1.23688,0,0.00782865,0.00782865,0,0.6,0.6,0,0.02,0.02,0,0,0,0,-0.000397618,-0.000397618,0,-0.000828794,-0.000828794,0,-0.00137505,-0.00137505,0,-0.00169312,-0.00169312,0,-0.0162365,-0.0162365,0,0.0739159,0.0739159,0,0.0115947,0.0115947,0,7.49401e-18,7.49401e-18,0,-4.81482e-35,-4.81482e-35,0,1.42255e-16,1.42255e-16,0,
-0.120099,-0.120289,-0.000190281,0.338058,0.338755,0.000696842,0.0649179,0.0647074,-0.000210456,-2.49655,-2.49928,-0.00272974,-0.00363074,-0.00334788,0.000282865,1.23181,1.23483,0.00302583,0.00833819,0.00813597,-0.00020222,0.6,0.6,0,0.02,0.02,0,0,0,0,0.0104844,0.00797982,-0.00250463,-0.0402655,-0.0236971,0.0165684,0.0115403,0.00884577,-0.00269449,0.138899,0.132774,-0.00612509,-0.0165476,-0.0128706,0.00367698,-0.146942,-0.148093,-0.0011515,0.00729509,0.013194,0.00589888,7.91034e-18,7.07767e-18,-8.32667e-19,5.55111e-19,1.38778e-19,-4.16334e-19,1.94415e-16,2.8214e-16,8.77241e-17,
-0.119871,-0.11997,-9.83594e-05,0.337252,0.33782,0.00056806,0.0651648,0.0650609,-0.000103912,-2.49369,-2.49405,-0.000362132,-0.00403901,-0.00417564,-0.000136626,1.22941,1.22932,-8.67418e-05,0.00841003,0.00863691,0.000226884,0.6,0.6,0,0.02,0.02,0,0,1.04321e-19,1.04321e-19,0.012082,0.0176334,0.00555135,-0.037254,-0.0736134,-0.0363593,0.0128483,0.0214467,0.00859848,0.147778,0.221818,0.07404,-0.0229571,0.0218564,0.0448135,-0.0796282,-0.278908,-0.19928,0.00312291,-0.00569015,-0.00881306,7.35523e-18,9.52711e-15,9.51975e-15,1.38778e-19,-1.2079e-14,-1.20792e-14,9.24659e-17,-1.02435e-13,-1.02528e-13,
-0.119619,-0.119739,-0.00011992,0.336633,0.337021,0.000388089,0.0654295,0.0653104,-0.000119143,-2.49053,-2.49118,-0.000651721,-0.00453251,-0.00459672,-6.42072e-05,1.22899,1.22705,-0.00194175,0.00842309,0.0087004,0.00027731,0.6,0.6,0,0.02,0.02,0,0,-9.95787e-20,-9.95787e-20,0.0127986,0.0190919,0.00629323,-0.0295906,-0.0710268,-0.0414362,0.0133593,0.0227609,0.00940165,0.164587,0.230848,0.0662608,-0.0250334,0.0184804,0.0435138,0.00205923,-0.220862,-0.222921,4.28836e-05,-0.011734,-0.0117769,7.77156e-18,1.14496e-14,1.14418e-14,-2.77556e-19,-3.0842e-14,-3.08417e-14,1.37513e-16,1.71429e-13,1.71292e-13,
-0.119364,-0.119485,-0.000121367,0.336013,0.336416,0.000402841,0.0656963,0.0655762,-0.000120158,-2.48719,-2.48798,-0.000790952,-0.00500701,-0.00509438,-8.73664e-05,1.22911,1.2268,-0.00230488,0.00842329,0.00870731,0.000284017,0.6,0.6,0,0.02,0.02,0,0,-9.48368e-21,-9.48368e-21,0.0126968,0.0196961,0.00699938,-0.0319484,-0.0671847,-0.0352363,0.0133028,0.0232063,0.00990351,0.167846,0.245743,0.0778968,-0.023406,0.0179602,0.0413661,0.0076396,-0.169788,-0.177428,1.92933e-05,-0.0132009,-0.0132201,7.77156e-18,1.25807e-14,1.25729e-14,1.38778e-19,-2.46653e-14,-2.46654e-14,1.94415e-16,5.74855e-14,5.72911e-14,
-0.119112,-0.11923,-0.000117825,0.335366,0.335792,0.000426017,0.0659599,0.0658429,-0.000117025,-2.48382,-2.48464,-0.000811231,-0.00545734,-0.00556562,-0.00010828,1.22925,1.22693,-0.00232439,0.00842321,0.00870746,0.000284251,0.6,0.6,0,0.02,0.02,0,0,1.04321e-19,1.04321e-19,0.0124733,0.0196066,0.00713332,-0.0325412,-0.0694259,-0.0368847,0.0130877,0.0231062,0.0100185,0.168247,0.248483,0.0802367,-0.0224309,0.0199198,0.0423507,0.00742982,-0.165833,-0.173263,1.3457e-05,-0.0139673,-0.0139807,7.77156e-18,1.22318e-14,1.2224e-14,2.77556e-19,-2.71884e-14,-2.71887e-14,-1.65964e-17,3.48804e-14,3.4897e-14,
-0.118866,-0.118979,-0.000113285,0.33472,0.335144,0.000423621,0.0662183,0.066106,-0.000112302,-2.48046,-2.48127,-0.000808257,-0.00588967,-0.006014,-0.000124322,1.22937,1.22707,-0.00229845,0.008423,0.00870737,0.000284365,0.6,0.6,0,0.02,0.02,0,0,-3.17703e-19,-3.17703e-19,0.0122086,0.019426,0.00721734,-0.0320825,-0.0698794,-0.0377969,0.012807,0.0228517,0.0100446,0.167835,0.248793,0.0809584,-0.0215885,0.0212996,0.0428881,0.00554653,-0.166783,-0.17233,1.01192e-05,-0.0147413,-0.0147514,7.77156e-18,1.13718e-14,1.13641e-14,-1.44445e-34,-2.22749e-14,-2.22749e-14,9.48368e-18,3.29474e-14,3.29379e-14,
-0.118625,-0.118733,-0.000108352,0.334089,0.334499,0.00040975,0.0664707,0.0663638,-0.000106938,-2.47711,-2.47791,-0.00079701,-0.00630597,-0.00644465,-0.000138673,1.22944,1.22719,-0.0022571,0.00842274,0.00870715,0.000284405,0.6,0.6,0,0.02,0.02,0,0,-2.65543e-19,-2.65543e-19,0.0119305,0.0192117,0.0072812,-0.0311776,-0.069363,-0.0381854,0.0125025,0.0225338,0.0100313,0.167116,0.248368,0.0812521,-0.02081,0.0225414,0.0433514,0.00307881,-0.169196,-0.172275,8.64944e-06,-0.0155036,-0.0155123,7.77156e-18,1.13565e-14,1.13487e-14,-1.38778e-19,-2.45584e-14,-2.45583e-14,2.8451e-17,3.23834e-14,3.23549e-14,
-0.11839,-0.118493,-0.000103317,0.333479,0.33387,0.000391238,0.0667171,0.0666157,-0.000101378,-2.47378,-2.47456,-0.000782522,-0.00670723,-0.00685939,-0.000152157,1.22947,1.22726,-0.00221018,0.00842247,0.00870689,0.000284417,0.6,0.6,0,0.02,0.02,0,0,-2.27608e-19,-2.27608e-19,0.0116503,0.0189854,0.00733513,-0.030096,-0.0684401,-0.0383441,0.0121921,0.0221946,0.0100026,0.166275,0.247659,0.0813835,-0.0200689,0.0237161,0.043785,0.000408514,-0.172118,-0.172527,7.99226e-06,-0.0162553,-0.0162633,7.35523e-18,1.17638e-14,1.17565e-14,2.77556e-19,-2.08405e-14,-2.08407e-14,1.42255e-17,3.90591e-14,3.90448e-14,
-0.11816,-0.118258,-9.83025e-05,0.33289,0.333261,0.000370949,0.0669572,0.0668614,-9.58096e-05,-2.47046,-2.47123,-0.000766783,-0.00709409,-0.00725917,-0.000165079,1.22943,1.22727,-0.0021616,0.0084222,0.00870662,0.000284418,0.6,0.6,0,0.02,0.02,0,0,-2.56059e-19,-2.56059e-19,0.0113728,0.0187564,0.00738356,-0.0289491,-0.0673569,-0.0384078,0.0118833,0.0218519,0.00996857,0.165389,0.246837,0.0814476,-0.0193545,0.0248503,0.0442048,-0.00231162,-0.175203,-0.172892,7.67974e-06,-0.0169964,-0.017004,7.35523e-18,1.14433e-14,1.14359e-14,-8.32667e-19,-2.18901e-14,-2.18893e-14,9.48368e-17,5.42376e-14,5.41428e-14,
-0.117936,-0.118029,-9.33624e-05,0.332325,0.332675,0.000350061,0.0671912,0.0671009,-9.03103e-05,-2.46716,-2.46791,-0.000750605,-0.00746702,-0.00764459,-0.000177567,1.22935,1.22724,-0.00211291,0.00842193,0.00870635,0.000284413,0.6,0.6,0,0.02,0.02,0,0,-9.48368e-20,-9.48368e-20,0.0111001,0.0185286,0.00742849,-0.0277825,-0.066215,-0.0384325,0.0115793,0.0215128,0.00993357,0.164488,0.245971,0.0814826,-0.0186624,0.0259543,0.0446168,-0.00501975,-0.178312,-0.173292,7.51287e-06,-0.0177271,-0.0177346,7.91034e-18,1.05558e-14,1.05479e-14,1.38778e-19,-1.82942e-14,-1.82943e-14,1.39884e-16,4.6173e-14,4.60331e-14,
-0.117717,-0.117805,-8.85181e-05,0.331783,0.332112,0.000329054,0.0674191,0.0673342,-8.49122e-05,-2.46388,-2.46462,-0.000734321,-0.00782647,-0.00801615,-0.000189678,1.22921,1.22714,-0.00206476,0.00842167,0.00870608,0.000284407,0.6,0.6,0,0.02,0.02,0,0,-4.74184e-21,-4.74184e-21,0.010833,0.0183038,0.00747085,-0.026615,-0.0650561,-0.038441,0.0112812,0.0211805,0.00989929,0.163586,0.24509,0.0815042,-0.0179906,0.0270329,0.0450235,-0.00769097,-0.181387,-0.173696,7.40767e-06,-0.0184477,-0.0184551,8.18789e-18,1.17811e-14,1.17729e-14,-9.62965e-35,-1.80694e-14,-1.80694e-14,1.70706e-16,4.45592e-14,4.43885e-14,
-0.117503,-0.117587,-8.3778e-05,0.331265,0.331573,0.000308127,0.0676413,0.0675616,-7.96272e-05,-2.46062,-2.46134,-0.00071807,-0.0081728,-0.00837424,-0.00020144,1.22902,1.227,-0.0020174,0.00842141,0.00870581,0.0002844,0.6,0.6,0,0.02,0.02,0,0,5.69021e-20,5.69021e-20,0.0105717,0.0180828,0.00751105,-0.0254543,-0.0638973,-0.0384429,0.0109895,0.020856,0.00986643,0.162686,0.244205,0.0815186,-0.0173378,0.0280882,0.045426,-0.0103154,-0.184407,-0.174091,7.32886e-06,-0.0191581,-0.0191655,8.04912e-18,1.42183e-14,1.42102e-14,1.38778e-19,-2.45181e-14,-2.45182e-14,1.44626e-16,8.91932e-14,8.90486e-14,
-0.117295,-0.117374,-7.91445e-05,0.330769,0.331057,0.000287363,0.0678576,0.0677832,-7.44593e-05,-2.45738,-2.45808,-0.000701908,-0.00850641,-0.00871928,-0.000212866,1.22877,1.2268,-0.00197093,0.00842116,0.00870556,0.000284393,0.6,0.6,0,0.02,0.02,0,0,4.74184e-21,4.74184e-21,0.0103164,0.0178657,0.00754932,-0.0243036,-0.0627455,-0.038442,0.0107044,0.0205397,0.00983523,0.161793,0.243322,0.0815288,-0.0167035,0.0291212,0.0458247,-0.0128895,-0.187363,-0.174473,7.26168e-06,-0.0198587,-0.019866,8.18789e-18,1.41735e-14,1.41653e-14,-4.16334e-19,-2.85112e-14,-2.85108e-14,6.63858e-17,8.43984e-14,8.4332e-14,
-0.117091,-0.117166,-7.45303e-05,0.330296,0.330564,0.000267232,0.0680678,0.0679989,-6.8898e-05,-2.45415,-2.45483,-0.000684322,-0.00883115,-0.00905161,-0.000220461,1.22846,1.22655,-0.0019118,0.00841217,0.00870531,0.00029314,0.600006,0.6,-5.69705e-06,0.0200006,0.02,-6.33472e-07,8.50135e-10,-1.51739e-19,-8.50135e-10,0.0100232,0.0176528,0.00762968,-0.0233828,-0.0616039,-0.0382211,0.0101703,0.0202316,0.0100613,0.160136,0.242442,0.0823056,-0.0178401,0.0301327,0.0479728,-0.0221978,-0.190252,-0.168054,-0.0043698,-0.0205495,-0.0161797,0.00284852,1.69358e-14,-0.00284852,0.000316736,-2.67155e-14,-0.000316736,0.0205061,1.3528e-13,-0.0205061,
-0.116897,-0.116963,-6.55355e-05,0.329862,0.330093,0.000230866,0.068265,0.0682081,-5.68534e-05,-2.45104,-2.45161,-0.000574751,-0.00923322,-0.00937863,-0.000145408,1.22772,1.22622,-0.00149972,0.00828063,0.00868756,0.000406926,0.600362,0.600011,-0.000350712,0.0200262,0.0200013,-2.49214e-05,0.0023586,4.1013e-05,-0.00231759,0.00959391,0.0174619,0.00786796,-0.0199528,-0.0607093,-0.0407565,0.00974454,0.019676,0.00993145,0.153073,0.240473,0.0874001,-0.0209801,0.0300343,0.0510144,-0.0420092,-0.200464,-0.158455,-0.00672261,-0.0318093,-0.0250867,0.028097,0.0039169,-0.0241801,0.00211467,0.000311279,-0.00180339,0.176349,0.0260491,-0.1503,
-0.116707,-0.11677,-6.34922e-05,0.3295,0.329665,0.00016475,0.068458,0.0684044,-5.35812e-05,-2.448,-2.44851,-0.000511686,-0.00964426,-0.00978698,-0.000142718,1.22682,1.22544,-0.00138023,0.00815038,0.00855131,0.000400935,0.60107,0.600418,-0.000651302,0.020081,0.0200304,-5.06267e-05,0.0065165,0.0027113,-0.00380521,0.00950636,0.0172013,0.00769492,-0.016925,-0.0569979,-0.0400729,0.009589,0.0192944,0.00970544,0.150917,0.234181,0.0832635,-0.0206581,0.0289829,0.0496409,-0.0460861,-0.216026,-0.16994,-0.00636112,-0.0373981,-0.031037,0.0398067,0.0275904,-0.0122163,0.00311942,0.00181324,-0.00130617,0.221648,0.168626,-0.0530224,
-0.116517,-0.116579,-6.20589e-05,0.329179,0.329309,0.000129755,0.068649,0.068597,-5.19135e-05,-2.445,-2.44548,-0.000486984,-0.0100484,-0.0101974,-0.000148985,1.22588,1.22454,-0.0013373,0.00801968,0.00842179,0.000402109,0.601916,0.601149,-0.000767076,0.0201373,0.0200873,-5.00276e-05,0.0107203,0.0069598,-0.00376046,0.00945714,0.0171541,0.00769695,-0.0155566,-0.0541686,-0.038612,0.00953087,0.0191157,0.00958483,0.149844,0.232217,0.0823734,-0.0204253,0.0298547,0.0502801,-0.0480707,-0.220191,-0.17212,-0.00662858,-0.0394055,-0.0327769,0.0437904,0.0383215,-0.00546889,0.00235786,0.0027219,0.000364033,0.195552,0.204417,0.0088649,
-0.116329,-0.11639,-6.13188e-05,0.328883,0.328991,0.000108252,0.0688383,0.0687879,-5.04029e-05,-2.44201,-2.44248,-0.00047003,-0.010451,-0.010601,-0.000150065,1.22487,1.22358,-0.00128678,0.00788316,0.00829055,0.000407387,0.602842,0.602004,-0.000838412,0.0201742,0.020142,-3.21842e-05,0.0136806,0.0111114,-0.00256927,0.00939697,-0.00535179,-0.0147488,-0.0140579,-0.0626797,-0.0486218,0.00941532,0.0521332,0.0427179,0.148777,0.217686,0.0689094,-0.0204312,0.0875172,0.107948,-0.0520247,-0.117517,-0.0654927,-0.00689285,-0.266277,-0.259384,0.0504316,0.00332313,-0.0471085,0.00150869,-0.0233446,-0.0248533,0.0729715,-0.299691,-0.372663,
-0.116142,-0.116202,-6.00884e-05,0.328622,0.328697,7.55584e-05,0.069025,0.0689771,-4.78812e-05,-2.43905,-2.4395,-0.000447338,-0.0108537,-0.0110036,-0.000149959,1.22379,1.22257,-0.00121561,0.00774287,0.00815351,0.000410637,0.603923,0.602943,-0.000980322,0.0201982,0.0201772,-2.09301e-05,0.0137036,0.0138266,0.000122991,0.00932411,-0.00502049,-0.0143446,-0.0123428,-0.061195,-0.0488522,0.00927983,0.0514464,0.0421665,0.147567,0.216628,0.069061,-0.0204047,0.0875367,0.107941,-0.0552354,-0.123783,-0.0685473,-0.00714192,-0.271361,-0.264219,0.0562318,0.0105992,-0.0456326,0.00102649,-0.0233495,-0.024376,-0.0426085,-0.383166,-0.340557,
-0.115957,-0.116015,-5.8381e-05,0.328384,0.32844,5.63443e-05,0.0692098,0.0691635,-4.63638e-05,-2.4361,-2.43654,-0.000431517,-0.0112502,-0.0114063,-0.000156053,1.22268,1.22148,-0.00120065,0.00759777,0.00801271,0.000414943,0.604998,0.604036,-0.000962103,0.0202174,0.0202002,-1.71538e-05,0.0135687,0.0136184,4.97074e-05,0.00922124,-0.00461234,-0.0138336,-0.0118889,-0.059565,-0.047676,0.00921096,0.0506035,0.0413926,0.14707,0.215465,0.0683948,-0.0199062,0.0873968,0.107303,-0.0545568,-0.130628,-0.0760712,-0.00737361,-0.279245,-0.271871,0.0497337,0.0176049,-0.0321288,0.000956488,-0.0228109,-0.0237674,0.0565692,-0.451465,-0.508035,
-0.115773,-0.11583,-5.70386e-05,0.328157,0.328203,4.55073e-05,0.0693925,0.0693482,-4.43653e-05,-2.43317,-2.43359,-0.000423158,-0.0116446,-0.0118018,-0.000157243,1.22154,1.22038,-0.00116298,0.00744706,0.00786715,0.00042009,0.60601,0.605098,-0.000912613,0.0202415,0.0202193,-2.22719e-05,0.0144377,0.0136818,-0.000755887,0.0091636,-0.00389568,-0.0130593,-0.01061,-0.0588321,-0.0482221,0.00908257,0.0493385,0.0402559,0.14619,0.215428,0.0692384,-0.0199405,0.0861129,0.106053,-0.0587869,-0.13491,-0.0761229,-0.00750045,-0.275645,-0.268144,0.053808,0.0131768,-0.0406313,0.00162615,-0.0219932,-0.0236194,0.00328179,-0.348428,-0.35171,
-0.115591,-0.115646,-5.55895e-05,0.327961,0.327979,1.76124e-05,0.0695727,0.0695306,-4.20776e-05,-2.43026,-2.43066,-0.000403754,-0.0120306,-0.0121963,-0.000165695,1.22035,1.21923,-0.0011161,0.0073011,0.00771619,0.000415096,0.607114,0.606118,-0.000996143,0.0202799,0.0202448,-3.50964e-05,0.0141397,0.0144442,0.000304509,0.0090303,-0.00394446,-0.0129748,-0.00948282,-0.0575569,-0.0480741,0.00894005,0.0492273,0.0402873,0.145395,0.214439,0.0690442,-0.0189521,0.0867838,0.105736,-0.0587474,-0.138139,-0.0793912,-0.00699716,-0.275658,-0.268661,0.0529965,0.0169078,-0.0360887,0.00206198,-0.0214044,-0.0234664,0.0202162,-0.396612,-0.416829,
-0.115412,-0.115464,-5.24458e-05,0.327782,0.327785,3.40203e-06,0.069749,0.0697105,-3.84771e-05,-2.42735,-2.42775,-0.000395066,-0.0124044,-0.0125803,-0.000175872,1.21913,1.21804,-0.00109508,0.00715787,0.00757123,0.000413357,0.608172,0.60722,-0.000951916,0.0203232,0.020284,-3.92238e-05,0.0143116,0.0141802,-0.00013141,0.00888251,-0.00405705,-0.0129396,-0.00843438,-0.0564688,-0.0480344,0.00874135,0.0490579,0.0403166,0.144716,0.213752,0.0690353,-0.0188455,0.0877913,0.106637,-0.0621048,-0.13883,-0.076725,-0.00716922,-0.27492,-0.267751,0.0546316,0.0159649,-0.0386667,0.00223599,-0.021,-0.023236,-0.0271423,-0.382882,-0.355739,
-0.115237,-0.115286,-4.92842e-05,0.32762,0.327608,-1.22838e-05,0.0699215,0.0698864,-3.51185e-05,-2.42446,-2.42485,-0.000382629,-0.0127658,-0.0129539,-0.000188113,1.21789,1.21681,-0.0010765,0.00701765,0.00742766,0.000410013,0.60921,0.608281,-0.000928848,0.0203678,0.0203277,-4.00622e-05,0.0144049,0.0142573,-0.000147617,0.00868174,-0.00419069,-0.0128724,-0.00776153,-0.0554186,-0.0476571,0.00855213,0.0488804,0.0403282,0.144151,0.21296,0.0688097,-0.0179903,0.0884984,0.106489,-0.0622877,-0.141399,-0.0791114,-0.00693103,-0.274666,-0.267735,0.0511158,0.0173954,-0.0337204,0.00223208,-0.0208584,-0.0230905,0.00831377,-0.424525,-0.432838,
-0.115065,-0.115111,-4.62362e-05,0.327474,0.327447,-2.68164e-05,0.0700902,0.0700585,-3.16764e-05,-2.42159,-2.42196,-0.000371625,-0.0131174,-0.0133135,-0.000196149,1.21662,1.21557,-0.00104781,0.00687816,0.00728792,0.000409761,0.610217,0.609312,-0.000904594,0.0204123,0.0203722,-4.00408e-05,0.0145519,0.0144215,-0.000130364,0.00852204,-0.00436531,-0.0128873,-0.00696145,-0.0547449,-0.0477835,0.00835198,0.0486725,0.0403206,0.143611,0.212429,0.0688183,-0.0177409,0.0894469,0.107188,-0.0643085,-0.142175,-0.0778662,-0.00704015,-0.274398,-0.267358,0.0498502,0.0140847,-0.0357654,0.00223038,-0.0208582,-0.0230886,0.00501391,-0.394644,-0.399658,
-0.114896,-0.11494,-4.33683e-05,0.327344,0.327303,-4.14129e-05,0.0702553,0.0702268,-2.85332e-05,-2.41872,-2.41908,-0.000359896,-0.0134599,-0.0136647,-0.000204778,1.21531,1.21429,-0.00102129,0.00673914,0.00714821,0.000409067,0.6112,0.610316,-0.000883874,0.0204564,0.0204167,-3.96157e-05,0.0146523,0.0145619,-9.03339e-05,0.00836341,-0.00451501,-0.0128784,-0.00614774,-0.0539467,-0.047799,0.00817507,0.0484911,0.0403161,0.142958,0.211802,0.0688435,-0.0173082,0.0901821,0.10749,-0.066008,-0.143944,-0.0779362,-0.00704327,-0.274399,-0.267356,0.0489799,0.0128803,-0.0360996,0.0022022,-0.0208681,-0.0230703,-0.00148324,-0.397898,-0.396415,
-0.114731,-0.114771,-4.0399e-05,0.32723,0.327175,-5.56481e-05,0.0704169,0.0703916,-2.52401e-05,-2.41587,-2.41622,-0.000348132,-0.0137924,-0.0140063,-0.0002139,1.21399,1.21299,-0.00099791,0.00660128,0.00700918,0.000407899,0.61216,0.611298,-0.000861655,0.0204995,0.0204608,-3.87216e-05,0.0147654,0.0146493,-0.000116109,0.00818735,-0.00465803,-0.0128454,-0.00542774,-0.0531319,-0.0477042,0.00797939,0.0483185,0.0403391,0.142378,0.211112,0.0687347,-0.0167905,0.090972,0.107762,-0.0671098,-0.145566,-0.0784563,-0.00698851,-0.274435,-0.267446,0.0469869,0.0120336,-0.0349533,0.00213864,-0.0208997,-0.0230383,0.0122765,-0.404139,-0.416416,
-0.114569,-0.114606,-3.73818e-05,0.327133,0.327062,-7.03394e-05,0.0705746,0.0705527,-2.18295e-05,-2.41303,-2.41337,-0.000336152,-0.0141168,-0.0143378,-0.000220996,1.21262,1.21166,-0.00096715,0.00646333,0.00687144,0.000408102,0.613107,0.612254,-0.000852789,0.0205415,0.0205038,-3.76965e-05,0.0147517,0.01479,3.82559e-05,0.00802581,-0.00482115,-0.012847,-0.00457546,-0.0524155,-0.0478401,0.00779698,0.04813,0.040333,0.141679,0.210506,0.068827,-0.0163607,0.0917925,0.108153,-0.0686927,-0.146816,-0.0781231,-0.00696088,-0.274564,-0.267603,0.0467404,0.0101468,-0.0365935,0.00208002,-0.0209589,-0.023039,0.00166775,-0.392347,-0.394015,
-0.11441,-0.114445,-3.44002e-05,0.32705,0.326966,-8.36797e-05,0.0707288,0.0707101,-1.86774e-05,-2.41021,-2.41053,-0.000324878,-0.0144313,-0.0146613,-0.000230049,1.21124,1.21029,-0.000947093,0.00632648,0.00673354,0.000407057,0.614028,0.6132,-0.000828185,0.0205822,0.0205456,-3.65757e-05,0.0148657,0.014755,-0.000110647,0.00785451,-0.00496922,-0.0128237,-0.00392576,-0.0515666,-0.0476409,0.00763629,0.0479551,0.0403188,0.141045,0.209784,0.0687388,-0.0155635,0.0925652,0.108129,-0.0687298,-0.148364,-0.0796346,-0.00670772,-0.274697,-0.267989,0.0440957,0.00988606,-0.0342096,0.00199876,-0.0210173,-0.023016,0.032955,-0.402146,-0.435101,
-0.114255,-0.114287,-3.18169e-05,0.326983,0.326885,-9.79874e-05,0.0708796,0.0708639,-1.56931e-05,-2.40739,-2.40771,-0.000313343,-0.0147381,-0.0149742,-0.000236062,1.20983,1.20891,-0.000917758,0.00618955,0.0065972,0.000407649,0.614938,0.614117,-0.000821231,0.020622,0.0205862,-3.57828e-05,0.0149432,0.0149316,-1.16183e-05,0.00770909,-0.00512131,-0.0128304,-0.00316122,-0.0509221,-0.0477609,0.00747336,0.0477814,0.0403081,0.140422,0.209199,0.0687771,-0.0151544,0.0934615,0.108616,-0.0700523,-0.149003,-0.0789505,-0.00669056,-0.274877,-0.268187,0.0432714,0.00737259,-0.0358988,0.00194868,-0.0210864,-0.0230351,0.0354508,-0.374984,-0.410434,
-0.114102,-0.114131,-2.92148e-05,0.326931,0.32682,-0.000111759,0.0710273,0.0710145,-1.277e-05,-2.40459,-2.4049,-0.000301904,-0.015037,-0.0152802,-0.000243216,1.20838,1.20749,-0.000893162,0.00605291,0.0064603,0.000407388,0.615834,0.615024,-0.000810198,0.0206607,0.0206259,-3.48433e-05,0.0150263,0.0150141,-1.21513e-05,0.00756454,-0.0052546,-0.0128191,-0.0023913,-0.0501622,-0.0477709,0.00731041,0.0476251,0.0403147,0.139784,0.208544,0.0687595,-0.014757,0.0942078,0.108965,-0.0714245,-0.15035,-0.0789258,-0.00667329,-0.275138,-0.268465,0.0427591,0.00658911,-0.03617,0.00189457,-0.0211363,-0.0230308,0.0343471,-0.373038,-0.407385,
-0.113952,-0.113979,-2.65686e-05,0.326895,0.326769,-0.000125635,0.0711716,0.0711618,-9.78682e-06,-2.40181,-2.4021,-0.000290375,-0.0153281,-0.0155783,-0.000250265,1.20691,1.20605,-0.00086878,0.00591669,0.00632369,0.000406999,0.616723,0.61592,-0.000802634,0.0206983,0.0206645,-3.37778e-05,0.0150726,0.015095,2.24069e-05,0.00741867,-0.00538761,-0.0128063,-0.00161921,-0.0493957,-0.0477765,0.00714704,0.0474699,0.0403229,0.139147,0.207874,0.0687271,-0.0143674,0.0949421,0.10931,-0.0727696,-0.151714,-0.0789444,-0.0066532,-0.275413,-0.268759,0.0423693,0.00609683,-0.0362725,0.00183662,-0.0211899,-0.0230266,0.0321773,-0.374287,-0.406465,
-0.113805,-0.113829,-2.40033e-05,0.326874,0.326735,-0.000139253,0.0713127,0.0713058,-6.87647e-06,-2.39903,-2.39931,-0.000279265,-0.0156122,-0.0158686,-0.000256412,1.20542,1.20457,-0.000843121,0.00578031,0.00618752,0.000407205,0.617603,0.616807,-0.000795704,0.0207348,0.020702,-3.28059e-05,0.0150723,0.0151369,6.4632e-05,0.00728884,-0.005522,-0.0128108,-0.000745735,-0.0486278,-0.0478821,0.0069995,0.047315,0.0403155,0.138426,0.207205,0.068779,-0.0141381,0.0956666,0.109805,-0.0749261,-0.153038,-0.0781123,-0.00673378,-0.275681,-0.268947,0.0436775,0.00571777,-0.0379598,0.00180006,-0.0212472,-0.0230472,0.00327865,-0.376471,-0.37975,
-0.113661,-0.113682,-2.15731e-05,0.326867,0.326715,-0.000152119,0.0714508,0.0714466,-4.22419e-06,-2.39627,-2.39654,-0.000268373,-0.015888,-0.0161522,-0.000264203,1.2039,1.20307,-0.000826066,0.00564489,0.00605097,0.000406083,0.618469,0.61769,-0.000778855,0.0207702,0.0207384,-3.1855e-05,0.0151503,0.0150788,-7.14287e-05,0.00716904,-0.00563813,-0.0128072,2.46497e-05,-0.047755,-0.0477796,0.00683753,0.0471774,0.0403399,0.137861,0.20643,0.0685693,-0.0140162,0.0963237,0.11034,-0.0768771,-0.154806,-0.0779285,-0.00687971,-0.275937,-0.269057,0.0437706,0.00689319,-0.0368774,0.00176623,-0.0212902,-0.0230565,-0.00736531,-0.401707,-0.394342,
-0.113519,-0.113538,-1.92633e-05,0.326876,0.32671,-0.000165401,0.0715861,0.0715844,-1.71263e-06,-2.39352,-2.39378,-0.000257015,-0.0161567,-0.0164279,-0.000271213,1.20236,1.20155,-0.000805042,0.0055099,0.00591526,0.000405357,0.619328,0.618557,-0.000771613,0.0208048,0.0207738,-3.10171e-05,0.0151944,0.0151355,-5.88943e-05,0.00703173,-0.00528735,-0.0123191,0.000698232,-0.0465784,-0.0472766,0.00670994,0.046442,0.039732,0.137199,0.206349,0.0691501,-0.0133388,0.0938475,0.107186,-0.0770972,-0.164436,-0.0873384,-0.00664405,-0.280181,-0.273537,0.0424029,0.0127535,-0.0296495,0.0017012,-0.0212586,-0.0229598,0.00909168,-0.507414,-0.516505,
-0.11338,-0.113397,-1.62065e-05,0.326903,0.32672,-0.000182697,0.0717169,0.0717195,2.59538e-06,-2.39079,-2.39103,-0.000242105,-0.0164157,-0.0166951,-0.000279476,1.20075,1.20001,-0.00073936,0.00538201,0.00578074,0.000398735,0.620209,0.619413,-0.000795237,0.0208423,0.0208082,-3.40922e-05,0.015171,0.0152126,4.16198e-05,0.00683215,-0.0103873,-0.0172195,0.00186977,-0.0443176,-0.0461873,0.00641863,0.0541319,0.0477133,0.136275,0.198896,0.062621,-0.0130608,0.117539,0.1306,-0.0815348,-0.0682994,0.0132354,-0.00635525,-0.370469,-0.364114,0.0450245,0.000151887,-0.0448726,0.00198725,-0.0234534,-0.0254406,-0.00841619,-0.517193,-0.508777,
-0.113246,-0.113258,-1.22228e-05,0.326952,0.326749,-0.000202524,0.0718424,0.0718496,7.23729e-06,-2.38807,-2.3883,-0.000226517,-0.0166632,-0.0169536,-0.000290371,1.19909,1.19839,-0.000702277,0.00526199,0.00565343,0.00039144,0.621115,0.620299,-0.0008165,0.0208842,0.0208462,-3.79598e-05,0.0150338,0.0151542,0.000120345,0.00659638,-0.0105742,-0.0171706,0.00302585,-0.0431365,-0.0461624,0.00612327,0.0538624,0.0477392,0.135445,0.19787,0.062425,-0.0123415,0.11824,0.130581,-0.0840441,-0.0715277,0.0125164,-0.00571667,-0.370192,-0.364475,0.0463523,0.00256846,-0.0437838,0.0022335,-0.0231802,-0.0254137,-0.0154857,-0.533046,-0.51756,
-0.113117,-0.113125,-7.34505e-06,0.327024,0.326801,-0.000223076,0.0719619,0.0719746,1.27193e-05,-2.38537,-2.38558,-0.000211561,-0.0168959,-0.0171997,-0.000303796,1.19739,1.19673,-0.000664383,0.00515174,0.00553468,0.000382947,0.62204,0.621208,-0.000832238,0.0209316,0.0208887,-4.29771e-05,0.0148012,0.0150028,0.000201662,0.00631108,-0.0107761,-0.0170872,0.00385427,-0.0419977,-0.045852,0.00586015,0.0535489,0.0476887,0.134656,0.197023,0.0623666,-0.0112889,0.119063,0.130351,-0.0851167,-0.0736411,0.0114756,-0.00531613,-0.369353,-0.364037,0.0449867,0.00370829,-0.0412784,0.00249791,-0.0229308,-0.0254287,0.00828158,-0.540261,-0.548542,
-0.112994,-0.112997,-3.10754e-06,0.327114,0.326874,-0.00023939,0.072076,0.0720935,1.75064e-05,-2.38268,-2.38288,-0.000200056,-0.0171182,-0.0174303,-0.000312095,1.19567,1.19503,-0.00063842,0.00504559,0.00542523,0.000379639,0.622955,0.62213,-0.000825119,0.020982,0.0209366,-4.53679e-05,0.0145575,0.0148177,0.000260293,0.0061054,-0.0109977,-0.0171031,0.00493192,-0.041169,-0.0461009,0.00559048,0.0532296,0.0476391,0.13406,0.196298,0.0622376,-0.0112158,0.119924,0.13114,-0.0869623,-0.0749406,0.0120217,-0.00526026,-0.368367,-0.363107,0.0460784,0.00236122,-0.0437172,0.00254255,-0.0226828,-0.0252254,-0.0239174,-0.520321,-0.496404,
-0.112874,-0.112873,8.78532e-07,0.327218,0.326966,-0.000252128,0.0721856,0.0722071,2.15327e-05,-2.38001,-2.3802,-0.000188621,-0.0173286,-0.0176524,-0.000323769,1.19391,1.1933,-0.000615398,0.00494358,0.0053192,0.00037562,0.623849,0.623047,-0.000801812,0.0210343,0.0209871,-4.71943e-05,0.0143597,0.0145096,0.000149921,0.00589503,-0.0111668,-0.0170618,0.00562421,-0.0401374,-0.0457616,0.00536652,0.0529511,0.0475846,0.133429,0.19563,0.0622009,-0.0105918,0.120347,0.130938,-0.0882697,-0.0765594,0.0117103,-0.00504721,-0.367448,-0.362401,0.044778,0.00328552,-0.0414925,0.00263524,-0.0226358,-0.025271,-0.0181044,-0.548767,-0.530663,
-0.112759,-0.112754,4.51468e-06,0.327337,0.327072,-0.000264722,0.0722908,0.0723162,2.53797e-05,-2.37735,-2.37753,-0.000177476,-0.0175286,-0.0178616,-0.000332964,1.19213,1.19154,-0.000590692,0.00484512,0.00521762,0.000372497,0.624721,0.623939,-0.000782371,0.0210883,0.0210396,-4.87778e-05,0.0142222,0.0143235,0.000101276,0.00568131,-0.0113294,-0.0170107,0.00617415,-0.0394426,-0.0456167,0.00518585,0.0526866,0.0475008,0.132787,0.194999,0.0622124,-0.00980377,0.120969,0.130773,-0.0893771,-0.0779637,0.0114134,-0.00480703,-0.36657,-0.361763,0.0427217,0.00205376,-0.040668,0.00276233,-0.02254,-0.0253023,0.00203062,-0.544215,-0.546245,
-0.112647,-0.112639,8.02535e-06,0.327472,0.327192,-0.000279271,0.0723913,0.0724211,2.98555e-05,-2.3747,-2.37487,-0.000165927,-0.0177193,-0.01806,-0.000340704,1.19031,1.18976,-0.000553767,0.00475341,0.00511963,0.000366222,0.625583,0.624806,-0.000776482,0.0211448,0.0210939,-5.09521e-05,0.0140753,0.0142263,0.000150967,0.00548209,-0.01148,-0.0169621,0.00729196,-0.0388741,-0.0461661,0.00488615,0.0524415,0.0475553,0.132108,0.194381,0.0622731,-0.00963765,0.121639,0.131276,-0.0918622,-0.0792828,0.0125794,-0.00445356,-0.365769,-0.361315,0.0441053,0.000153228,-0.0439521,0.00286443,-0.0224147,-0.0252791,-0.0229515,-0.527179,-0.504227,
-0.11254,-0.112528,1.2118e-05,0.327624,0.327329,-0.000294513,0.0724869,0.072521,3.40229e-05,-2.37207,-2.37222,-0.000152478,-0.0178987,-0.0182504,-0.000351656,1.18846,1.18794,-0.000524656,0.00466732,0.00502864,0.000361318,0.626441,0.625671,-0.00077006,0.0212042,0.0211505,-5.3624e-05,0.0139649,0.0140294,6.44589e-05,0.00527569,-0.0116604,-0.0169361,0.00793994,-0.0377971,-0.0457371,0.00467438,0.0521482,0.0474738,0.131428,0.193616,0.0621877,-0.00903433,0.122123,0.131158,-0.0931127,-0.0812634,0.0118493,-0.00428607,-0.364972,-0.360685,0.0427199,0.00137218,-0.0413478,0.00299551,-0.0222948,-0.0252904,-0.00479149,-0.549194,-0.544402,
-0.112437,-0.112421,1.53058e-05,0.327791,0.327482,-0.000308997,0.0725786,0.0726162,3.75959e-05,-2.36944,-2.36959,-0.000141431,-0.018071,-0.0184286,-0.000357597,1.18658,1.18608,-0.000504303,0.0045836,0.00494287,0.000359274,0.627295,0.626527,-0.000768805,0.0212638,0.0212102,-5.36062e-05,0.0137798,0.0139554,0.000175581,0.00510734,-0.0118327,-0.0169401,0.0086933,-0.0371477,-0.045841,0.00449136,0.0519169,0.0474255,0.130831,0.192927,0.0620968,-0.00866831,0.122786,0.131455,-0.0941918,-0.0824745,0.0117172,-0.00419369,-0.364886,-0.360692,0.0425228,9.79164e-05,-0.0424248,0.00298506,-0.0221619,-0.025147,-0.00987028,-0.533645,-0.523775,
-0.112336,-0.112318,1.81467e-05,0.327972,0.327652,-0.000320392,0.0726669,0.0727075,4.05786e-05,-2.36683,-2.36697,-0.000131175,-0.0182353,-0.0186002,-0.000364862,1.18469,1.1842,-0.000485803,0.00450239,0.00485934,0.000356952,0.628135,0.62738,-0.000754737,0.0213238,0.0212697,-5.40414e-05,0.0136515,0.01376,0.000108589,0.00494305,-0.0135222,-0.0184652,0.00924519,-0.0386304,-0.0478756,0.00435832,0.0536899,0.0493316,0.130246,0.191623,0.0613775,-0.00804806,0.128903,0.136951,-0.0952013,-0.0830664,0.0121349,-0.00390064,-0.353552,-0.349652,0.0413325,-0.0120465,-0.053379,0.00303991,-0.0212666,-0.0243065,0.000516229,-0.34628,-0.346796,
-0.112239,-0.112218,2.06529e-05,0.328165,0.327833,-0.000331383,0.0727522,0.0727956,4.33898e-05,-2.36424,-2.36436,-0.000121398,-0.0183923,-0.0187632,-0.00037087,1.18277,1.1823,-0.000468689,0.00442315,0.00477872,0.000355569,0.62896,0.628218,-0.000741705,0.0213847,0.0213299,-5.48148e-05,0.0135921,0.0136525,6.03485e-05,0.00480676,-0.0136362,-0.0184429,0.00984769,-0.0380656,-0.0479133,0.00420983,0.0535056,0.0492957,0.129708,0.191026,0.061318,-0.00771829,0.129533,0.137251,-0.0961219,-0.0840079,0.012114,-0.00381888,-0.353124,-0.349305,0.0406546,-0.0131642,-0.0538188,0.00309975,-0.0211923,-0.0242921,0.00286571,-0.337566,-0.340431,
-0.112144,-0.112121,2.29431e-05,0.328369,0.328027,-0.000342296,0.0728346,0.0728805,4.58768e-05,-2.36165,-2.36176,-0.000111753,-0.0185432,-0.0189195,-0.00037637,1.18084,1.18038,-0.000453067,0.00434518,0.00469964,0.000354459,0.629774,0.629041,-0.000733232,0.0214465,0.0213909,-5.56742e-05,0.0135377,0.0135979,6.02083e-05,0.00468571,-0.0137446,-0.0184303,0.0104538,-0.0374688,-0.0479226,0.00407936,0.0533405,0.0492611,0.129176,0.190444,0.0612683,-0.00741901,0.130044,0.137463,-0.0969626,-0.0848088,0.0121539,-0.00376515,-0.35309,-0.349325,0.0402678,-0.0137941,-0.0540619,0.00313452,-0.021119,-0.0242535,0.00203343,-0.335713,-0.337747,
-0.112051,-0.112026,2.49422e-05,0.328586,0.328233,-0.000352456,0.0729146,0.0729627,4.81034e-05,-2.35907,-2.35917,-0.000102422,-0.018688,-0.0190698,-0.000381779,1.17889,1.17845,-0.000438166,0.00426897,0.00462178,0.000352807,0.630578,0.629855,-0.000723142,0.0215091,0.0214528,-5.62747e-05,0.0135091,0.0135417,3.26595e-05,0.00457652,-0.0138484,-0.0184249,0.0110353,-0.0368707,-0.0479061,0.00393311,0.0532077,0.0492746,0.128676,0.189865,0.0611891,-0.00718649,0.130552,0.137738,-0.0980009,-0.0855078,0.0124932,-0.00342979,-0.353223,-0.349793,0.040022,-0.0141601,-0.054182,0.00313837,-0.0210828,-0.0242212,-0.00693985,-0.336603,-0.329663,
-0.111962,-0.111934,2.8332e-05,0.328808,0.328451,-0.000357584,0.0729903,0.0730424,5.2074e-05,-2.3565,-2.35659,-9.2342e-05,-0.0188204,-0.0192142,-0.000393793,1.1769,1.1765,-0.000404787,0.00420449,0.00454624,0.00034175,0.631343,0.630658,-0.000684954,0.0215786,0.0215154,-6.32539e-05,0.013496,0.0134952,-8.44248e-07,0.00433868,-0.0149864,-0.019325,0.0113877,-0.0369406,-0.0483282,0.0036767,0.0544928,0.0508161,0.12806,0.188436,0.0603757,-0.00661014,0.136008,0.142618,-0.099907,-0.076058,0.023849,-0.00323323,-0.378874,-0.375641,0.0380404,-0.018888,-0.0569284,0.00364257,-0.0205178,-0.0241604,-0.0070691,-0.392053,-0.384984,
-0.111877,-0.111845,3.17906e-05,0.329042,0.328674,-0.000368586,0.073062,0.0731176,5.55711e-05,-2.35395,-2.35403,-8.12666e-05,-0.0189471,-0.0193454,-0.000398306,1.17489,1.17451,-0.000384635,0.00414033,0.00448216,0.000341827,0.632095,0.631419,-0.000675982,0.0216535,0.0215859,-6.76366e-05,0.0134138,0.0134819,6.80566e-05,0.00418752,-0.015213,-0.0194006,0.0119366,-0.0365415,-0.0484782,0.00353639,0.0542563,0.0507199,0.12747,0.187761,0.0602909,-0.00627329,0.136683,0.142956,-0.100719,-0.0775283,0.0231907,-0.00323944,-0.37927,-0.37603,0.0371753,-0.0206263,-0.0578016,0.00381966,-0.0200407,-0.0238603,0.00180732,-0.391985,-0.393792,
-0.111794,-0.111761,3.37685e-05,0.329287,0.328909,-0.00037851,0.0731313,0.073189,5.77027e-05,-2.3514,-2.35148,-7.20372e-05,-0.0190693,-0.0194715,-0.000402178,1.17287,1.17249,-0.000372024,0.00407655,0.00441798,0.000341428,0.632834,0.632169,-0.000664867,0.0217305,0.0216612,-6.93568e-05,0.0134924,0.0134175,-7.49712e-05,0.00408328,-0.0153437,-0.019427,0.0125408,-0.0359877,-0.0485285,0.00342383,0.0541165,0.0506927,0.126967,0.187141,0.0601739,-0.00606116,0.137189,0.14325,-0.101384,-0.0782169,0.0231674,-0.00321584,-0.379639,-0.376423,0.0370872,-0.0213944,-0.0584816,0.0038564,-0.0198788,-0.0237352,0.000856251,-0.384102,-0.384958,
-0.111713,-0.111678,3.53959e-05,0.329545,0.329155,-0.000389154,0.0731986,0.0732581,5.9499e-05,-2.34887,-2.34893,-6.30511e-05,-0.0191871,-0.0195932,-0.000406053,1.17083,1.17047,-0.000361153,0.00401339,0.00435425,0.000340853,0.633572,0.632908,-0.00066411,0.0218077,0.0217382,-6.94116e-05,0.0135452,0.0134941,-5.1035e-05,0.0040025,-0.0154323,-0.0194348,0.0131099,-0.0353947,-0.0485046,0.00333171,0.0540043,0.0506726,0.126491,0.186585,0.0600943,-0.00587464,0.13762,0.143494,-0.101959,-0.0787215,0.0232373,-0.00318632,-0.380001,-0.376815,0.0369335,-0.0214701,-0.0584036,0.00385553,-0.0198423,-0.0236978,0.00163294,-0.38493,-0.386563,
-0.111634,-0.111597,3.67848e-05,0.329813,0.329414,-0.000399641,0.0732641,0.0733252,6.10685e-05,-2.34634,-2.3464,-5.44085e-05,-0.0193011,-0.0197107,-0.000409587,1.16878,1.16843,-0.000351579,0.00395087,0.00429115,0.000340281,0.63431,0.633646,-0.000664282,0.0218844,0.0218154,-6.89823e-05,0.0135476,0.0135484,8.5705e-07,0.00393647,-0.0155013,-0.0194378,0.0136359,-0.0348342,-0.0484701,0.00325816,0.0539143,0.0506562,0.126021,0.186052,0.0600317,-0.00565754,0.138034,0.143691,-0.102446,-0.079121,0.0233252,-0.00315729,-0.380345,-0.377188,0.0365765,-0.0216121,-0.0581886,0.00384847,-0.0198399,-0.0236884,0.00532122,-0.384267,-0.389588,
-0.111556,-0.111518,3.79125e-05,0.330093,0.329683,-0.000409914,0.0733281,0.0733905,6.24669e-05,-2.34383,-2.34388,-4.61038e-05,-0.0194115,-0.0198242,-0.000412739,1.16672,1.16638,-0.000340189,0.00388954,0.00422869,0.00033915,0.635045,0.634384,-0.000661649,0.0219607,0.021892,-6.86676e-05,0.013579,0.0135582,-2.07527e-05,0.00387981,-0.0155581,-0.0194379,0.0142214,-0.0343115,-0.048533,0.0031836,0.0538429,0.0506593,0.125544,0.185531,0.0599877,-0.00547456,0.13846,0.143934,-0.103272,-0.0794399,0.0238321,-0.00307475,-0.380671,-0.377597,0.0363797,-0.0219447,-0.0583244,0.00382807,-0.0198443,-0.0236724,0.0106937,-0.381071,-0.391765,
-0.111479,-0.11144,3.90509e-05,0.330387,0.329965,-0.000422345,0.0733903,0.0734544,6.40998e-05,-2.34132,-2.34136,-3.69951e-05,-0.0195189,-0.0199342,-0.000415324,1.16465,1.16432,-0.00032823,0.00383015,0.00416752,0.000337368,0.635785,0.635118,-0.000667175,0.0220361,0.0219684,-6.7691e-05,0.0135745,0.0136004,2.58865e-05,0.00384697,-0.0156101,-0.0194571,0.014989,-0.0337344,-0.0487234,0.00303258,0.0537753,0.0507427,0.125103,0.184982,0.0598785,-0.00559628,0.138884,0.14448,-0.103843,-0.0799251,0.0239179,-0.00278268,-0.380989,-0.378207,0.0371922,-0.0221277,-0.0593199,0.00371928,-0.0198566,-0.0235759,-0.00432049,-0.376396,-0.372076,
-0.111403,-0.111363,4.01545e-05,0.330692,0.33026,-0.000432252,0.0734512,0.0735162,6.50206e-05,-2.33883,-2.33886,-2.87442e-05,-0.0196228,-0.0200419,-0.000419102,1.16257,1.16225,-0.000322446,0.00377104,0.00410871,0.000337671,0.636521,0.63586,-0.000661464,0.0221106,0.0220435,-6.71245e-05,0.0135718,0.0135658,-5.97277e-06,0.00376238,-0.0157617,-0.0195241,0.0154375,-0.0330607,-0.0484983,0.00304126,0.053802,0.0507608,0.124623,0.184409,0.0597866,-0.00517526,0.139465,0.14464,-0.104037,-0.0799945,0.0240423,-0.00299979,-0.381879,-0.378879,0.03635,-0.0217258,-0.0580758,0.00373322,-0.0199119,-0.0236451,0.00535411,-0.384246,-0.3896,
-0.111328,-0.111287,4.09051e-05,0.331007,0.330566,-0.00044155,0.0735111,0.0735772,6.61306e-05,-2.33634,-2.33636,-2.10738e-05,-0.0197234,-0.0201449,-0.000421543,1.16048,1.16017,-0.000316076,0.00371241,0.00404917,0.000336757,0.637248,0.636594,-0.000654533,0.0221845,0.0221181,-6.64397e-05,0.0135847,0.0135825,-2.16122e-06,0.00372829,-0.0158036,-0.0195319,0.0158831,-0.0326102,-0.0484932,0.00299959,0.0537716,0.0507721,0.124202,0.183901,0.0596997,-0.00499561,0.139947,0.144942,-0.104352,-0.0801055,0.0242467,-0.00297798,-0.382228,-0.37925,0.0355479,-0.0225162,-0.0580641,0.00371871,-0.0199199,-0.0236386,0.012042,-0.375794,-0.387836,
-0.111254,-0.111213,4.17e-05,0.331333,0.330882,-0.00045082,0.0735699,0.073637,6.71246e-05,-2.33386,-2.33387,-1.33591e-05,-0.0198211,-0.0202452,-0.000424058,1.15839,1.15808,-0.000309819,0.00365426,0.00399059,0.000336327,0.637968,0.637319,-0.000648377,0.0222578,0.022192,-6.57817e-05,0.0135739,0.0136088,3.48356e-05,0.00370003,-0.0158345,-0.0195345,0.0163204,-0.0321651,-0.0484855,0.00296054,0.0537359,0.0507754,0.123796,0.183423,0.0596269,-0.00485904,0.140336,0.145195,-0.104673,-0.0802361,0.0244368,-0.00296034,-0.382556,-0.379596,0.0347152,-0.0232726,-0.0579878,0.00370878,-0.0199314,-0.0236402,0.0184397,-0.369887,-0.388327,
-0.111181,-0.111139,4.21922e-05,0.331667,0.331208,-0.00045874,0.0736279,0.0736957,6.78181e-05,-2.33139,-2.3314,-6.14938e-06,-0.0199164,-0.0203426,-0.000426193,1.15629,1.15599,-0.000304212,0.0035964,0.00393247,0.00033607,0.638673,0.638037,-0.000635823,0.0223309,0.0222652,-6.57711e-05,0.0136516,0.0136108,-4.07524e-05,0.00366507,-0.015861,-0.019526,0.0168065,-0.0317269,-0.0485334,0.00291427,0.0537045,0.0507902,0.123382,0.182954,0.0595721,-0.00473319,0.140708,0.145441,-0.104994,-0.0803453,0.0246491,-0.00294109,-0.382859,-0.379918,0.034333,-0.0240485,-0.0583815,0.00369565,-0.0199394,-0.023635,0.0170037,-0.364414,-0.381418,
-0.111108,-0.111066,4.28842e-05,0.332011,0.331543,-0.000467772,0.0736849,0.0737537,6.87142e-05,-2.32893,-2.32893,1.49934e-06,-0.0200094,-0.0204377,-0.000428335,1.15418,1.15389,-0.000298316,0.00353893,0.00387464,0.000335711,0.639373,0.638742,-0.000630849,0.0224037,0.0223383,-6.53849e-05,0.0136688,0.0136856,1.67801e-05,0.00363479,-0.0158921,-0.0195269,0.0172737,-0.0312483,-0.048522,0.00287273,0.0536648,0.050792,0.122971,0.182475,0.059504,-0.00461888,0.141053,0.145672,-0.105303,-0.0804567,0.0248459,-0.00292486,-0.383196,-0.380271,0.0338356,-0.0244179,-0.0582536,0.00368728,-0.019949,-0.0236363,0.0176314,-0.365753,-0.383384,
-0.111036,-0.110993,4.33602e-05,0.332364,0.331888,-0.000475902,0.0737412,0.0738106,6.93996e-05,-2.32647,-2.32646,8.77775e-06,-0.0201002,-0.0205304,-0.00043017,1.15207,1.15178,-0.000292955,0.00348173,0.00381721,0.000335483,0.640062,0.63944,-0.000621531,0.0224765,0.0224111,-6.54244e-05,0.0137105,0.013704,-6.47454e-06,0.00360178,-0.0163109,-0.0199127,0.0177629,-0.0311432,-0.0489061,0.00282818,0.0541535,0.0513254,0.122556,0.180738,0.0581816,-0.00450994,0.145623,0.150133,-0.105605,-0.0697609,0.0358437,-0.00290798,-0.396476,-0.393568,0.0335635,-0.0250143,-0.0585778,0.00367704,-0.0196792,-0.0233563,0.01462,-0.397677,-0.412297,
-0.110965,-0.110921,4.39272e-05,0.332727,0.332243,-0.000484548,0.0737966,0.0738668,7.01821e-05,-2.32403,-2.32401,1.62344e-05,-0.0201891,-0.020621,-0.000431927,1.14995,1.14967,-0.000287663,0.00342485,0.00376004,0.000335195,0.640745,0.640129,-0.000615958,0.0225491,0.0224839,-6.5234e-05,0.0137065,0.0137398,3.32677e-05,0.00357166,-0.017037,-0.0206086,0.0182403,-0.0312265,-0.0494667,0.00278647,0.0550728,0.0522864,0.122145,0.178892,0.0567465,-0.00440909,0.151091,0.1555,-0.105889,-0.0589495,0.0469397,-0.00289217,-0.411706,-0.408814,0.0332287,-0.0264605,-0.0596892,0.00366702,-0.01934,-0.0230071,0.0127592,-0.413036,-0.425795,
-0.110894,-0.110849,4.42741e-05,0.333099,0.332607,-0.000492263,0.0738513,0.0739221,7.07512e-05,-2.32159,-2.32157,2.32947e-05,-0.0202763,-0.0207097,-0.000433407,1.14783,1.14755,-0.0002829,0.00336817,0.00370319,0.000335026,0.641417,0.640811,-0.000605628,0.0226219,0.0225564,-6.54358e-05,0.0137438,0.013732,-1.1784e-05,0.00353651,-0.0175822,-0.0211187,0.0187477,-0.0313162,-0.0500638,0.00273938,0.055736,0.0529967,0.121729,0.177108,0.0553792,-0.00431576,0.155841,0.160156,-0.106174,-0.0481985,0.0579757,-0.0028755,-0.426065,-0.423189,0.0331893,-0.0278844,-0.0610737,0.00365243,-0.0191128,-0.0227652,0.00610479,-0.426625,-0.43273,
-0.110823,-0.110778,4.46253e-05,0.333479,0.332979,-0.000500076,0.0739054,0.0739767,7.13318e-05,-2.31916,-2.31913,3.03939e-05,-0.020362,-0.0207967,-0.000434758,1.1457,1.14542,-0.000278349,0.0033117,0.00364655,0.000334848,0.64208,0.641483,-0.000596676,0.0226948,0.0226292,-6.55929e-05,0.0137923,0.013756,-3.62713e-05,0.00349852,-0.0170109,-0.0205094,0.0192716,-0.0293601,-0.0486317,0.00268791,0.0549684,0.0522805,0.121314,0.179841,0.0585271,-0.00426282,0.147682,0.151945,-0.106457,-0.0764425,0.0300148,-0.00286369,-0.392922,-0.390059,0.0333323,-0.0253945,-0.0587268,0.00363035,-0.0192427,-0.022873,-0.00335587,-0.404391,-0.401035,
-0.110753,-0.110708,4.48753e-05,0.333867,0.333361,-0.00050673,0.0739592,0.0740307,7.15096e-05,-2.31674,-2.3167,3.73799e-05,-0.020445,-0.0208823,-0.000437276,1.14357,1.14329,-0.000275312,0.00325489,0.0035901,0.000335206,0.642727,0.642147,-0.000580637,0.0227681,0.022702,-6.60543e-05,0.013972,0.0137856,-0.00018642,0.00350133,-0.0167039,-0.0202052,0.0196567,-0.0273666,-0.0470233,0.00265562,0.0545824,0.0519268,0.120974,0.182471,0.0614975,-0.00431558,0.140623,0.144939,-0.106742,-0.104124,0.00261892,-0.00283613,-0.360986,-0.35815,0.0325963,-0.0228758,-0.0554722,0.00365953,-0.0192099,-0.0228694,0.00199193,-0.385145,-0.387137,
-0.110683,-0.110638,4.54949e-05,0.334265,0.33375,-0.000515704,0.0740121,0.0740844,7.23598e-05,-2.31432,-2.31428,4.47435e-05,-0.0205273,-0.0209655,-0.000438196,1.14143,1.14116,-0.000271058,0.00319832,0.00353335,0.000335031,0.643375,0.642792,-0.000582012,0.022841,0.0227754,-6.56391e-05,0.0140228,0.013976,-4.67909e-05,0.0034915,-0.0133194,-0.0168109,0.0199901,-0.025418,-0.0454082,0.00265632,0.0496597,0.0470034,0.120585,0.18249,0.0619053,-0.0041126,0.131943,0.136055,-0.10684,-0.101577,0.00526327,-0.00285234,-0.349599,-0.346747,0.0315164,-0.0126352,-0.0441516,0.00368229,-0.0198961,-0.0235784,0.0140756,-0.596135,-0.61021,
-0.110614,-0.110568,4.57639e-05,0.334672,0.334148,-0.000523873,0.0740641,0.0741373,7.32005e-05,-2.31191,-2.31186,5.14955e-05,-0.0206095,-0.0210473,-0.000437836,1.13929,1.13902,-0.000266439,0.00314241,0.00347674,0.000334338,0.644016,0.643438,-0.000578521,0.0229139,0.0228484,-6.5446e-05,0.0140387,0.0140509,1.21745e-05,0.00344937,-0.0134209,-0.0168703,0.0205271,-0.0256093,-0.0461364,0.00259732,0.0497451,0.0471477,0.120168,0.180956,0.0607875,-0.0040953,0.134858,0.138953,-0.107067,-0.0917693,0.0152975,-0.00283728,-0.361254,-0.358416,0.0319072,-0.0144846,-0.0463919,0.00363432,-0.0198809,-0.0235152,0.00130602,-0.595623,-0.596929,
-0.110545,-0.110499,4.60798e-05,0.335087,0.334556,-0.00053136,0.0741155,0.0741892,7.37514e-05,-2.30952,-2.30946,5.83151e-05,-0.0206907,-0.0211294,-0.000438725,1.13715,1.13688,-0.000263473,0.0030866,0.00342086,0.000334265,0.644651,0.64408,-0.00057108,0.0229863,0.0229211,-6.52216e-05,0.0140408,0.0140413,5.68929e-07,0.00340804,-0.0132197,-0.0166277,0.0210512,-0.0236665,-0.0447177,0.00253536,0.049502,0.0469667,0.119755,0.183253,0.0634987,-0.0041196,0.12872,0.13284,-0.107195,-0.116023,-0.00882849,-0.00285904,-0.332424,-0.329565,0.0323401,-0.0120082,-0.0443482,0.00358956,-0.0199068,-0.0234964,-0.0129042,-0.580672,-0.567768,
-0.110476,-0.11043,4.65994e-05,0.335509,0.334972,-0.000536446,0.0741665,0.0742405,7.39425e-05,-2.30712,-2.30706,6.4537e-05,-0.0207699,-0.0212107,-0.000440856,1.13501,1.13474,-0.000268108,0.00302937,0.00336501,0.000335636,0.645269,0.644716,-0.000553545,0.023058,0.0229935,-6.45207e-05,0.0141333,0.014015,-0.000118327,0.00343214,-0.0133327,-0.0167648,0.0211544,-0.0239061,-0.0450605,0.00255555,0.0494749,0.0469194,0.119522,0.181403,0.0618813,-0.00401229,0.132073,0.136085,-0.107206,-0.103991,0.00321548,-0.0028378,-0.347046,-0.344208,0.030148,-0.0126857,-0.0428337,0.0036021,-0.0200173,-0.0236194,0.0139803,-0.606529,-0.620509,
-0.110408,-0.110361,4.66372e-05,0.335938,0.335394,-0.000544748,0.0742168,0.0742915,7.47837e-05,-2.30474,-2.30467,7.10195e-05,-0.0208498,-0.0212897,-0.000439954,1.13285,1.1326,-0.000257328,0.00297365,0.00330782,0.000334179,0.645884,0.645329,-0.000554293,0.0231301,0.0230652,-6.48514e-05,0.0141909,0.0141613,-2.96702e-05,0.00338517,-0.0131124,-0.0164976,0.0217934,-0.0223213,-0.0441147,0.00248999,0.0493722,0.0468822,0.119038,0.183869,0.0648304,-0.00399712,0.126055,0.130053,-0.107606,-0.128078,-0.0204717,-0.00281724,-0.318257,-0.31544,0.0312673,-0.0124992,-0.0437664,0.00358656,-0.0200216,-0.0236082,-0.00662764,-0.556388,-0.549761,
-0.11034,-0.110293,4.69525e-05,0.336377,0.335825,-0.000551804,0.0742668,0.0743417,7.48195e-05,-2.30236,-2.30228,7.82225e-05,-0.020927,-0.0213695,-0.000442523,1.1307,1.13044,-0.000257451,0.0029173,0.00325214,0.000334842,0.646489,0.645946,-0.000542303,0.0232021,0.0231373,-6.48159e-05,0.0143487,0.0141777,-0.000171048,0.00341133,-0.0131627,-0.0165741,0.0220371,-0.0202027,-0.0422398,0.00250516,0.0495267,0.0470216,0.118737,0.185995,0.0672581,-0.00393579,0.12045,0.124386,-0.107636,-0.151504,-0.0438676,-0.00281892,-0.292051,-0.289232,0.0296678,-0.00956112,-0.0392289,0.00362233,-0.0197443,-0.0233667,0.0151694,-0.548818,-0.563987,
-0.110272,-0.110225,4.73854e-05,0.336825,0.336264,-0.000561272,0.0743157,0.0743918,7.60852e-05,-2.29999,-2.29991,8.52072e-05,-0.0210062,-0.0214467,-0.000440489,1.12854,1.12829,-0.000253457,0.00286179,0.00319579,0.000334,0.647101,0.646548,-0.000553266,0.0232736,0.0232093,-6.42842e-05,0.0142605,0.0143791,0.000118542,0.00336443,-0.0131586,-0.016523,0.0225275,-0.020453,-0.0429805,0.00244067,0.0495149,0.0470743,0.118332,0.184728,0.0663964,-0.00395724,0.122682,0.126639,-0.107509,-0.14364,-0.0361308,-0.00283024,-0.301702,-0.298872,0.0301307,-0.0116966,-0.0418273,0.00354086,-0.0197188,-0.0232597,0.000293639,-0.538955,-0.539248,
-0.110205,-0.110157,4.75377e-05,0.337277,0.336713,-0.000564346,0.0743646,0.0744405,7.59128e-05,-2.29763,-2.29754,9.01801e-05,-0.0210833,-0.0215259,-0.000442635,1.12639,1.12614,-0.000258234,0.00280513,0.00314026,0.000335132,0.647687,0.647161,-0.000525226,0.0233442,0.0232807,-6.34855e-05,0.014448,0.0142611,-0.000186847,0.00337667,-0.0134244,-0.0168011,0.0227429,-0.0184908,-0.0412337,0.00244327,0.0500105,0.0475672,0.118076,0.186738,0.068662,-0.00390584,0.117751,0.121657,-0.10777,-0.165095,-0.0573246,-0.00281642,-0.27901,-0.276193,0.0288422,-0.009604,-0.0384462,0.00354865,-0.019288,-0.0228367,0.0143507,-0.528187,-0.542537,
-0.110138,-0.11009,4.77415e-05,0.337739,0.337165,-0.000574006,0.0744125,0.0744894,7.69118e-05,-2.29527,-2.29517,9.74316e-05,-0.0211616,-0.0216029,-0.000441331,1.12423,1.12398,-0.000248074,0.0027498,0.00308362,0.000333826,0.648281,0.647744,-0.000537058,0.0234153,0.0233513,-6.3986e-05,0.0144162,0.0144767,6.04619e-05,0.00333251,-0.0135812,-0.0169137,0.0233649,-0.0167993,-0.0401642,0.00237827,0.0504762,0.0480979,0.117587,0.188857,0.0712697,-0.00391158,0.112821,0.116733,-0.107931,-0.186858,-0.0789275,-0.00281308,-0.255774,-0.252961,0.0299878,-0.00898087,-0.0389687,0.00353156,-0.0189155,-0.022447,-0.00649328,-0.491867,-0.485373,
-0.110071,-0.110023,4.81312e-05,0.338208,0.337629,-0.000579028,0.0744601,0.0745372,7.70599e-05,-2.29292,-2.29282,0.000103415,-0.0212383,-0.0216812,-0.000442924,1.12208,1.12182,-0.000255218,0.00269334,0.0030283,0.000334961,0.648861,0.648341,-0.000519832,0.023485,0.0234223,-6.27095e-05,0.0145124,0.0144032,-0.000109209,0.00333993,-0.0138889,-0.0172288,0.0235194,-0.0147582,-0.0382776,0.00237512,0.0510341,0.048659,0.117362,0.190538,0.0731768,-0.0039129,0.108596,0.112509,-0.107734,-0.205924,-0.0981896,-0.0028286,-0.235076,-0.232247,0.0284235,-0.00645401,-0.0348775,0.00347732,-0.0184629,-0.0219402,0.0104662,-0.487141,-0.497608,
-0.110004,-0.109956,4.79949e-05,0.338683,0.338098,-0.000584962,0.0745074,0.0745848,7.73681e-05,-2.29058,-2.29047,0.000108902,-0.0213152,-0.0217579,-0.000442711,1.11991,1.11967,-0.000248935,0.00263755,0.00297181,0.000334263,0.649429,0.648918,-0.000510649,0.0235551,0.023492,-6.31134e-05,0.0147024,0.0145333,-0.000169039,0.00332962,-0.0137372,-0.0170668,0.0240584,-0.0152719,-0.0393303,0.00232877,0.0507205,0.0483917,0.116965,0.189204,0.0722387,-0.00400266,0.110883,0.114885,-0.108361,-0.19664,-0.0882792,-0.00277705,-0.245141,-0.242364,0.029161,-0.00858884,-0.0377498,0.00353022,-0.0187174,-0.0222476,-0.00389777,-0.483266,-0.479369,
-0.109937,-0.109889,4.83129e-05,0.339168,0.338574,-0.000594045,0.074554,0.074632,7.79634e-05,-2.28825,-2.28813,0.000116529,-0.0213923,-0.021835,-0.000442678,1.11775,1.1175,-0.000246643,0.00258186,0.00291612,0.000334259,0.650005,0.649487,-0.000518323,0.0236255,0.0235622,-6.33018e-05,0.0146938,0.0146946,8.09976e-07,0.00330815,-0.0140593,-0.0173674,0.0244577,-0.0132478,-0.0377055,0.00230581,0.0513735,0.0490677,0.116573,0.190935,0.074362,-0.00396178,0.106714,0.110676,-0.108126,-0.215891,-0.107765,-0.00280918,-0.224297,-0.221488,0.0290903,-0.00638529,-0.0354756,0.00348668,-0.0181896,-0.0216762,-0.00795589,-0.47192,-0.463964,
-0.109871,-0.109823,4.86492e-05,0.339659,0.33906,-0.000599125,0.0746002,0.0746785,7.83709e-05,-2.28592,-2.28579,0.000121974,-0.021469,-0.021912,-0.00044302,1.11559,1.11534,-0.000251179,0.0025257,0.00286038,0.000334671,0.65057,0.650064,-0.000506374,0.0236942,0.0236324,-6.18008e-05,0.0147437,0.0146779,-6.5837e-05,0.00331016,-0.0144297,-0.0177398,0.024648,-0.0113428,-0.0359908,0.00230066,0.0521107,0.0498101,0.116328,0.192569,0.0762409,-0.00390729,0.103082,0.106989,-0.10795,-0.232834,-0.124885,-0.00281028,-0.204523,-0.201713,0.027739,-0.00506543,-0.0328044,0.00342173,-0.017781,-0.0212027,0.00768189,-0.451544,-0.459226,
-0.109805,-0.109756,4.86552e-05,0.340155,0.339551,-0.000604452,0.0746459,0.0747247,7.88147e-05,-2.28359,-2.28347,0.0001272,-0.0215463,-0.0219886,-0.000442294,1.11343,1.11318,-0.000249195,0.00246971,0.00280421,0.0003345,0.651124,0.650625,-0.000498172,0.0237627,0.0237011,-6.15731e-05,0.0148526,0.0147591,-9.35467e-05,0.00329041,-0.0142989,-0.0175893,0.0250946,-0.011621,-0.0367156,0.00224679,0.0518484,0.0496016,0.11597,0.191616,0.0756461,-0.00403289,0.10451,0.108543,-0.108294,-0.227159,-0.118865,-0.00280087,-0.210965,-0.208165,0.0284434,-0.00669568,-0.0351391,0.00342264,-0.017971,-0.0213936,-0.00970836,-0.445851,-0.436142,
-0.109739,-0.10969,4.90516e-05,0.34066,0.340048,-0.000611386,0.074691,0.0747703,7.92538e-05,-2.28128,-2.28115,0.000133737,-0.0216232,-0.0220662,-0.000443001,1.11127,1.11102,-0.000249676,0.00241368,0.00274824,0.000334564,0.651678,0.65118,-0.000497846,0.0238305,0.0237695,-6.09515e-05,0.0148656,0.0148332,-3.24101e-05,0.00329003,-0.0147013,-0.0179914,0.0253503,-0.00967789,-0.0350282,0.00225198,0.0526061,0.0503541,0.11567,0.193124,0.077454,-0.00391358,0.101151,0.105064,-0.108025,-0.243268,-0.135243,-0.00279986,-0.192144,-0.189344,0.0273303,-0.0047962,-0.0321265,0.00337776,-0.0175256,-0.0209034,0.00573676,-0.436411,-0.442148,
-0.109673,-0.109625,4.89363e-05,0.34117,0.340553,-0.000617022,0.0747359,0.0748155,7.95663e-05,-2.27897,-2.27883,0.000139012,-0.0217005,-0.0221428,-0.000442317,1.10911,1.10886,-0.000248823,0.00235789,0.00269221,0.000334316,0.652222,0.651733,-0.000489287,0.0238981,0.0238372,-6.086e-05,0.0149772,0.0148771,-0.000100071,0.00330565,-0.0145692,-0.0178749,0.0258297,-0.00987886,-0.0357085,0.00216766,0.0523524,0.0501847,0.115353,0.192181,0.0768278,-0.00421692,0.102481,0.106698,-0.10861,-0.238008,-0.129398,-0.00268879,-0.198188,-0.195499,0.0282345,-0.00618918,-0.0344236,0.00339273,-0.0176978,-0.0210906,-0.0147264,-0.430548,-0.415822,
-0.109608,-0.109559,4.93532e-05,0.341689,0.341065,-0.000624481,0.0747802,0.0748601,7.99932e-05,-2.27667,-2.27652,0.000145764,-0.021778,-0.0222207,-0.000442677,1.10694,1.10669,-0.000249156,0.00230213,0.00263664,0.00033451,0.652772,0.652279,-0.000493291,0.0239653,0.0239049,-6.0415e-05,0.0149237,0.0149477,2.39635e-05,0.00327708,-0.0144707,-0.0177478,0.0260764,-0.00987594,-0.0359524,0.00220903,0.0520783,0.0498693,0.115011,0.191173,0.0761621,-0.00393904,0.103619,0.107558,-0.108036,-0.233375,-0.12534,-0.00278469,-0.204242,-0.201457,0.0270437,-0.00574596,-0.0327897,0.0033376,-0.0178154,-0.021153,0.00321935,-0.455561,-0.45878,
-0.109542,-0.109493,4.91728e-05,0.342214,0.341584,-0.000629592,0.0748243,0.0749045,8.01689e-05,-2.27437,-2.27422,0.000150725,-0.0218554,-0.0222977,-0.000442337,1.10478,1.10453,-0.000250315,0.00224643,0.00258069,0.000334262,0.653307,0.652826,-0.000480924,0.0240319,0.0239719,-5.99362e-05,0.0150406,0.0149302,-0.000110395,0.00328216,-0.0144637,-0.0177459,0.0263767,-0.00962602,-0.0360028,0.00220068,0.0520854,0.0498847,0.114715,0.19081,0.0760943,-0.00394672,0.103963,0.107909,-0.108006,-0.232827,-0.124821,-0.00278359,-0.204515,-0.201731,0.0265781,-0.0068385,-0.0334166,0.00333206,-0.01788,-0.0212121,0.0069461,-0.440205,-0.447152,
-0.109477,-0.109428,4.92001e-05,0.342746,0.342109,-0.000636482,0.074868,0.0749486,8.06732e-05,-2.27208,-2.27192,0.00015673,-0.021934,-0.022375,-0.00044106,1.10262,1.10237,-0.000247792,0.00219099,0.00252499,0.000334002,0.653845,0.65336,-0.000484582,0.0240987,0.0240385,-6.01759e-05,0.0150307,0.0150545,2.3736e-05,0.00326418,-0.0144524,-0.0177166,0.0268321,-0.00933139,-0.0361635,0.00216411,0.0520758,0.0499117,0.114327,0.190442,0.0761156,-0.00399642,0.104174,0.10817,-0.108147,-0.232581,-0.124434,-0.00277334,-0.204825,-0.202052,0.0272778,-0.00726083,-0.0345387,0.00334074,-0.0178831,-0.0212238,-0.00818761,-0.437103,-0.428915,
-0.109412,-0.109362,4.93639e-05,0.343285,0.342642,-0.000642813,0.0749113,0.0749922,8.09208e-05,-2.2698,-2.26963,0.000162614,-0.0220123,-0.0224538,-0.000441438,1.10046,1.10021,-0.000251004,0.00213564,0.00246957,0.000333934,0.654379,0.653899,-0.000479786,0.0241646,0.0241054,-5.92344e-05,0.0150162,0.0150144,-1.79715e-06,0.00327275,-0.0144642,-0.0177369,0.0270971,-0.008891,-0.0359881,0.00215998,0.0520437,0.0498837,0.11407,0.18999,0.0759195,-0.00399772,0.104372,0.108369,-0.107936,-0.232402,-0.124466,-0.0027661,-0.205091,-0.202325,0.026391,-0.00664908,-0.0330401,0.00327408,-0.0178778,-0.0211519,0.00292104,-0.450252,-0.453173,
-0.109348,-0.109297,5.10087e-05,0.34383,0.343182,-0.000647464,0.0749518,0.0750355,8.37368e-05,-2.26752,-2.26735,0.000167571,-0.0220943,-0.0225321,-0.000437863,1.0983,1.09805,-0.000253111,0.00208162,0.00241423,0.000332611,0.654906,0.654432,-0.000473749,0.0242399,0.0241712,-6.87478e-05,0.0151376,0.015022,-0.000115585,0.0031169,-0.0144508,-0.0175677,0.0273594,-0.00863218,-0.0359916,0.00195797,0.0520391,0.0500811,0.113793,0.18966,0.075867,-0.00414792,0.104592,0.10874,-0.107787,-0.23201,-0.124223,-0.00270044,-0.205368,-0.202667,0.0263078,-0.00745155,-0.0337594,0.00411828,-0.0179383,-0.0220566,0.0078174,-0.44067,-0.448487,
-0.109286,-0.109233,5.25861e-05,0.344382,0.343727,-0.00065437,0.0749905,0.0750756,8.51586e-05,-2.26525,-2.26507,0.000173294,-0.0221759,-0.0226144,-0.000438499,1.09614,1.09589,-0.000251974,0.00202758,0.00236035,0.000332767,0.655442,0.654958,-0.000484133,0.0243263,0.0242482,-7.81122e-05,0.0150997,0.0151532,5.35625e-05,0.00308327,-0.0146047,-0.0176879,0.0277796,-0.00837006,-0.0361497,0.00192468,0.0518761,0.0499514,0.113445,0.189313,0.0758686,-0.00411252,0.104755,0.108868,-0.107772,-0.231592,-0.12382,-0.00270065,-0.205665,-0.202964,0.0268966,-0.00753427,-0.0344309,0.00437877,-0.0171771,-0.0215558,-0.00325943,-0.436478,-0.433219,
-0.109224,-0.109172,5.25593e-05,0.34494,0.34428,-0.000659642,0.0750291,0.0751142,8.51232e-05,-2.26298,-2.2628,0.000178265,-0.0222568,-0.0226959,-0.000439095,1.09399,1.09373,-0.00025728,0.00197342,0.00230631,0.000332887,0.655971,0.655496,-0.000475212,0.0244132,0.024335,-7.81749e-05,0.0151455,0.0150931,-5.23327e-05,0.00309941,-0.0146265,-0.0177259,0.0280271,-0.00796404,-0.0359911,0.00193158,0.0518438,0.0499122,0.113205,0.1889,0.0756956,-0.00412556,0.104999,0.109125,-0.107588,-0.231252,-0.123664,-0.0027132,-0.205904,-0.203191,0.0261885,-0.00703327,-0.0332218,0.00432312,-0.0169515,-0.0212746,0.00492561,-0.446167,-0.451093,
-0.109162,-0.10911,5.22303e-05,0.345504,0.344839,-0.000665112,0.0750678,0.0751529,8.51501e-05,-2.26072,-2.26054,0.000183367,-0.0223388,-0.0227768,-0.000438,1.09184,1.09158,-0.000256369,0.00191908,0.00225213,0.000333046,0.656496,0.656024,-0.000472561,0.0244996,0.0244219,-7.77831e-05,0.0151752,0.0151553,-1.99114e-05,0.00311046,-0.0146052,-0.0177157,0.0284572,-0.0077218,-0.036179,0.00191421,0.051849,0.0499348,0.112845,0.188581,0.0757358,-0.00425442,0.105209,0.109463,-0.107998,-0.230829,-0.12283,-0.00273034,-0.206179,-0.203449,0.0270559,-0.00768145,-0.0347374,0.00438613,-0.017004,-0.0213901,-0.0141725,-0.43921,-0.425038,
-0.1091,-0.109048,5.21452e-05,0.346075,0.345403,-0.000671712,0.0751063,0.0751915,8.52286e-05,-2.25847,-2.25828,0.000189549,-0.0224214,-0.0228591,-0.000437729,1.08969,1.08943,-0.000259217,0.00186475,0.00219775,0.000333005,0.657024,0.65655,-0.00047367,0.0245853,0.0245084,-7.6908e-05,0.0150958,0.0151469,5.10998e-05,0.00312118,-0.0145927,-0.0177139,0.0286911,-0.00730518,-0.0359962,0.00192241,0.0518389,0.0499165,0.112592,0.188133,0.0755407,-0.00421383,0.105369,0.109582,-0.107444,-0.23076,-0.123316,-0.00271855,-0.206444,-0.203725,0.0259905,-0.00691395,-0.0329045,0.00422218,-0.0169481,-0.0211703,0.00104885,-0.455793,-0.456842,
-0.109037,-0.108985,5.19191e-05,0.346651,0.345975,-0.000676181,0.0751448,0.07523,8.52557e-05,-2.25622,-2.25603,0.000193996,-0.0225046,-0.0229416,-0.000437012,1.08754,1.08728,-0.000261995,0.00181028,0.00214344,0.000333159,0.657539,0.657076,-0.000462497,0.024669,0.0245938,-7.52351e-05,0.0151614,0.0150979,-6.35476e-05,0.003132,-0.0145748,-0.0177068,0.0289534,-0.00707585,-0.0360293,0.00191994,0.0518428,0.0499228,0.112324,0.187826,0.0755011,-0.00424501,0.105598,0.109843,-0.107339,-0.230103,-0.122764,-0.00272614,-0.206672,-0.203946,0.0255631,-0.00789671,-0.0334598,0.00416223,-0.0171039,-0.0212661,0.0042253,-0.442742,-0.446967,
-0.108974,-0.108923,5.17413e-05,0.347233,0.346552,-0.000681233,0.0751832,0.0752685,8.53201e-05,-2.25398,-2.25378,0.000199073,-0.0225885,-0.0230249,-0.000436396,1.08539,1.08513,-0.000263516,0.00175567,0.00208896,0.000333282,0.658047,0.65759,-0.000457549,0.024752,0.0246773,-7.46292e-05,0.0152496,0.0151699,-7.9686e-05,0.00314163,-0.0145594,-0.017701,0.0292436,-0.00681968,-0.0360633,0.00191582,0.0518407,0.0499249,0.112037,0.187482,0.0754447,-0.00427984,0.1058,0.11008,-0.107262,-0.229747,-0.122485,-0.00273214,-0.206986,-0.204254,0.0253476,-0.00829057,-0.0336382,0.00413848,-0.0171593,-0.0212978,0.00428305,-0.440129,-0.444412,
-0.108911,-0.10886,5.15501e-05,0.347822,0.347135,-0.000687196,0.0752215,0.075307,8.55108e-05,-2.25174,-2.25154,0.000204517,-0.0226738,-0.0231089,-0.000435047,1.08325,1.08298,-0.000262225,0.00170097,0.00203434,0.000333367,0.658557,0.658098,-0.000459373,0.0248351,0.0247602,-7.48601e-05,0.015241,0.0152581,1.70914e-05,0.00314811,-0.0145442,-0.0176923,0.0296874,-0.00653657,-0.036224,0.00189375,0.0518366,0.0499429,0.111665,0.187122,0.0754571,-0.00441883,0.10599,0.110409,-0.107697,-0.229393,-0.121696,-0.0027494,-0.207257,-0.204507,0.0263661,-0.00849745,-0.0348635,0.00425207,-0.0171821,-0.0214342,-0.0166408,-0.440231,-0.423591,
-0.108848,-0.108797,5.1486e-05,0.348418,0.347724,-0.000693836,0.0752595,0.0753452,8.56471e-05,-2.24951,-2.2493,0.000210556,-0.0227602,-0.0231945,-0.00043425,1.0811,1.08084,-0.000266607,0.00164637,0.0019796,0.000333235,0.659072,0.65861,-0.000461972,0.0249182,0.0248436,-7.45669e-05,0.0151104,0.0152078,9.73976e-05,0.00315725,-0.0145354,-0.0176927,0.0299165,-0.00610777,-0.0360243,0.00189823,0.0518223,0.049924,0.111435,0.186664,0.0752285,-0.00440863,0.106142,0.11055,-0.107006,-0.229323,-0.122318,-0.00273055,-0.207506,-0.204776,0.0253512,-0.00759393,-0.0329451,0.0040929,-0.017081,-0.0211739,-0.00153096,-0.458348,-0.456817,
-0.108785,-0.108734,5.12795e-05,0.349019,0.348321,-0.000697979,0.0752975,0.0753832,8.56946e-05,-2.24729,-2.24707,0.00021461,-0.0228475,-0.0232808,-0.000433358,1.07897,1.07869,-0.000270724,0.00159168,0.00192503,0.000333353,0.659574,0.659123,-0.00045114,0.0249993,0.0249264,-7.29399e-05,0.0151265,0.0151073,-1.9162e-05,0.00316756,-0.0145189,-0.0176865,0.0301572,-0.00588647,-0.0360437,0.00189531,0.0518235,0.0499282,0.111188,0.186379,0.0751914,-0.00444714,0.106345,0.110792,-0.106838,-0.228529,-0.121691,-0.00273635,-0.207717,-0.20498,0.0249334,-0.0085332,-0.0334666,0.00403439,-0.0172325,-0.0212668,0.00183655,-0.445331,-0.447167,
-0.108722,-0.108671,5.10978e-05,0.349624,0.348922,-0.000702626,0.0753355,0.0754213,8.5754e-05,-2.24506,-2.24485,0.00021934,-0.0229355,-0.0233681,-0.000432629,1.07683,1.07656,-0.000273289,0.00153691,0.00187034,0.00033343,0.66007,0.659624,-0.000446231,0.0250797,0.0250074,-7.23262e-05,0.0151697,0.0151301,-3.95339e-05,0.0031778,-0.0145035,-0.0176813,0.0304249,-0.00565125,-0.0360761,0.00189184,0.0518209,0.0499291,0.11092,0.186055,0.0751351,-0.00448836,0.106535,0.111023,-0.106703,-0.228088,-0.121385,-0.00274,-0.207972,-0.205232,0.0247172,-0.00891994,-0.0336372,0.00400928,-0.0172869,-0.0212962,0.00214201,-0.442498,-0.44464,
-0.108658,-0.108607,5.09103e-05,0.350236,0.349528,-0.000707591,0.0753734,0.0754592,8.58178e-05,-2.24285,-2.24263,0.000224243,-0.0230244,-0.0234563,-0.000431845,1.0747,1.07442,-0.000275679,0.00148207,0.00181556,0.000333484,0.660563,0.660119,-0.000443106,0.0251597,0.0250877,-7.19794e-05,0.0152086,0.015174,-3.46415e-05,0.00318839,-0.0144876,-0.017676,0.0307044,-0.00539092,-0.0360954,0.00188825,0.0518174,0.0499292,0.110646,0.185713,0.0750667,-0.00453268,0.10672,0.111253,-0.106571,-0.227674,-0.121104,-0.00274272,-0.20823,-0.205488,0.0245596,-0.0091272,-0.0336868,0.00399168,-0.0173113,-0.021303,0.00166475,-0.442343,-0.444008,
-0.108594,-0.108544,5.07161e-05,0.350853,0.35014,-0.000712655,0.0754112,0.0754971,8.58808e-05,-2.24064,-2.24041,0.000229177,-0.0231143,-0.0235453,-0.000431003,1.07257,1.07229,-0.000278147,0.00142719,0.00176072,0.000333528,0.661052,0.660612,-0.00044048,0.0252393,0.0251677,-7.16709e-05,0.0152358,0.0152119,-2.38522e-05,0.00319936,-0.0144712,-0.0176706,0.0309865,-0.00512002,-0.0361065,0.00188477,0.0518137,0.049929,0.110373,0.185366,0.0749936,-0.00458003,0.106903,0.111483,-0.106432,-0.227259,-0.120828,-0.00274501,-0.208487,-0.205742,0.0244178,-0.00928258,-0.0337003,0.00397419,-0.0173291,-0.0213033,0.00103006,-0.442864,-0.443894,
-0.10853,-0.10848,5.05151e-05,0.351475,0.350757,-0.000717706,0.075449,0.0755349,8.59376e-05,-2.23844,-2.2382,0.000234082,-0.0232051,-0.0236353,-0.000430136,1.07044,1.07016,-0.000280775,0.00137226,0.00170583,0.000333569,0.661539,0.661101,-0.000437992,0.0253186,0.0252473,-7.13433e-05,0.0152504,0.0152378,-1.2555e-05,0.00321075,-0.0144544,-0.0176652,0.0312663,-0.00484728,-0.0361135,0.00188188,0.0518101,0.0499282,0.110102,0.18502,0.074918,-0.00462673,0.107084,0.11171,-0.106282,-0.226835,-0.120552,-0.00274715,-0.208739,-0.205992,0.0242814,-0.00942408,-0.0337054,0.00395548,-0.0173471,-0.0213026,0.000421638,-0.443511,-0.443933,
-0.108466,-0.108416,5.03044e-05,0.352103,0.35138,-0.000722694,0.0754867,0.0755726,8.59814e-05,-2.23624,-2.236,0.000238922,-0.0232969,-0.0237262,-0.000429296,1.06832,1.06803,-0.000283629,0.00131731,0.00165089,0.000333589,0.662023,0.661588,-0.000435551,0.0253975,0.0253265,-7.09909e-05,0.0152535,0.0152512,-2.2919e-06,0.00322273,-0.0144371,-0.0176598,0.0315421,-0.00457703,-0.0361192,0.00187982,0.0518068,0.049927,0.109835,0.184675,0.0748406,-0.00467065,0.107264,0.111935,-0.106119,-0.226398,-0.12028,-0.00274748,-0.208986,-0.206238,0.0241452,-0.00956095,-0.0337062,0.0039353,-0.0173664,-0.0213017,-0.000122048,-0.444126,-0.444004,
-0.108401,-0.108351,5.00825e-05,0.352737,0.352009,-0.000727597,0.0755243,0.0756103,8.60112e-05,-2.23405,-2.2338,0.00024368,-0.0233895,-0.023818,-0.000428485,1.0662,1.06591,-0.000286727,0.00126235,0.00159594,0.000333592,0.662504,0.662071,-0.000433093,0.025476,0.0254054,-7.06135e-05,0.0152465,0.0152533,6.76948e-06,0.00323534,-0.0144183,-0.0176536,0.0318129,-0.00431092,-0.0361238,0.00187845,0.0518033,0.0499248,0.109573,0.184336,0.0747631,-0.00471432,0.107444,0.112159,-0.105943,-0.225948,-0.120005,-0.00274738,-0.209229,-0.206481,0.0240084,-0.00969772,-0.0337062,0.00391386,-0.0173871,-0.021301,-0.000598242,-0.444674,-0.444076,
-0.108337,-0.108287,4.985e-05,0.353376,0.352643,-0.000732407,0.075562,0.075648,8.60285e-05,-2.23186,-2.23161,0.000248362,-0.0234831,-0.0239108,-0.000427682,1.06408,1.06379,-0.000290024,0.0012074,0.00154098,0.000333587,0.662983,0.662552,-0.000430636,0.0255541,0.0254838,-7.02186e-05,0.0152307,0.0152453,1.46224e-05,0.00324849,-0.0143985,-0.017647,0.0320784,-0.00404998,-0.0361284,0.00187768,0.0517999,0.0499222,0.109314,0.184,0.0746859,-0.00475832,0.107624,0.112382,-0.105757,-0.225484,-0.119727,-0.00274698,-0.209468,-0.206721,0.023872,-0.00983491,-0.0337069,0.00389159,-0.017409,-0.0213006,-0.0010115,-0.445152,-0.44414,
-0.108271,-0.108222,4.96093e-05,0.35402,0.353283,-0.000737124,0.0755996,0.0756857,8.60363e-05,-2.22967,-2.22942,0.000252978,-0.0235775,-0.0240044,-0.00042688,1.06197,1.06168,-0.000293477,0.00115246,0.00148603,0.000333575,0.663459,0.663031,-0.000428195,0.0256317,0.0255618,-6.98164e-05,0.0152072,0.0152287,2.14336e-05,0.00326206,-0.0143782,-0.0176402,0.032339,-0.00379428,-0.0361333,0.0018774,0.051797,0.0499196,0.109059,0.183668,0.0746088,-0.00480238,0.107804,0.112607,-0.105563,-0.225009,-0.119447,-0.00274626,-0.209705,-0.206958,0.0237367,-0.00997169,-0.0337084,0.00386905,-0.0174317,-0.0213008,-0.00136957,-0.445567,-0.444198,
-0.108206,-0.108157,4.93612e-05,0.354669,0.353927,-0.000741757,0.0756373,0.0757233,8.60357e-05,-2.2275,-2.22724,0.00025753,-0.0236728,-0.0240989,-0.000426074,1.05986,1.05956,-0.000297087,0.00109753,0.00143109,0.000333559,0.663932,0.663507,-0.000425772,0.0257088,0.0256394,-6.9407e-05,0.0151772,0.0152045,2.7306e-05,0.00327603,-0.0143574,-0.0176335,0.0325949,-0.00354354,-0.0361385,0.00187757,0.0517946,0.049917,0.108808,0.18334,0.0745315,-0.00484661,0.107984,0.112831,-0.10536,-0.224525,-0.119165,-0.00274528,-0.209939,-0.207193,0.0236023,-0.0101074,-0.0337097,0.00384604,-0.0174547,-0.0213008,-0.00167746,-0.445928,-0.44425,
-0.10814,-0.108091,4.91065e-05,0.355323,0.354577,-0.000746309,0.0756749,0.0757609,8.60275e-05,-2.22532,-2.22506,0.000262022,-0.0237691,-0.0241943,-0.000425268,1.05776,1.05746,-0.000300841,0.00104263,0.00137617,0.000333538,0.664403,0.663979,-0.000423367,0.0257855,0.0257165,-6.89886e-05,0.0151415,0.0151738,3.23401e-05,0.00329035,-0.0143363,-0.0176266,0.0328464,-0.00329746,-0.0361439,0.00187815,0.0517925,0.0499143,0.10856,0.183014,0.0744542,-0.00489088,0.108165,0.113055,-0.105149,-0.224031,-0.118882,-0.00274404,-0.21017,-0.207426,0.023469,-0.010242,-0.033711,0.00382255,-0.0174782,-0.0213008,-0.00194082,-0.446238,-0.444297,
-0.108075,-0.108026,4.88458e-05,0.355983,0.355232,-0.000750784,0.0757126,0.0757986,8.60123e-05,-2.22316,-2.22289,0.000266458,-0.0238662,-0.0242906,-0.000424462,1.05566,1.05535,-0.000304729,0.000987762,0.00132128,0.000333513,0.664871,0.66445,-0.000420978,0.0258617,0.0257931,-6.85615e-05,0.015101,0.0151376,3.66434e-05,0.00330499,-0.0143147,-0.0176197,0.0330937,-0.00305584,-0.0361496,0.00187911,0.0517907,0.0499116,0.108315,0.182692,0.0743768,-0.00493508,0.108345,0.11328,-0.104931,-0.223528,-0.118597,-0.00274263,-0.2104,-0.207658,0.0233363,-0.0103758,-0.0337122,0.00379854,-0.0175022,-0.0213007,-0.00216648,-0.446504,-0.444338,
-0.108008,-0.10796,4.85797e-05,0.356647,0.355892,-0.000755184,0.0757502,0.0758362,8.59906e-05,-2.22099,-2.22072,0.000270839,-0.0239642,-0.0243878,-0.000423658,1.05356,1.05325,-0.000308734,0.000932921,0.00126641,0.000333485,0.665336,0.664917,-0.000418603,0.0259374,0.0258693,-6.81262e-05,0.0150563,0.0150966,4.03217e-05,0.00331992,-0.0142928,-0.0176127,0.0333369,-0.00281852,-0.0361555,0.00188042,0.0517891,0.0499087,0.108073,0.182372,0.0742995,-0.00497914,0.108525,0.113504,-0.104707,-0.223018,-0.118311,-0.00274099,-0.210628,-0.207887,0.0232047,-0.0105088,-0.0337135,0.0037742,-0.0175266,-0.0213008,-0.00235764,-0.446732,-0.444375,
-0.107942,-0.107893,4.83092e-05,0.357316,0.356556,-0.000759513,0.075788,0.0758739,8.59634e-05,-2.21883,-2.21856,0.000275171,-0.0240631,-0.0244859,-0.000422859,1.05147,1.05116,-0.000312844,0.000878115,0.00121157,0.000333453,0.665799,0.665382,-0.00041625,0.0260127,0.025945,-6.76873e-05,0.0150082,0.0150516,4.34019e-05,0.00333507,-0.0142703,-0.0176054,0.0335763,-0.00258536,-0.0361616,0.00188201,0.0517875,0.0499055,0.107833,0.182056,0.0742223,-0.00502294,0.108704,0.113727,-0.104477,-0.222502,-0.118024,-0.00273912,-0.210852,-0.208113,0.0230743,-0.0106407,-0.033715,0.00374969,-0.0175512,-0.0213009,-0.00251717,-0.446926,-0.444409,
-0.107875,-0.107827,4.80351e-05,0.35799,0.357226,-0.00076377,0.0758257,0.0759116,8.59311e-05,-2.21668,-2.2164,0.000279459,-0.0241629,-0.0245849,-0.000422061,1.04938,1.04907,-0.000317024,0.000823335,0.00115677,0.000333431,0.666259,0.665845,-0.00041394,0.0260874,0.0260202,-6.72506e-05,0.0149573,0.0150032,4.58724e-05,0.00335042,-0.0142476,-0.017598,0.0338114,-0.00235613,-0.0361676,0.00188391,0.0517859,0.049902,0.107596,0.181742,0.0741454,-0.00506678,0.108883,0.11395,-0.104245,-0.221979,-0.117734,-0.00273826,-0.211075,-0.208336,0.0229479,-0.0107713,-0.0337192,0.00372564,-0.017576,-0.0213017,-0.00263725,-0.447088,-0.444451,
-0.107808,-0.10776,4.77564e-05,0.358668,0.3579,-0.000767962,0.0758635,0.0759494,8.58933e-05,-2.21453,-2.21425,0.000283703,-0.0242635,-0.0246848,-0.000421273,1.0473,1.04698,-0.000321301,0.000768594,0.00110199,0.000333394,0.666716,0.666305,-0.000411679,0.0261617,0.0260949,-6.68173e-05,0.0149042,0.014952,4.77861e-05,0.00336603,-0.0142244,-0.0175905,0.0340436,-0.00213099,-0.0361745,0.00188608,0.0517845,0.0498984,0.107362,0.18143,0.0740678,-0.00510967,0.109062,0.114172,-0.104005,-0.221452,-0.117448,-0.00273562,-0.211294,-0.208558,0.0228212,-0.0108982,-0.0337194,0.00370121,-0.0176005,-0.0213017,-0.00274168,-0.447213,-0.444471,
-0.10774,-0.107693,4.74747e-05,0.359351,0.358579,-0.000772097,0.0759014,0.0759872,8.58519e-05,-2.21239,-2.2121,0.000287896,-0.024365,-0.0247855,-0.000420497,1.04522,1.0449,-0.000325689,0.000713907,0.00104725,0.000333345,0.667171,0.666762,-0.000409389,0.0262355,0.0261691,-6.63742e-05,0.0148492,0.0148987,4.95437e-05,0.00338177,-0.0142009,-0.0175827,0.0342722,-0.0019091,-0.0361813,0.00188843,0.0517831,0.0498947,0.10713,0.18112,0.0739904,-0.00515216,0.109241,0.114393,-0.10376,-0.220919,-0.117158,-0.00273285,-0.211511,-0.208778,0.0226939,-0.0110254,-0.0337192,0.00367642,-0.0176252,-0.0213016,-0.00283364,-0.447322,-0.444488,
-0.107673,-0.107625,4.7191e-05,0.360039,0.359262,-0.000776169,0.0759392,0.076025,8.58076e-05,-2.21025,-2.20996,0.00029205,-0.0244674,-0.0248871,-0.000419729,1.04315,1.04282,-0.000330141,0.000659278,0.000992571,0.000333293,0.667624,0.667217,-0.000407107,0.0263087,0.0262428,-6.59291e-05,0.0147925,0.0148435,5.09993e-05,0.00339761,-0.0141772,-0.0175748,0.0344974,-0.0016908,-0.0361882,0.00189093,0.0517816,0.0498907,0.1069,0.180814,0.0739133,-0.00519416,0.109419,0.114613,-0.103512,-0.220381,-0.116869,-0.00272992,-0.211727,-0.208997,0.0225674,-0.011153,-0.0337204,0.00365163,-0.0176502,-0.0213019,-0.00290725,-0.447417,-0.44451,
-0.107604,-0.107558,4.69059e-05,0.360731,0.35995,-0.000780182,0.0759772,0.0760629,8.57608e-05,-2.20811,-2.20782,0.000296165,-0.0245706,-0.0249896,-0.00041897,1.04109,1.04075,-0.00033465,0.000604709,0.000937947,0.000333238,0.668074,0.667669,-0.000404851,0.0263815,0.026316,-6.54869e-05,0.0147346,0.0147867,5.21123e-05,0.00341352,-0.0141532,-0.0175667,0.0347195,-0.00147598,-0.0361954,0.00189358,0.0517801,0.0498865,0.106673,0.180509,0.0738362,-0.00523563,0.109597,0.114833,-0.103261,-0.21984,-0.116578,-0.00272684,-0.211942,-0.209215,0.0224426,-0.0112795,-0.0337221,0.00362707,-0.0176752,-0.0213023,-0.00296181,-0.447494,-0.444533,
-0.107536,-0.107489,4.66197e-05,0.361427,0.360643,-0.000784139,0.0760152,0.0761009,8.57121e-05,-2.20598,-2.20568,0.000300244,-0.0246747,-0.0250929,-0.00041822,1.03902,1.03868,-0.000339212,0.000550206,0.000883385,0.000333179,0.668521,0.668119,-0.000402627,0.0264538,0.0263888,-6.50523e-05,0.0146758,0.0147287,5.28924e-05,0.00342947,-0.014129,-0.0175584,0.0349383,-0.00126448,-0.0362028,0.0018963,0.0517784,0.0498821,0.106447,0.180206,0.073759,-0.00527659,0.109775,0.115052,-0.103007,-0.219295,-0.116288,-0.00272355,-0.212156,-0.209432,0.0223197,-0.0114044,-0.0337241,0.00360307,-0.0177,-0.0213031,-0.00299835,-0.447553,-0.444554,
-0.107467,-0.107421,4.6333e-05,0.362128,0.36134,-0.00078804,0.0760532,0.0761389,8.56616e-05,-2.20386,-2.20355,0.000304288,-0.0247795,-0.025197,-0.000417482,1.03697,1.03662,-0.000343822,0.00049577,0.000828888,0.000333118,0.668966,0.668566,-0.000400438,0.0265257,0.026461,-6.46264e-05,0.0146164,0.0146698,5.33775e-05,0.00344545,-0.0141046,-0.01755,0.0351542,-0.0010562,-0.0362104,0.00189913,0.0517766,0.0498775,0.106223,0.179905,0.0736819,-0.00531689,0.109953,0.11527,-0.102751,-0.218748,-0.115997,-0.0027201,-0.212369,-0.209649,0.0221987,-0.0115273,-0.033726,0.00357953,-0.0177243,-0.0213038,-0.00301949,-0.447593,-0.444574,
-0.107398,-0.107352,4.60455e-05,0.362833,0.362041,-0.000791887,0.0760913,0.0761769,8.56092e-05,-2.20174,-2.20143,0.000308299,-0.0248852,-0.025302,-0.000416755,1.03491,1.03457,-0.000348476,0.000441404,0.000774459,0.000333054,0.669409,0.669011,-0.000398283,0.026597,0.0265328,-6.42076e-05,0.0145568,0.0146104,5.36196e-05,0.00346147,-0.0140799,-0.0175414,0.035367,-0.000851061,-0.036218,0.00190205,0.0517746,0.0498726,0.106001,0.179606,0.0736049,-0.00535658,0.110131,0.115487,-0.102492,-0.218199,-0.115706,-0.00271656,-0.212581,-0.209864,0.0220796,-0.0116483,-0.033728,0.00355636,-0.017748,-0.0213044,-0.00302864,-0.447619,-0.44459,
-0.107329,-0.107283,4.57594e-05,0.363542,0.362746,-0.000795668,0.0761295,0.0762151,8.55574e-05,-2.19962,-2.19931,0.000312277,-0.0249917,-0.0254077,-0.000416039,1.03287,1.03252,-0.000353148,0.000387109,0.000720101,0.000332992,0.66985,0.669453,-0.000396176,0.0266679,0.0266041,-6.37983e-05,0.014497,0.0145507,5.37327e-05,0.00347727,-0.0140554,-0.0175327,0.0355755,-0.000648404,-0.0362239,0.00190481,0.051773,0.0498682,0.105781,0.179309,0.0735281,-0.00539554,0.110308,0.115704,-0.102234,-0.217646,-0.115412,-0.00271315,-0.212789,-0.210075,0.0219642,-0.0117679,-0.0337321,0.00353398,-0.0177715,-0.0213055,-0.00303587,-0.447629,-0.444593,
-0.107259,-0.107214,4.54794e-05,0.364255,0.363456,-0.000799374,0.0761677,0.0762532,8.55091e-05,-2.19751,-2.19719,0.000316226,-0.0250989,-0.0255143,-0.000415351,1.03083,1.03047,-0.000357797,0.000332886,0.000665811,0.000332926,0.670288,0.669893,-0.000394142,0.0267384,0.026675,-6.3412e-05,0.014437,0.0144909,5.38879e-05,0.00349276,-0.0140306,-0.0175233,0.0357803,-0.000450869,-0.0362312,0.00190743,0.0517703,0.0498629,0.105563,0.179014,0.073451,-0.00543278,0.110485,0.115918,-0.101976,-0.217095,-0.115119,-0.0027094,-0.212999,-0.21029,0.0218524,-0.0118831,-0.0337355,0.00351295,-0.017794,-0.0213069,-0.00304349,-0.447642,-0.444599,
-0.107189,-0.107144,4.52029e-05,0.364973,0.36417,-0.000803024,0.076206,0.0762915,8.54622e-05,-2.1954,-2.19508,0.000320141,-0.0252069,-0.0256216,-0.000414686,1.02879,1.02843,-0.000362482,0.000278741,0.000611596,0.000332856,0.670723,0.670331,-0.000392154,0.0268085,0.0267454,-6.30415e-05,0.014377,0.0144309,5.39736e-05,0.00350812,-0.0140059,-0.017514,0.0359823,-0.000256914,-0.0362392,0.00191002,0.0517672,0.0498572,0.105346,0.17872,0.0733738,-0.00546887,0.110663,0.116132,-0.101715,-0.216543,-0.114828,-0.00270542,-0.213209,-0.210504,0.0217424,-0.011995,-0.0337375,0.00349247,-0.0178152,-0.0213077,-0.00304596,-0.447654,-0.444608,
-0.107119,-0.107074,4.49277e-05,0.365694,0.364888,-0.000806623,0.0762443,0.0763297,8.54148e-05,-2.1933,-2.19297,0.000324022,-0.0253156,-0.0257296,-0.000414042,1.02676,1.02639,-0.000367211,0.000224678,0.000557459,0.000332781,0.671157,0.670767,-0.000390188,0.0268781,0.0268155,-6.26747e-05,0.0143169,0.0143709,5.39857e-05,0.00352342,-0.0139815,-0.0175049,0.0361814,-6.58624e-05,-0.0362473,0.00191265,0.0517644,0.0498518,0.105131,0.178428,0.0732964,-0.00550376,0.110843,0.116346,-0.101452,-0.215986,-0.114534,-0.00270119,-0.213423,-0.210721,0.0216334,-0.012106,-0.0337395,0.00347207,-0.0178363,-0.0213084,-0.00304472,-0.447668,-0.444624,
-0.107048,-0.107004,4.46536e-05,0.36642,0.365609,-0.000810173,0.0762827,0.0763681,8.5367e-05,-2.1912,-2.19087,0.000327872,-0.025425,-0.0258384,-0.000413419,1.02473,1.02436,-0.000371974,0.000170703,0.000503405,0.000332702,0.671589,0.6712,-0.000388241,0.0269474,0.0268851,-6.23099e-05,0.0142569,0.0143108,5.38986e-05,0.00353865,-0.0139566,-0.0174953,0.0363778,0.000122198,-0.0362556,0.0019153,0.0517609,0.0498456,0.104918,0.178138,0.0732193,-0.00553748,0.11102,0.116558,-0.101187,-0.215429,-0.114242,-0.00269672,-0.21363,-0.210933,0.0215256,-0.0122151,-0.0337407,0.00345183,-0.017857,-0.0213088,-0.00303703,-0.447671,-0.444634,
-0.106977,-0.106933,4.43807e-05,0.367149,0.366335,-0.000813675,0.0763211,0.0764064,8.53187e-05,-2.1891,-2.18877,0.000331691,-0.025535,-0.0259478,-0.000412817,1.02271,1.02234,-0.000376767,0.000116821,0.000449439,0.000332618,0.672018,0.671632,-0.000386314,0.0270163,0.0269543,-6.19476e-05,0.0141971,0.0142508,5.37082e-05,0.00355383,-0.0139317,-0.0174855,0.0365716,0.000307444,-0.0362642,0.00191798,0.051757,0.0498391,0.104707,0.177849,0.0731422,-0.00557001,0.111198,0.116768,-0.100921,-0.214871,-0.11395,-0.00269201,-0.213836,-0.211144,0.021419,-0.0123229,-0.0337419,0.0034317,-0.0178775,-0.0213092,-0.00302424,-0.447667,-0.444643,
-0.106906,-0.106862,4.41088e-05,0.367882,0.367065,-0.00081713,0.0763596,0.0764449,8.527e-05,-2.18701,-2.18667,0.00033548,-0.0256457,-0.0260579,-0.000412237,1.0207,1.02032,-0.000381589,6.30352e-05,0.000395566,0.000332531,0.672445,0.672061,-0.000384407,0.0270847,0.0270231,-6.1587e-05,0.0141376,0.0141911,5.34376e-05,0.00356895,-0.0139066,-0.0174755,0.0367628,0.000489971,-0.0362728,0.00192068,0.051753,0.0498323,0.104497,0.177562,0.0730651,-0.00560139,0.111376,0.116977,-0.100653,-0.214312,-0.113659,-0.00268708,-0.214041,-0.211354,0.0213133,-0.0124296,-0.033743,0.00341166,-0.0178978,-0.0213095,-0.00300732,-0.447659,-0.444651,
-0.106835,-0.106791,4.38379e-05,0.368619,0.367798,-0.000820539,0.0763982,0.0764834,8.52208e-05,-2.18492,-2.18458,0.00033924,-0.025757,-0.0261687,-0.000411677,1.01869,1.0183,-0.000386438,9.3509e-06,0.00034179,0.000332439,0.67287,0.672488,-0.000382519,0.0271528,0.0270915,-6.12281e-05,0.0140785,0.0141316,5.30988e-05,0.00358401,-0.0138814,-0.0174654,0.0369515,0.000669835,-0.0362817,0.00192341,0.0517487,0.0498253,0.104289,0.177277,0.0729881,-0.00563163,0.111554,0.117185,-0.100384,-0.213751,-0.113367,-0.00268195,-0.214244,-0.211562,0.0212088,-0.0125353,-0.033744,0.00339173,-0.0179181,-0.0213098,-0.0029868,-0.447646,-0.444659,
-0.106763,-0.106719,4.35681e-05,0.369359,0.368536,-0.000823904,0.0764368,0.0765219,8.51712e-05,-2.18284,-2.1825,0.000342973,-0.025869,-0.0262801,-0.000411138,1.01669,1.01629,-0.000391311,-4.42283e-05,0.000288116,0.000332345,0.673293,0.672913,-0.00038065,0.0272204,0.0271595,-6.0871e-05,0.0140198,0.0140725,5.26997e-05,0.003599,-0.0138562,-0.0174552,0.0371378,0.000847083,-0.0362907,0.00192616,0.0517442,0.0498181,0.104082,0.176994,0.0729111,-0.00566074,0.111731,0.117392,-0.100113,-0.213189,-0.113076,-0.00267662,-0.214447,-0.21177,0.0211053,-0.0126398,-0.0337451,0.0033719,-0.0179382,-0.0213101,-0.0029631,-0.44763,-0.444667,
-0.106691,-0.106648,4.32994e-05,0.370104,0.369277,-0.000827225,0.0764754,0.0765605,8.51213e-05,-2.18076,-2.18041,0.000346677,-0.0259815,-0.0263921,-0.000410618,1.01469,1.01429,-0.000396205,-9.76989e-05,0.000234548,0.000332247,0.673714,0.673336,-0.000378802,0.0272877,0.0272272,-6.05161e-05,0.0139617,0.0140139,5.22476e-05,0.00361394,-0.0138308,-0.0174447,0.0373215,0.00102176,-0.0362998,0.00192893,0.0517395,0.0498106,0.103877,0.176712,0.0728341,-0.00568877,0.111909,0.117598,-0.0998409,-0.212625,-0.112785,-0.00267116,-0.214649,-0.211977,0.0210029,-0.0127432,-0.0337462,0.00335219,-0.0179582,-0.0213104,-0.00293677,-0.44761,-0.444673,
-0.106618,-0.106575,4.30319e-05,0.370852,0.370021,-0.000830503,0.0765141,0.0765992,8.50711e-05,-2.17869,-2.17834,0.000350354,-0.0260945,-0.0265046,-0.000410119,1.01269,1.01229,-0.00040112,-0.000151058,0.000181088,0.000332146,0.674133,0.673756,-0.000376973,0.0273545,0.0272944,-6.01633e-05,0.013904,0.0139558,5.17564e-05,0.00362882,-0.0138053,-0.0174341,0.0375029,0.00119391,-0.036309,0.00193171,0.0517345,0.0498028,0.103674,0.176431,0.0727572,-0.00571569,0.112087,0.117802,-0.0995679,-0.212061,-0.112493,-0.00266548,-0.214849,-0.212184,0.0209017,-0.0128455,-0.0337472,0.0033326,-0.0179781,-0.0213107,-0.00290836,-0.447588,-0.44468,
-0.106546,-0.106503,4.27653e-05,0.371603,0.37077,-0.000833737,0.0765529,0.0766379,8.50205e-05,-2.17661,-2.17626,0.000354004,-0.0262081,-0.0266177,-0.000409639,1.01071,1.0103,-0.000406055,-0.000204301,0.00012774,0.000332042,0.67455,0.674175,-0.000375164,0.027421,0.0273612,-5.98125e-05,0.013847,0.0138982,5.1229e-05,0.00364363,-0.0137797,-0.0174234,0.037682,0.00136355,-0.0363184,0.00193452,0.0517293,0.0497948,0.103472,0.176152,0.0726802,-0.00574154,0.112264,0.118006,-0.0992938,-0.211496,-0.112202,-0.00265964,-0.215049,-0.212389,0.0208015,-0.0129466,-0.0337482,0.00331313,-0.0179978,-0.021311,-0.00287799,-0.447564,-0.444686,
-0.106473,-0.10643,4.25e-05,0.372359,0.371522,-0.00083693,0.0765917,0.0766767,8.49697e-05,-2.17455,-2.17419,0.000357628,-0.0263222,-0.0267314,-0.000409177,1.00872,1.00831,-0.000411007,-0.000257426,7.45089e-05,0.000331934,0.674965,0.674592,-0.000373376,0.0274871,0.0274276,-5.94643e-05,0.0137906,0.0138412,5.06651e-05,0.00365838,-0.0137541,-0.0174124,0.0378587,0.00153075,-0.0363279,0.00193733,0.0517239,0.0497866,0.103271,0.175875,0.0726034,-0.00576635,0.112442,0.118208,-0.0990188,-0.21093,-0.111912,-0.00265365,-0.215247,-0.212594,0.0207026,-0.0130466,-0.0337492,0.00329382,-0.0180174,-0.0213113,-0.00284563,-0.447538,-0.444692,
-0.1064,-0.106357,4.22358e-05,0.373117,0.372277,-0.000840081,0.0766306,0.0767155,8.49186e-05,-2.17249,-2.17212,0.000361227,-0.0264368,-0.0268455,-0.000408735,1.00675,1.00633,-0.000415972,-0.00031043,2.13964e-05,0.000331826,0.675378,0.675007,-0.000371612,0.0275528,0.0274937,-5.91193e-05,0.0137348,0.0137849,5.00605e-05,0.00367307,-0.0137283,-0.0174014,0.0380331,0.00169551,-0.0363376,0.00194017,0.0517182,0.0497781,0.103072,0.175599,0.0725266,-0.00579015,0.112619,0.118409,-0.0987431,-0.210364,-0.111621,-0.00264766,-0.215445,-0.212797,0.0206051,-0.0131454,-0.0337505,0.0032747,-0.0180369,-0.0213116,-0.00281047,-0.44751,-0.444699,
-0.106326,-0.106284,4.19725e-05,0.373879,0.373036,-0.000843191,0.0766695,0.0767544,8.48671e-05,-2.17043,-2.17006,0.0003648,-0.0265519,-0.0269602,-0.000408311,1.00478,1.00436,-0.000420953,-0.000363311,-3.15961e-05,0.000331715,0.675789,0.67542,-0.000369873,0.0276181,0.0275594,-5.87776e-05,0.0136798,0.0137292,4.94144e-05,0.0036877,-0.0137024,-0.0173901,0.0382052,0.00185786,-0.0363474,0.00194302,0.0517123,0.0497693,0.102874,0.175324,0.0724498,-0.00581292,0.112796,0.118609,-0.0984664,-0.209797,-0.111331,-0.0026414,-0.215642,-0.213,0.0205088,-0.0132427,-0.0337515,0.00325573,-0.0180561,-0.0213118,-0.00277436,-0.447479,-0.444704,
-0.106252,-0.10621,4.17104e-05,0.374645,0.373798,-0.000846261,0.0767085,0.0767933,8.48156e-05,-2.16837,-2.168,0.000368348,-0.0266674,-0.0270753,-0.000407904,1.00281,1.00239,-0.000425951,-0.000416066,-8.44649e-05,0.000331601,0.676199,0.67583,-0.000368152,0.0276831,0.0276246,-5.84384e-05,0.0136255,0.0136742,4.8767e-05,0.00370227,-0.0136765,-0.0173788,0.0383751,0.00201787,-0.0363573,0.00194588,0.0517062,0.0497603,0.102678,0.175051,0.072373,-0.00583471,0.112973,0.118808,-0.0981888,-0.20923,-0.111041,-0.00263501,-0.215838,-0.213203,0.0204136,-0.0133388,-0.0337524,0.00323692,-0.0180752,-0.0213121,-0.00273799,-0.447447,-0.444709,
-0.106178,-0.106136,4.14496e-05,0.375414,0.374564,-0.000849291,0.0767475,0.0768323,8.4764e-05,-2.16632,-2.16595,0.000371871,-0.0267833,-0.0271908,-0.000407516,1.00085,1.00042,-0.000430961,-0.000468691,-0.000137206,0.000331484,0.676606,0.676239,-0.000366453,0.0277477,0.0276896,-5.81023e-05,0.0135719,0.01362,4.8109e-05,0.00371676,-0.0136505,-0.0173672,0.0385428,0.00217554,-0.0363673,0.00194873,0.0516998,0.0497511,0.102483,0.174779,0.0722963,-0.00585554,0.11315,0.119006,-0.0979106,-0.208662,-0.110751,-0.00262851,-0.216033,-0.213404,0.0203196,-0.0134337,-0.0337534,0.00321829,-0.0180941,-0.0213124,-0.00270093,-0.447415,-0.444714,
-0.106103,-0.106062,4.119e-05,0.376186,0.375334,-0.000852282,0.0767866,0.0768714,8.47124e-05,-2.16428,-2.1639,0.00037537,-0.0268997,-0.0273068,-0.000407144,0.998896,0.998461,-0.000435984,-0.000521184,-0.000189819,0.000331366,0.677011,0.676647,-0.000364776,0.0278119,0.0277541,-5.77696e-05,0.013519,0.0135665,4.74382e-05,0.00373119,-0.0136243,-0.0173555,0.0387083,0.00233089,-0.0363774,0.0019516,0.0516932,0.0497416,0.102289,0.174509,0.0722197,-0.00587545,0.113327,0.119203,-0.0976317,-0.208093,-0.110462,-0.00262191,-0.216227,-0.213605,0.0202269,-0.0135275,-0.0337544,0.00319985,-0.0181128,-0.0213126,-0.0026632,-0.447382,-0.444719,
-0.106029,-0.105988,4.09318e-05,0.376961,0.376106,-0.00085523,0.0768258,0.0769105,8.46605e-05,-2.16223,-2.16185,0.000378846,-0.0270164,-0.0274232,-0.000406787,0.996948,0.996507,-0.000440999,-0.000573555,-0.000242299,0.000331256,0.677415,0.677052,-0.000363134,0.0278757,0.0278183,-5.74431e-05,0.013467,0.0135137,4.66956e-05,0.00374553,-0.0135981,-0.0173437,0.0388712,0.00248395,-0.0363873,0.0019545,0.0516864,0.0497319,0.102096,0.17424,0.0721435,-0.00589468,0.113504,0.119398,-0.0973553,-0.207525,-0.110169,-0.00261656,-0.21642,-0.213804,0.0201378,-0.0136199,-0.0337577,0.00318209,-0.0181312,-0.0213133,-0.00261394,-0.447348,-0.444734,
-0.105954,-0.105913,4.06739e-05,0.37774,0.376882,-0.000858142,0.076865,0.0769496,8.46081e-05,-2.16019,-2.15981,0.0003823,-0.0271336,-0.02754,-0.00040645,0.995004,0.994558,-0.00044604,-0.000625788,-0.000294659,0.000331129,0.677817,0.677455,-0.000361531,0.0279392,0.0278821,-5.71227e-05,0.0134159,0.0134618,4.58907e-05,0.00375988,-0.0135697,-0.0173296,0.0390326,0.00264244,-0.0363902,0.0019574,0.0516773,0.0497199,0.101905,0.173973,0.0720682,-0.00591254,0.113662,0.119575,-0.0970736,-0.206874,-0.1098,-0.002609,-0.216221,-0.213612,0.0200478,-0.0137316,-0.0337794,0.00316408,-0.018155,-0.0213191,-0.0025757,-0.447409,-0.444833,
-0.105878,-0.105838,4.04173e-05,0.378522,0.377661,-0.000861016,0.0769043,0.0769889,8.45557e-05,-2.15816,-2.15777,0.000385728,-0.0272511,-0.0276572,-0.000406128,0.993067,0.992616,-0.000451089,-0.000677884,-0.000346877,0.000331007,0.678217,0.677857,-0.000359933,0.0280023,0.0279455,-5.68025e-05,0.0133656,0.0134107,4.51776e-05,0.00377414,-0.0135433,-0.0173175,0.0391917,0.00279118,-0.0364005,0.00196024,0.0516701,0.0497098,0.101715,0.173707,0.0719919,-0.00592954,0.113838,0.119768,-0.0967933,-0.206304,-0.10951,-0.00260113,-0.216413,-0.213812,0.0199594,-0.0138214,-0.0337808,0.00314632,-0.018173,-0.0213193,-0.00253531,-0.447375,-0.44484,
-0.105803,-0.105763,4.01634e-05,0.379307,0.378443,-0.000863855,0.0769436,0.0770281,8.45051e-05,-2.15613,-2.15574,0.000389133,-0.0273689,-0.0277747,-0.000405828,0.991135,0.990679,-0.00045615,-0.000729825,-0.000398957,0.000330868,0.678615,0.678257,-0.000358359,0.0280651,0.0280086,-5.64909e-05,0.0133161,0.0133605,4.4405e-05,0.00378826,-0.0135169,-0.0173051,0.0393489,0.00293756,-0.0364113,0.00196322,0.0516625,0.0496993,0.101527,0.173442,0.0719154,-0.0059451,0.114015,0.11996,-0.0965113,-0.205734,-0.109223,-0.00259425,-0.216604,-0.214009,0.0198723,-0.0139096,-0.0337819,0.00312975,-0.0181908,-0.0213205,-0.0024911,-0.447339,-0.444848,
-0.105727,-0.105687,3.99042e-05,0.380095,0.379229,-0.000866653,0.076983,0.0770675,8.44434e-05,-2.1541,-2.15371,0.000392508,-0.027487,-0.0278926,-0.000405562,0.989208,0.988747,-0.000461263,-0.000781628,-0.000450884,0.000330744,0.679012,0.678655,-0.000356804,0.0281276,0.0280714,-5.62352e-05,0.0132675,0.0133111,4.35677e-05,0.00380304,-0.0134904,-0.0172934,0.0395036,0.00308186,-0.0364217,0.00196709,0.0516548,0.0496877,0.10134,0.173179,0.0718383,-0.00595848,0.114191,0.12015,-0.0962259,-0.205164,-0.108939,-0.00258739,-0.216794,-0.214207,0.0197865,-0.0139965,-0.033783,0.00311834,-0.0182075,-0.0213258,-0.002439,-0.447301,-0.444862,
-0.105651,-0.105611,3.96327e-05,0.380886,0.380017,-0.000869407,0.0770225,0.0771069,8.43678e-05,-2.15207,-2.15168,0.000395849,-0.0276054,-0.0280107,-0.00040532,0.987288,0.986821,-0.000466417,-0.000833293,-0.000502673,0.00033062,0.679406,0.679051,-0.000355273,0.0281899,0.0281338,-5.60588e-05,0.01322,0.0132627,4.26254e-05,0.00381837,-0.0134626,-0.017281,0.0396558,0.00322362,-0.0364322,0.00197155,0.0516471,0.0496756,0.101155,0.172917,0.0717617,-0.00597096,0.114367,0.120338,-0.0959392,-0.204593,-0.108654,-0.0025805,-0.216982,-0.214401,0.0197019,-0.0140821,-0.0337841,0.00310999,-0.0182195,-0.0213295,-0.00238476,-0.447255,-0.44487,
-0.105574,-0.105535,3.9352e-05,0.381681,0.380809,-0.000872119,0.0770621,0.0771464,8.42781e-05,-2.15005,-2.14966,0.000399162,-0.027724,-0.0281292,-0.000405135,0.985373,0.984901,-0.000471592,-0.00088482,-0.000554325,0.000330495,0.6798,0.679446,-0.000353767,0.0282521,0.0281961,-5.59398e-05,0.0131736,0.0132153,4.16467e-05,0.00383422,-0.0134338,-0.017268,0.0398058,0.00336281,-0.036443,0.00197704,0.0516396,0.0496625,0.100972,0.172658,0.0716855,-0.00597746,0.114543,0.12052,-0.0956519,-0.20402,-0.108369,-0.0025735,-0.217167,-0.214594,0.0196188,-0.0141664,-0.0337852,0.00310526,-0.0182276,-0.0213329,-0.0023298,-0.447205,-0.444875,
-0.105498,-0.105458,3.90608e-05,0.382478,0.381603,-0.000874792,0.0771018,0.077186,8.41745e-05,-2.14804,-2.14763,0.000402449,-0.0278428,-0.0282478,-0.000405008,0.983464,0.982987,-0.000476776,-0.000936205,-0.000605838,0.000330368,0.680191,0.679839,-0.000352284,0.0283142,0.0282583,-5.58777e-05,0.0131283,0.013169,4.06983e-05,0.00385066,-0.0134042,-0.0172549,0.0399537,0.00349967,-0.036454,0.00198316,0.0516325,0.0496494,0.10079,0.1724,0.0716094,-0.00598239,0.114721,0.120704,-0.095364,-0.203448,-0.108084,-0.00256641,-0.217352,-0.214786,0.0195369,-0.0142493,-0.0337862,0.00310309,-0.0182326,-0.0213357,-0.00227783,-0.447155,-0.444877,
-0.10542,-0.105382,3.87611e-05,0.383278,0.382401,-0.000877427,0.0771416,0.0772257,8.4061e-05,-2.14602,-2.14562,0.00040571,-0.0279616,-0.0283665,-0.000404904,0.98156,0.981078,-0.000481973,-0.000987452,-0.000657209,0.000330243,0.680581,0.68023,-0.000350819,0.0283762,0.0283204,-5.58476e-05,0.0130839,0.0131237,3.98368e-05,0.00386748,-0.0133754,-0.0172429,0.0400995,0.0036341,-0.0364654,0.00198966,0.0516281,0.0496385,0.10061,0.172143,0.071533,-0.00598691,0.114907,0.120894,-0.0950754,-0.202866,-0.10779,-0.00255949,-0.217619,-0.215059,0.0194559,-0.0143343,-0.0337901,0.00310199,-0.0182361,-0.0213381,-0.00223192,-0.447139,-0.444907,
-0.105343,-0.105304,3.84565e-05,0.384081,0.383201,-0.000880027,0.0771816,0.0772655,8.39422e-05,-2.14401,-2.14361,0.00040895,-0.0280806,-0.0284854,-0.000404817,0.979663,0.979176,-0.000487176,-0.00103856,-0.000708442,0.000330115,0.680969,0.68062,-0.000349377,0.0284382,0.0283824,-5.58341e-05,0.0130404,0.0130794,3.90278e-05,0.00388448,-0.0133441,-0.0172286,0.0402434,0.00376661,-0.0364768,0.00199633,0.051621,0.0496247,0.10043,0.171888,0.0714575,-0.00599103,0.115085,0.121076,-0.0947865,-0.202293,-0.107507,-0.00255238,-0.2178,-0.215247,0.0193762,-0.014415,-0.0337912,0.00310149,-0.0182372,-0.0213387,-0.00218746,-0.447097,-0.444909,
-0.105265,-0.105227,3.81503e-05,0.384887,0.384004,-0.000882593,0.0772217,0.0773055,8.38211e-05,-2.14201,-2.1416,0.000412168,-0.0281996,-0.0286044,-0.000404741,0.977771,0.977279,-0.000492387,-0.00108952,-0.000759532,0.000329987,0.681356,0.681008,-0.000347957,0.0285003,0.0284444,-5.58289e-05,0.0129977,0.013036,3.82528e-05,0.00390154,-0.0133125,-0.017214,0.0403855,0.0038971,-0.0364884,0.00200307,0.0516139,0.0496108,0.100252,0.171634,0.0713819,-0.00599473,0.115262,0.121257,-0.0944971,-0.201721,-0.107224,-0.00254526,-0.21798,-0.215435,0.0192977,-0.0144944,-0.0337921,0.00310126,-0.0182378,-0.021339,-0.00214544,-0.447056,-0.444911,
-0.105187,-0.105149,3.7844e-05,0.385696,0.384811,-0.000885126,0.0772619,0.0773456,8.36996e-05,-2.14001,-2.13959,0.000415365,-0.0283187,-0.0287234,-0.000404672,0.975885,0.975387,-0.000497607,-0.00114034,-0.00081048,0.000329858,0.681741,0.681395,-0.000346557,0.0285623,0.0285065,-5.58263e-05,0.0129559,0.0129935,3.75303e-05,0.00391857,-0.0132807,-0.0171992,0.0405256,0.00402563,-0.0365,0.00200982,0.0516066,0.0495967,0.100075,0.171381,0.0713064,-0.00599799,0.115439,0.121437,-0.0942071,-0.201149,-0.106942,-0.00253814,-0.21816,-0.215622,0.0192203,-0.0145726,-0.0337929,0.00310112,-0.0182381,-0.0213392,-0.00210664,-0.447018,-0.444912,
-0.105108,-0.105071,3.75386e-05,0.386507,0.38562,-0.000887625,0.0773023,0.0773859,8.35783e-05,-2.13801,-2.13759,0.00041854,-0.0284379,-0.0288425,-0.000404612,0.974005,0.973502,-0.000502835,-0.00119101,-0.000861285,0.00032973,0.682125,0.68178,-0.000345175,0.0286243,0.0285685,-5.58242e-05,0.0129149,0.0129517,3.68631e-05,0.00393554,-0.0132488,-0.0171843,0.0406639,0.0041522,-0.0365117,0.00201654,0.051599,0.0495825,0.0998991,0.17113,0.071231,-0.00600083,0.115615,0.121616,-0.0939168,-0.200577,-0.10666,-0.00253103,-0.218339,-0.215808,0.0191439,-0.0146498,-0.0337936,0.00310099,-0.0182383,-0.0213393,-0.00207051,-0.446984,-0.444913,
-0.10503,-0.104992,3.72346e-05,0.387322,0.386431,-0.00089009,0.0773428,0.0774262,8.34579e-05,-2.13601,-2.13559,0.000421695,-0.0285571,-0.0289617,-0.000404559,0.97213,0.971622,-0.000508068,-0.00124155,-0.000911948,0.000329601,0.682507,0.682163,-0.000343813,0.0286864,0.0286305,-5.58221e-05,0.0128745,0.0129107,3.62303e-05,0.00395243,-0.0132168,-0.0171693,0.0408003,0.00427679,-0.0365235,0.0020232,0.0515913,0.049568,0.0997244,0.17088,0.0711556,-0.00600326,0.115791,0.121794,-0.0936262,-0.200005,-0.106378,-0.00252392,-0.218518,-0.215994,0.0190686,-0.0147259,-0.0337945,0.00310086,-0.0182386,-0.0213394,-0.00203604,-0.446951,-0.444915,
-0.10495,-0.104913,3.69323e-05,0.388139,0.387246,-0.000892522,0.0773834,0.0774667,8.33385e-05,-2.13402,-2.1336,0.000424829,-0.0286764,-0.0290809,-0.000404513,0.970262,0.969749,-0.000513308,-0.00129194,-0.000962468,0.000329473,0.682887,0.682545,-0.000342471,0.0287484,0.0286926,-5.58201e-05,0.0128348,0.0128704,3.56259e-05,0.00396921,-0.0131848,-0.017154,0.0409349,0.00439945,-0.0365354,0.0020298,0.0515832,0.0495534,0.0995508,0.170631,0.0710803,-0.00600528,0.115966,0.121972,-0.0933352,-0.199433,-0.106097,-0.00251681,-0.218696,-0.216179,0.0189944,-0.0148009,-0.0337954,0.00310073,-0.0182388,-0.0213395,-0.00200299,-0.446921,-0.444918,
-0.104871,-0.104834,3.66319e-05,0.388958,0.388063,-0.00089492,0.0774242,0.0775074,8.32204e-05,-2.13203,-2.1316,0.000427942,-0.0287958,-0.0292002,-0.000404476,0.968399,0.967881,-0.000518555,-0.00134219,-0.00101285,0.000329345,0.683267,0.682925,-0.000341148,0.0288104,0.0287546,-5.58181e-05,0.0127957,0.0128308,3.50486e-05,0.00398589,-0.0131532,-0.0171391,0.0410676,0.00452022,-0.0365473,0.00203634,0.0515754,0.0495391,0.0993784,0.170383,0.0710049,-0.00600685,0.116143,0.12215,-0.0930438,-0.198859,-0.105815,-0.00250974,-0.218877,-0.216367,0.0189213,-0.0148754,-0.0337967,0.00310059,-0.0182391,-0.0213397,-0.00197168,-0.446895,-0.444923,
-0.104791,-0.104755,3.63335e-05,0.38978,0.388883,-0.000897285,0.077465,0.0775481,8.31035e-05,-2.13005,-2.12962,0.000431034,-0.0289151,-0.0293196,-0.000404446,0.966542,0.966019,-0.000523807,-0.0013923,-0.00106308,0.000329218,0.683644,0.683304,-0.000339843,0.0288724,0.0288166,-5.58158e-05,0.0127573,0.0127918,3.44966e-05,0.00400245,-0.0131211,-0.0171236,0.0411984,0.00463898,-0.0365594,0.0020428,0.0515668,0.0495241,0.0992072,0.170137,0.0709296,-0.00600802,0.116318,0.122326,-0.092752,-0.198287,-0.105535,-0.00250268,-0.219054,-0.216551,0.0188491,-0.0149483,-0.0337975,0.00310045,-0.0182394,-0.0213398,-0.00194146,-0.446867,-0.444926,
-0.104711,-0.104675,3.60371e-05,0.390605,0.389706,-0.000899616,0.0775061,0.077589,8.29881e-05,-2.12807,-2.12763,0.000434106,-0.0290345,-0.0294389,-0.000404423,0.964691,0.964162,-0.000529067,-0.00144226,-0.00111317,0.00032909,0.684021,0.683682,-0.000338557,0.0289344,0.0288786,-5.58137e-05,0.0127194,0.0127534,3.39618e-05,0.0040189,-0.0130891,-0.017108,0.0413274,0.00475579,-0.0365716,0.00204918,0.051558,0.0495088,0.0990371,0.169891,0.0708544,-0.00600878,0.116493,0.122501,-0.09246,-0.197715,-0.105255,-0.00249563,-0.21923,-0.216734,0.0187781,-0.0150202,-0.0337983,0.00310032,-0.0182396,-0.0213399,-0.00191214,-0.446841,-0.444928,
-0.10463,-0.104595,3.57428e-05,0.391433,0.390531,-0.000901915,0.0775472,0.0776301,8.2874e-05,-2.12609,-2.12565,0.000437156,-0.0291539,-0.0295583,-0.000404408,0.962846,0.962312,-0.000534331,-0.00149209,-0.00116313,0.000328964,0.684395,0.684058,-0.00033729,0.0289964,0.0289406,-5.58115e-05,0.0126822,0.0127156,3.3442e-05,0.00403523,-0.0130571,-0.0170923,0.0414545,0.00487067,-0.0365838,0.00205549,0.0515488,0.0494933,0.0988681,0.169647,0.0707793,-0.00600914,0.116667,0.122676,-0.0921676,-0.197144,-0.104976,-0.00248862,-0.219405,-0.216916,0.018708,-0.015091,-0.033799,0.00310019,-0.0182398,-0.0213399,-0.00188361,-0.446815,-0.444931,
-0.10455,-0.104514,3.54507e-05,0.392263,0.391358,-0.00090418,0.0775885,0.0776712,8.27614e-05,-2.12411,-2.12367,0.000440187,-0.0292733,-0.0296777,-0.0004044,0.961007,0.960467,-0.000539602,-0.00154178,-0.00121294,0.000328837,0.684769,0.684433,-0.000336041,0.0290585,0.0290026,-5.58095e-05,0.0126455,0.0126784,3.29351e-05,0.00405145,-0.013025,-0.0170764,0.0415798,0.00498336,-0.0365965,0.00206171,0.0515393,0.0494776,0.0987003,0.169405,0.0707042,-0.0060091,0.11684,0.122849,-0.0918749,-0.196576,-0.104701,-0.00248162,-0.219593,-0.217111,0.018639,-0.01516,-0.033799,0.00310006,-0.0182398,-0.0213398,-0.00185576,-0.446786,-0.44493,
-0.104468,-0.104433,3.51604e-05,0.393095,0.392189,-0.000906415,0.0776299,0.0777125,8.26501e-05,-2.12214,-2.1217,0.000443194,-0.0293928,-0.0297972,-0.000404402,0.959173,0.958628,-0.000544899,-0.00159131,-0.00126261,0.000328701,0.685141,0.684806,-0.000334794,0.0291205,0.0290647,-5.58051e-05,0.0126092,0.0126418,3.25116e-05,0.00406756,-0.0129918,-0.0170594,0.0417035,0.00508782,-0.0366157,0.00206786,0.0515267,0.0494588,0.0985339,0.169163,0.0706291,-0.00600845,0.117014,0.123023,-0.0915801,-0.196084,-0.104504,-0.00247402,-0.22008,-0.217606,0.0185693,-0.0152099,-0.0337792,0.0030997,-0.0182361,-0.0213358,-0.00183579,-0.446678,-0.444842,
-0.104387,-0.104352,3.48726e-05,0.39393,0.393021,-0.000908615,0.0776714,0.0777539,8.25406e-05,-2.12017,-2.11973,0.000446181,-0.0295122,-0.0299166,-0.000404408,0.957346,0.956796,-0.000550188,-0.00164071,-0.00131213,0.000328575,0.685512,0.685178,-0.000333558,0.0291825,0.0291267,-5.58002e-05,0.0125735,0.0126056,3.21152e-05,0.00408351,-0.0129597,-0.0170433,0.0418251,0.00519685,-0.0366283,0.0020739,0.0515166,0.0494427,0.0983683,0.168923,0.0705544,-0.00600771,0.117187,0.123195,-0.091287,-0.195515,-0.104228,-0.00246711,-0.220266,-0.217799,0.0185016,-0.0152785,-0.0337801,0.00309951,-0.0182363,-0.0213358,-0.00181097,-0.446657,-0.444846,
-0.104305,-0.104271,3.45871e-05,0.394767,0.393856,-0.000910785,0.077713,0.0777955,8.24329e-05,-2.11821,-2.11776,0.000449148,-0.0296315,-0.030036,-0.000404424,0.955524,0.954969,-0.000555493,-0.00168995,-0.00136151,0.000328437,0.685881,0.685549,-0.000332343,0.0292445,0.0291887,-5.57962e-05,0.0125381,0.0125698,3.16998e-05,0.00409936,-0.0129278,-0.0170271,0.0419453,0.00530405,-0.0366412,0.00207982,0.0515063,0.0494265,0.0982042,0.168683,0.0704792,-0.00600631,0.11736,0.123366,-0.0909914,-0.194945,-0.103954,-0.00245906,-0.220439,-0.21798,0.0184334,-0.0153459,-0.0337793,0.00309917,-0.0182365,-0.0213357,-0.00179297,-0.446635,-0.444842,
