DMackRus/ILQR_Mujoco_Arm_Push_Clyinder/finalTrajectory.csv
Control Number,T1,T2,T3,T4,T5,T6,T7,T1_init,T2_init,T3_init,T4_init,T5_init,T6_init,T7_init,J1,J2,J3,J4,J5,J6,J7,Cube x,Cube y,Cube w,V1,V2,V3,V4,V5,V6,V7,Cube x V,Cube y V,Cube w V,
0,19.8675,-25.2855,-10.8139,55.9313,-7.2382,-12,-6.01023,104.909,-299.265,-55.5356,2178.51,1.24727,-153.395,-1.44321,-0.120586,0.343983,0.063834,-2.50403,-0.0103939,1.2783,0.0120267,2,0.02,0,-0.00058815,0.0153568,-0.00200039,-0.00641844,-0.0170824,0.101544,0.0114413,2.77556e-19,-8.32667e-19,3.31929e-17,
1,24.1678,-27.0767,-16.8601,56.1151,-7.35701,-12,-8.5544,104.909,-299.265,-55.5356,2178.51,1.24727,-153.395,-1.44321,-0.119912,0.34381,0.0637295,-2.50279,-0.0111267,1.27723,0.0121269,2,0.02,0,0.168285,-0.0430786,-0.0261321,0.311207,-0.183202,-0.265694,0.0250331,-2.77556e-19,-5.55112e-19,9.0095e-17,
2,27.4242,-29.2321,-22.2432,56.6093,-7.78248,-12,-9.82167,104.909,-299.265,-55.5356,2178.51,1.24727,-153.395,-1.44321,-0.118827,0.343444,0.063436,-2.50097,-0.0113987,1.27511,0.0122101,2,0.02,0,0.271462,-0.0915828,-0.0733715,0.452978,-0.0679908,-0.529485,0.0207941,-2.77556e-19,-5.55112e-19,-9.48368e-18,
3,28.3151,-31.7627,-25.6709,57.43,-7.83072,-12,-10.4541,104.909,-299.265,-55.5356,2178.51,1.24727,-153.395,-1.44321,-0.117505,0.342926,0.0629354,-2.49891,-0.0113194,1.27221,0.0122665,2,0.02,0,0.330286,-0.129462,-0.125137,0.516557,0.0198333,-0.726147,0.0141051,-5.55112e-19,-5.55112e-19,3.79347e-17,
4,25.4275,-34.5409,-25.6224,58.5989,-7.69086,-12,-10.8571,104.909,-299.265,-55.5356,2178.51,1.24727,-153.395,-1.44321,-0.116115,0.342317,0.0622228,-2.49674,-0.0110757,1.26867,0.0122793,2,0.02,0,0.347741,-0.152208,-0.178151,0.542076,0.0609201,-0.884688,0.00320639,-2.77556e-19,-5.55112e-19,1.04321e-16,
5,17.9676,-37.3845,-20.8842,59.9087,-5.02546,-12,-10.0477,104.909,-299.265,-55.5356,2178.51,1.24727,-153.395,-1.44321,-0.114854,0.341742,0.0613733,-2.4945,-0.0131535,1.26409,0.00836359,2,0.02,0,0.315051,-0.143953,-0.212378,0.560189,-0.519448,-1.14475,-0.978928,2.77556e-19,-5.55112e-19,2.8451e-17,
6,5.30975,-39.8593,-10.8712,61.5738,-5.24557,-12,-10.5803,104.909,-299.265,-55.5356,2178.51,1.24727,-153.395,-1.44321,-0.113874,0.341181,0.0607167,-2.49233,-0.01532,1.25919,0.00434777,2,0.02,0,0.24498,-0.140126,-0.164161,0.543324,-0.541633,-1.2263,-1.00395,1.41553e-17,-5.55112e-19,-4.36249e-16,
7,-11.3899,-41.7566,3.84005,63.2032,-5.63092,-12,-11.0235,104.909,-299.265,-55.5356,2178.51,1.24727,-153.395,-1.44321,-0.11337,0.340629,0.0604575,-2.49019,-0.0175787,1.25406,0.000127631,2,0.02,0,0.126162,-0.137966,-0.0648048,0.532585,-0.564681,-1.28086,-1.05504,9.4369e-18,-5.27356e-18,-6.63858e-16,
8,-30.2652,-42.9583,21.5392,64.5534,-6.3166,-12,-11.4141,104.909,-299.265,-55.5356,2178.51,1.24727,-153.395,-1.44321,-0.113513,0.340082,0.060777,-2.48808,-0.0199791,1.24878,-0.0042678,2,0.02,0,-0.0358073,-0.136777,0.0798915,0.527887,-0.600093,-1.32044,-1.09886,-3.88578e-18,-9.71445e-18,-2.46576e-16,
9,-49.0168,-43.4757,39.862,64.8306,-6.56666,-12,-11.477,104.909,-299.265,-55.5356,2178.51,1.24727,-153.395,-1.44321,-0.11441,0.339539,0.0617877,-2.48597,-0.0226134,1.24339,-0.00881427,2,0.02,0,-0.224276,-0.135857,0.252656,0.527689,-0.658573,-1.34866,-1.13662,-8.60423e-18,-2.77556e-19,-1.51739e-16,
10,28.1236,-64.3375,-26.6538,87,3.50325,-12,-2.83924,72.0679,-281.92,-40.2418,2155.14,0.868703,-147.602,-0.898958,-0.116072,0.338997,0.0635155,-2.48387,-0.0253845,1.23794,-0.0133997,2,0.02,0,-0.415476,-0.135495,0.431961,0.52582,-0.692778,-1.36122,-1.14637,-4.16334e-18,-2.77556e-19,-6.06956e-16,
11,27.9167,-64.1962,-26.5286,87,2.39791,-12,-3.0196,72.0679,-281.92,-40.2418,2155.14,0.868703,-147.602,-0.898958,-0.115137,0.338283,0.0626324,-2.48154,-0.0258269,1.23198,-0.0149095,2,0.02,0,0.233799,-0.178496,-0.220771,0.581359,-0.11061,-1.49056,-0.377439,1.41553e-17,-9.15934e-18,-1.52687e-15,
12,27.9866,-64.0782,-26.6417,87,2.00754,-12,-3.05596,72.0679,-281.92,-40.2418,2155.14,0.868703,-147.602,-0.898958,-0.114,0.337467,0.0615755,-2.47907,-0.0255329,1.22588,-0.0161802,2,0.02,0,0.284181,-0.20389,-0.264235,0.619212,0.0735186,-1.52489,-0.317668,9.99201e-18,-7.21645e-18,-1.15227e-15,
13,28.0779,-63.9671,-26.7604,87,1.80639,-12,-3.06065,72.0679,-281.92,-40.2418,2155.14,0.868703,-147.602,-0.898958,-0.112846,0.336569,0.0605,-2.47648,-0.0250685,1.2198,-0.0174145,2,0.02,0,0.288566,-0.224616,-0.268865,0.646411,0.116089,-1.52044,-0.308594,6.38378e-18,-5.55112e-18,-8.15597e-16,
14,28.1634,-63.8577,-26.866,87,1.6631,-12,-3.05744,72.0679,-281.92,-40.2418,2155.14,0.868703,-147.602,-0.898958,-0.111692,0.3356,0.0594154,-2.47382,-0.0245831,1.21379,-0.0186397,2,0.02,0,0.288534,-0.242277,-0.271168,0.665965,0.12136,-1.50177,-0.30629,4.16334e-18,-4.71845e-18,-5.12119e-16,
15,28.2385,-63.749,-26.9569,85.6635,1.54421,-12,-3.05213,72.0679,-281.92,-40.2418,2155.14,0.868703,-147.602,-0.898958,-0.11054,0.334571,0.0583226,-2.4711,-0.0241155,1.20787,-0.019861,2,0.02,0,0.287967,-0.257244,-0.273183,0.680595,0.116893,-1.48058,-0.305334,2.77556e-18,-3.88578e-18,-3.41413e-16,
16,28.3019,-63.6398,-27.0331,83.0776,1.44238,-12,-3.04626,72.0679,-281.92,-40.2418,2155.14,0.868703,-147.602,-0.898958,-0.109391,0.333485,0.057223,-2.46835,-0.0236646,1.20205,-0.0210808,2,0.02,0,0.287315,-0.271362,-0.274894,0.68626,0.112727,-1.4543,-0.304937,1.66533e-18,-2.498e-18,-2.93994e-16,
17,28.354,-63.5308,-27.0953,80.4812,1.36123,-12,-3.03942,72.0679,-281.92,-40.2418,2155.14,0.868703,-147.602,-0.898958,-0.108244,0.332343,0.0561176,-2.46562,-0.0232233,1.19635,-0.0222993,2,0.02,0,0.286634,-0.28544,-0.276351,0.681567,0.110319,-1.42436,-0.304638,1.11022e-18,-1.66533e-18,-2.18125e-16,
18,28.4109,-63.427,-27.1594,77.88,1.34462,-12,-3.02441,72.0679,-281.92,-40.2418,2155.14,0.868703,-147.602,-0.898958,-0.1071,0.33115,0.0550072,-2.46294,-0.0227931,1.19076,-0.0235156,2,0.02,0,0.285984,-0.298408,-0.277616,0.671035,0.107553,-1.39815,-0.304068,-9.62965e-34,-1.38778e-18,-5.69021e-17,
19,28.9203,-63.3529,-27.6601,75.2779,2.08844,-12,-2.66067,72.0679,-281.92,-40.2418,2155.14,0.868703,-147.602,-0.898958,-0.105958,0.32991,0.0538923,-2.46031,-0.0223612,1.18526,-0.0247272,2,0.02,0,0.285595,-0.309867,-0.278718,0.656655,0.107979,-1.3764,-0.302897,2.77556e-19,-1.11022e-18,-1.65964e-16,
20,1.3829,-65.4867,1.66515,74.8659,-2.49914,-12,-10.9047,46.3909,-262.455,-26.455,2129.55,0.652615,-140.976,-0.463099,-0.104795,0.328631,0.0527621,-2.45776,-0.0217225,1.17983,-0.0258155,2,0.02,0,0.290582,-0.319876,-0.282558,0.638192,0.159684,-1.35635,-0.272064,2.77556e-19,-1.11022e-18,-1.37513e-16,
21,1.46122,-65.3666,1.61851,74.8512,-2.04487,-12,-10.7768,46.3909,-262.455,-26.455,2129.55,0.652615,-140.976,-0.463099,-0.104682,0.327318,0.0526924,-2.45523,-0.0221149,1.17434,-0.0298918,2,0.02,0,0.0284649,-0.328328,-0.0174236,0.63219,-0.0981097,-1.37259,-1.01908,2.77556e-19,-5.55112e-18,-5.21603e-17,
22,1.42977,-65.2438,1.66647,74.8335,-1.9272,-12,-10.7369,46.3909,-262.455,-26.455,2129.55,0.652615,-140.976,-0.463099,-0.104645,0.325973,0.0526928,-2.45273,-0.0228642,1.16886,-0.0341655,2,0.02,0,0.00921348,-0.336199,0.000108477,0.625919,-0.187316,-1.37119,-1.06843,-2.77556e-19,-3.05311e-18,9.48368e-17,
23,1.3875,-65.1213,1.71937,74.812,-1.8908,-12,-10.713,46.3909,-262.455,-26.455,2129.55,0.652615,-140.976,-0.463099,-0.104613,0.324608,0.0527031,-2.45024,-0.0237069,1.16338,-0.0384535,2,0.02,0,0.00790651,-0.341125,0.00257473,0.621327,-0.210682,-1.36814,-1.07199,-2.77556e-19,-1.94289e-18,6.63858e-17,
24,1.34431,-64.9991,1.77038,74.7883,-1.87532,-12,-10.6928,46.3909,-262.455,-26.455,2129.55,0.652615,-140.976,-0.463099,-0.10458,0.323232,0.0527197,-2.44777,-0.0245752,1.15792,-0.0427375,2,0.02,0,0.0082023,-0.343946,0.00413559,0.618739,-0.217069,-1.36655,-1.07101,-9.62965e-34,-8.32667e-19,6.63858e-17,
25,1.30155,-64.8766,1.81875,74.7632,-1.86608,-12,-10.6736,46.3909,-262.455,-26.455,2129.55,0.652615,-140.976,-0.463099,-0.104546,0.321851,0.0527418,-2.4453,-0.0254514,1.15246,-0.0470148,2,0.02,0,0.00861803,-0.345432,0.00554264,0.617341,-0.219057,-1.36557,-1.06933,-9.62965e-34,-2.77556e-19,7.58695e-17,
26,1.25936,-64.7536,1.86429,74.7373,-1.85925,-12,-10.6548,46.3909,-262.455,-26.455,2129.55,0.652615,-140.976,-0.463099,-0.10451,0.320466,0.0527691,-2.44283,-0.0263306,1.147,-0.0512849,2,0.02,0,0.00896509,-0.346077,0.00681231,0.61653,-0.219796,-1.36466,-1.06752,-2.77556e-19,5.55112e-19,4.74184e-17,
27,1.21727,-64.6296,1.90715,74.7107,-1.85422,-12,-10.6363,46.3909,-262.455,-26.455,2129.55,0.652615,-140.976,-0.463099,-0.104473,0.319082,0.0528009,-2.44037,-0.0272111,1.14154,-0.0555477,2,0.02,0,0.00921813,-0.346181,0.0079474,0.615978,-0.220141,-1.3637,-1.06569,2.77556e-19,8.32667e-19,-9.48368e-18,
28,1.16341,-64.5039,1.95893,74.6845,-1.86425,-12,-10.6206,46.3909,-262.455,-26.455,2129.55,0.652615,-140.976,-0.463099,-0.104436,0.317698,0.0528367,-2.43791,-0.0280927,1.13609,-0.0598031,2,0.02,0,0.00937808,-0.345924,0.00896087,0.615521,-0.220394,-1.3627,-1.06387,-9.62965e-34,5.55112e-19,9.48368e-18,
29,0.632425,-64.3659,2.50426,74.6772,-2.15872,-12,-10.9154,46.3909,-262.455,-26.455,2129.55,0.652615,-140.976,-0.463099,-0.104398,0.316316,0.0528765,-2.43545,-0.0289791,1.13064,-0.0640521,2,0.02,0,0.00932937,-0.345409,0.00995583,0.615114,-0.221592,-1.36177,-1.06224,-2.77556e-19,5.55112e-19,1.89674e-17,
30,27.9967,-65.91,-26.4721,75.1769,-1.04984,-12,-2.14046,29.1866,-242.789,-17.9494,2104.06,0.590456,-134.401,-0.235778,-0.104381,0.314938,0.0529369,-2.43298,-0.0299446,1.1252,-0.0684061,2,0.02,0,0.00439136,-0.344598,0.0150974,0.615287,-0.241378,-1.36187,-1.0885,-9.62965e-34,5.55112e-19,9.48368e-18,
31,27.8515,-65.7835,-26.3337,75.1497,-1.23949,-12,-2.20458,29.1866,-242.789,-17.9494,2104.06,0.590456,-134.401,-0.235778,-0.103341,0.313535,0.0519159,-2.43052,-0.0308072,1.11974,-0.0695099,2,0.02,0,0.259883,-0.350661,-0.255265,0.616194,-0.215649,-1.36416,-0.275952,-8.88178e-18,4.996e-18,2.65543e-16,
32,27.7975,-65.6599,-26.2846,75.1205,-1.27895,-12,-2.20975,29.1866,-242.789,-17.9494,2104.06,0.590456,-134.401,-0.235778,-0.102236,0.312127,0.0508334,-2.42806,-0.031531,1.11429,-0.0704159,2,0.02,0,0.276386,-0.351987,-0.270618,0.614751,-0.180954,-1.36263,-0.226498,-6.93889e-18,3.60822e-18,2.3235e-16,
33,27.7521,-65.5361,-26.243,75.0911,-1.28265,-12,-2.20691,29.1866,-242.789,-17.9494,2104.06,0.590456,-134.401,-0.235778,-0.101126,0.310718,0.0497501,-2.4256,-0.0322165,1.10884,-0.0713043,2,0.02,0,0.277295,-0.352324,-0.270831,0.614588,-0.171377,-1.3629,-0.222104,-4.996e-18,2.498e-18,1.13804e-16,
34,27.7089,-65.4113,-26.2038,75.0615,-1.27741,-12,-2.20251,29.1866,-242.789,-17.9494,2104.06,0.590456,-134.401,-0.235778,-0.100018,0.309309,0.0486691,-2.42314,-0.0328915,1.10339,-0.0721889,2,0.02,0,0.277048,-0.352242,-0.270246,0.614527,-0.168743,-1.36251,-0.221139,-3.88578e-18,1.94289e-18,8.53531e-17,
35,27.6671,-65.2854,-26.1665,75.0315,-1.26942,-12,-2.19773,29.1866,-242.789,-17.9494,2104.06,0.590456,-134.401,-0.235778,-0.0989114,0.307902,0.0475904,-2.42069,-0.0335624,1.09794,-0.0730712,2,0.02,0,0.276692,-0.351893,-0.269666,0.614356,-0.167735,-1.36161,-0.220576,-3.05311e-18,1.38778e-18,5.21603e-17,
36,27.6267,-65.1581,-26.1311,75.001,-1.26015,-12,-2.19281,29.1866,-242.789,-17.9494,2104.06,0.590456,-134.401,-0.235778,-0.0978061,0.306496,0.0465139,-2.41823,-0.0342307,1.0925,-0.0739515,2,0.02,0,0.276326,-0.351345,-0.269118,0.614077,-0.167077,-1.36055,-0.220078,-2.498e-18,1.11022e-18,6.16439e-17,
37,27.5874,-65.0293,-26.0975,74.9698,-1.24994,-12,-2.1878,29.1866,-242.789,-17.9494,2104.06,0.590456,-134.401,-0.235778,-0.0967022,0.305094,0.0454396,-2.41578,-0.0348966,1.08706,-0.0748298,2,0.02,0,0.275966,-0.350642,-0.268597,0.613709,-0.166462,-1.3595,-0.219589,-1.94289e-18,5.55112e-19,4.74184e-18,
38,27.5473,-64.8989,-26.064,74.9383,-1.23984,-12,-2.18294,29.1866,-242.789,-17.9494,2104.06,0.590456,-134.401,-0.235778,-0.0955998,0.303694,0.0443672,-2.41332,-0.0355598,1.08163,-0.0757062,2,0.02,0,0.275614,-0.349812,-0.268101,0.613269,-0.165808,-1.35853,-0.219097,-1.38778e-18,5.55112e-19,-6.63858e-17,
39,27.4157,-64.765,-25.934,74.9097,-1.25799,-12,-2.2001,29.1866,-242.789,-17.9494,2104.06,0.590456,-134.401,-0.235778,-0.0944988,0.302299,0.0432967,-2.41087,-0.0362204,1.0762,-0.0765807,2,0.02,0,0.275253,-0.348876,-0.267611,0.61277,-0.165158,-1.35764,-0.218616,-1.38778e-18,2.77556e-19,-7.58695e-17,
40,32.8103,-65.3614,-31.8855,75.371,-1.14686,-12,-1.67025,18.1349,-223.102,-12.3291,2078.79,0.571855,-127.839,-0.118378,-0.0934028,0.300907,0.0422317,-2.40842,-0.0368859,1.07077,-0.077461,2,0.02,0,0.273998,-0.347833,-0.266255,0.612287,-0.166375,-1.35694,-0.220077,-1.11022e-18,2.77556e-19,-6.63858e-17,
41,32.7475,-65.2393,-31.8289,75.3399,-1.14933,-12,-1.67087,18.1349,-223.102,-12.3291,2078.79,0.571855,-127.839,-0.118378,-0.0921018,0.299513,0.0409463,-2.40597,-0.0375392,1.06533,-0.078146,2,0.02,0,0.325238,-0.348605,-0.321358,0.613118,-0.163318,-1.35978,-0.171242,-1.11022e-18,1.41553e-17,2.65543e-16,
42,32.7023,-65.1165,-31.7907,75.3087,-1.14064,-12,-1.66768,18.1349,-223.102,-12.3291,2078.79,0.571855,-127.839,-0.118378,-0.0907907,0.298119,0.0396497,-2.40352,-0.0381786,1.05989,-0.0788173,2,0.02,0,0.327787,-0.348426,-0.324129,0.613019,-0.159837,-1.35951,-0.167832,-5.55112e-19,1.02696e-17,1.99157e-16,
43,32.6596,-64.9926,-31.7553,75.2771,-1.12852,-12,-1.6639,18.1349,-223.102,-12.3291,2078.79,0.571855,-127.839,-0.118378,-0.0894809,0.296727,0.0383542,-2.40107,-0.0388111,1.05446,-0.0794861,2,0.02,0,0.327456,-0.347982,-0.323873,0.612794,-0.158137,-1.35872,-0.167193,-7.70372e-34,7.77156e-18,1.51739e-16,
44,32.6183,-64.8674,-31.7216,75.2451,-1.115,-12,-1.65998,18.1349,-223.102,-12.3291,2078.79,0.571855,-127.839,-0.118378,-0.088173,0.295338,0.0370604,-2.39862,-0.0394388,1.04903,-0.0801532,2,0.02,0,0.326973,-0.347368,-0.323456,0.612468,-0.156926,-1.35777,-0.166772,5.55112e-19,5.55112e-18,5.69021e-17,
45,32.5783,-64.7408,-31.6895,75.2125,-1.10059,-12,-1.656,18.1349,-223.102,-12.3291,2078.79,0.571855,-127.839,-0.118378,-0.0868669,0.293951,0.0357683,-2.39617,-0.040062,1.0436,-0.0808187,2,0.02,0,0.326504,-0.346618,-0.323038,0.612059,-0.155804,-1.35682,-0.166376,5.55112e-19,4.16334e-18,1.23288e-16,
46,32.5397,-64.6126,-31.6592,75.1794,-1.08553,-12,-1.65201,18.1349,-223.102,-12.3291,2078.79,0.571855,-127.839,-0.118378,-0.0855627,0.292568,0.0344778,-2.39372,-0.0406807,1.03817,-0.0814826,2,0.02,0,0.326059,-0.345758,-0.322628,0.611584,-0.154667,-1.35592,-0.165982,2.77556e-19,3.05311e-18,1.32772e-16,
47,32.5022,-64.4827,-31.6304,75.1456,-1.07038,-12,-1.64806,18.1349,-223.102,-12.3291,2078.79,0.571855,-127.839,-0.118378,-0.0842602,0.291189,0.0331888,-2.39128,-0.0412947,1.03275,-0.0821449,2,0.02,0,0.325636,-0.344806,-0.322228,0.611054,-0.153492,-1.35509,-0.165587,5.55112e-19,2.498e-18,3.79347e-17,
48,32.4655,-64.3507,-31.6034,75.1106,-1.06145,-12,-1.64518,18.1349,-223.102,-12.3291,2078.79,0.571855,-127.839,-0.118378,-0.0829592,0.289814,0.0319015,-2.38884,-0.0419039,1.02734,-0.0828057,2,0.02,0,0.325234,-0.343774,-0.321839,0.610476,-0.152308,-1.35434,-0.165196,2.77556e-19,1.94289e-18,-2.03378e-31,
49,32.4216,-64.2147,-31.5752,75.0786,-1.19095,-12,-1.65646,18.1349,-223.102,-12.3291,2078.79,0.571855,-127.839,-0.118378,-0.0816599,0.288443,0.0306156,-2.3864,-0.0425101,1.02192,-0.0834652,2,0.02,0,0.324841,-0.342675,-0.321469,0.60987,-0.151551,-1.35366,-0.16488,5.55112e-19,1.38778e-18,-3.79347e-17,
50,32.9565,-64.7135,-32.151,75.5311,-0.0154101,-12,-1.80823,11.2116,-203.425,-8.45351,2053.76,0.565027,-121.285,-0.0586139,-0.0803629,0.287077,0.0293307,-2.38396,-0.0431518,1.01651,-0.0841267,2,0.02,0,0.32424,-0.341503,-0.321218,0.609537,-0.160421,-1.35353,-0.16537,2.77556e-19,8.32667e-19,-5.69021e-17,
51,32.9182,-64.5915,-32.1255,75.4945,-0.0901005,-12,-1.81691,11.2116,-203.425,-8.45351,2053.76,0.565027,-121.285,-0.0586139,-0.0790406,0.285712,0.0280293,-2.38153,-0.043483,1.0111,-0.0848644,2,0.02,0,0.330582,-0.341459,-0.325367,0.607659,-0.0828012,-1.3521,-0.184416,-7.70372e-34,8.32667e-19,-5.69021e-17,
52,32.8841,-64.4691,-32.1017,75.4594,-0.10349,-12,-1.81687,11.2116,-203.425,-8.45351,2053.76,0.565027,-121.285,-0.0586139,-0.0777182,0.284348,0.0267283,-2.37909,-0.0437443,1.00568,-0.0855969,2,0.02,0,0.330605,-0.340883,-0.325244,0.608268,-0.0653279,-1.3547,-0.18313,-2.77556e-19,5.55112e-19,-3.31929e-17,
53,32.8516,-64.3456,-32.0789,75.4248,-0.101581,-12,-1.81454,11.2116,-203.425,-8.45351,2053.76,0.565027,-121.285,-0.0586139,-0.0763977,0.282987,0.0254281,-2.37666,-0.0439868,1.00026,-0.0863262,2,0.02,0,0.330103,-0.340226,-0.32506,0.60859,-0.0606211,-1.35532,-0.182327,-2.77556e-19,2.77556e-19,-7.11276e-17,
54,32.8202,-64.2207,-32.0572,75.3902,-0.0952471,-12,-1.8116,11.2116,-203.425,-8.45351,2053.76,0.565027,-121.285,-0.0586139,-0.0750795,0.281629,0.0241284,-2.37423,-0.0442225,0.99484,-0.0870538,2,0.02,0,0.329565,-0.339511,-0.324902,0.608549,-0.0589402,-1.35482,-0.181888,-2.77556e-19,9.62965e-35,-1.09062e-16,
55,32.79,-64.0945,-32.0366,75.3552,-0.0872521,-12,-1.80847,11.2116,-203.425,-8.45351,2053.76,0.565027,-121.285,-0.0586139,-0.0737633,0.280274,0.0228295,-2.37179,-0.0444546,0.989424,-0.0877799,2,0.02,0,0.329056,-0.338726,-0.32474,0.608285,-0.0580238,-1.35395,-0.181542,-2.77556e-19,9.62965e-35,-7.11276e-17,
56,32.7608,-63.9667,-32.0172,75.3196,-0.0783894,-12,-1.80527,11.2116,-203.425,-8.45351,2053.76,0.565027,-121.285,-0.0586139,-0.0724489,0.278923,0.0215312,-2.36936,-0.0446838,0.984012,-0.0885048,2,0.02,0,0.328585,-0.337864,-0.324566,0.607887,-0.0572993,-1.35304,-0.181216,-7.70372e-34,2.77556e-19,-1.97215e-31,
57,32.7326,-63.8372,-31.9989,75.2836,-0.0691569,-12,-1.80206,11.2116,-203.425,-8.45351,2053.76,0.565027,-121.285,-0.0586139,-0.0711363,0.277575,0.0202337,-2.36693,-0.0449103,0.978603,-0.0892284,2,0.02,0,0.328151,-0.336927,-0.324381,0.607401,-0.0566104,-1.35218,-0.180894,-7.70372e-34,2.77556e-19,-9.48368e-18,
58,32.7067,-63.7057,-31.9832,75.2469,-0.0631791,-12,-1.7994,11.2116,-203.425,-8.45351,2053.76,0.565027,-121.285,-0.0586139,-0.0698253,0.276231,0.018937,-2.3645,-0.045134,0.973198,-0.0899507,2,0.02,0,0.327751,-0.335921,-0.324188,0.606851,-0.0559278,-1.35139,-0.180574,-2.77556e-19,2.77556e-19,-2.8451e-17,
59,32.7709,-63.5715,-32.0676,75.2134,-0.131064,-12,-1.82126,11.2116,-203.425,-8.45351,2053.76,0.565027,-121.285,-0.0586139,-0.0685158,0.274892,0.0176409,-2.36208,-0.0453559,0.967795,-0.0906718,2,0.02,0,0.327389,-0.334851,-0.324005,0.60626,-0.0554816,-1.35068,-0.180292,-5.55112e-19,9.62965e-35,-2.8451e-17,
60,27.7451,-64.0488,-26.6799,75.6712,0.452951,-12,-1.31983,6.94038,-183.752,-5.73536,2028.95,0.567585,-114.736,-0.0285651,-0.0672044,0.273557,0.0163417,-2.35966,-0.0455962,0.962394,-0.0914,2,0.02,0,0.327828,-0.333722,-0.324814,0.605801,-0.0600837,-1.3503,-0.182039,-8.32667e-19,9.62965e-35,9.48368e-18,
61,27.7355,-63.9269,-26.682,75.6338,0.403464,-12,-1.32664,6.94038,-183.752,-5.73536,2028.95,0.567585,-114.736,-0.0285651,-0.0660805,0.272224,0.0152484,-2.35724,-0.0456981,0.95699,-0.0919493,2,0.02,0,0.280993,-0.333239,-0.273314,0.605219,-0.0254591,-1.3511,-0.13733,-8.32667e-19,9.62965e-35,-1.89674e-17,
62,27.7147,-63.8042,-26.6705,75.5974,0.39164,-12,-1.32632,6.94038,-183.752,-5.73536,2028.95,0.567585,-114.736,-0.0285651,-0.0649673,0.270893,0.0141667,-2.35481,-0.045761,0.95158,-0.0924844,2,0.02,0,0.278283,-0.332843,-0.270428,0.605481,-0.0157368,-1.35231,-0.133778,-5.55112e-19,-2.77556e-19,-5.69021e-17,
63,27.6942,-63.6804,-26.6587,75.5612,0.389429,-12,-1.32453,6.94038,-183.752,-5.73536,2028.95,0.567585,-114.736,-0.0285651,-0.0638561,0.269563,0.013086,-2.35239,-0.045814,0.946171,-0.0930169,2,0.02,0,0.2778,-0.332333,-0.27018,0.605539,-0.0132553,-1.35227,-0.133127,-2.77556e-19,-2.77556e-19,-4.74184e-17,
64,27.6743,-63.5555,-26.6475,75.5247,0.390057,-12,-1.32237,6.94038,-183.752,-5.73536,2028.95,0.567585,-114.736,-0.0285651,-0.0627464,0.268237,0.0120056,-2.34997,-0.0458645,0.940765,-0.0935482,2,0.02,0,0.27744,-0.331715,-0.270084,0.605363,-0.0126154,-1.35156,-0.132818,-5.55112e-19,-2.77556e-19,-1.89674e-17,
65,27.6552,-63.4293,-26.6368,75.4878,0.391789,-12,-1.32008,6.94038,-183.752,-5.73536,2028.95,0.567585,-114.736,-0.0285651,-0.0616379,0.266913,0.0109257,-2.34755,-0.0459143,0.935362,-0.0940785,2,0.02,0,0.27711,-0.330996,-0.269991,0.605034,-0.0124488,-1.35067,-0.132571,-2.77556e-19,2.77556e-19,-4.74184e-17,
66,27.6367,-63.3017,-26.6266,75.4504,0.39417,-12,-1.31774,6.94038,-183.752,-5.73536,2028.95,0.567585,-114.736,-0.0285651,-0.0605307,0.265592,0.00984614,-2.34513,-0.0459639,0.929963,-0.0946078,2,0.02,0,0.276806,-0.330184,-0.269888,0.604604,-0.0123994,-1.34977,-0.132336,-2.77556e-19,2.77556e-19,-1.89674e-17,
67,27.6189,-63.1725,-26.6169,75.4126,0.397153,-12,-1.31536,6.94038,-183.752,-5.73536,2028.95,0.567585,-114.736,-0.0285651,-0.0594246,0.264275,0.00876703,-2.34271,-0.0460134,0.924567,-0.0951363,2,0.02,0,0.276526,-0.329288,-0.269776,0.604103,-0.0123665,-1.34893,-0.132103,-5.55112e-19,2.77556e-19,-2.00297e-31,
68,27.6034,-63.0415,-26.6094,75.3747,0.400802,-12,-1.31292,6.94038,-183.752,-5.73536,2028.95,0.567585,-114.736,-0.0285651,-0.0583195,0.262961,0.0076884,-2.3403,-0.0460626,0.919175,-0.0956637,2,0.02,0,0.276269,-0.328318,-0.269657,0.603546,-0.0123124,-1.34816,-0.131867,-5.55112e-19,5.55112e-19,-2.00297e-31,
69,27.7249,-62.9085,-26.7493,75.3397,0.409814,-12,-1.32324,6.94038,-183.752,-5.73536,2028.95,0.567585,-114.736,-0.0285651,-0.0572153,0.261652,0.00661021,-2.33789,-0.0461115,0.913785,-0.0961902,2,0.02,0,0.276047,-0.327281,-0.269547,0.602947,-0.0122169,-1.34745,-0.131627,-8.32667e-19,5.55112e-19,3.79347e-17,
70,19.7915,-63.3918,-18.3784,75.8079,0.334366,-12,-0.839595,4.32506,-164.072,-3.82955,2004.35,0.580367,-108.192,-0.013586,-0.0561068,0.260348,0.00552691,-2.33548,-0.0461582,0.908398,-0.0967206,2,0.02,0,0.277141,-0.326186,-0.270825,0.602318,-0.0116758,-1.3468,-0.132605,-2.77556e-19,5.55112e-19,9.48368e-18,
71,19.7954,-63.2687,-18.3894,75.7702,0.326107,-12,-0.839714,4.32506,-164.072,-3.82955,2004.35,0.580367,-108.192,-0.013586,-0.0552966,0.259045,0.00476356,-2.33307,-0.0462459,0.902997,-0.0970672,2,0.02,0,0.202545,-0.325642,-0.190838,0.603191,-0.0219261,-1.35011,-0.0866473,-2.77556e-19,5.55112e-19,-1.89674e-17,
72,19.782,-63.1447,-18.3816,75.7327,0.321925,-12,-0.838063,4.32506,-164.072,-3.82955,2004.35,0.580367,-108.192,-0.013586,-0.0545021,0.257743,0.00401612,-2.33065,-0.0463329,0.897598,-0.097405,2,0.02,0,0.198619,-0.325414,-0.18686,0.603099,-0.0217495,-1.34982,-0.0844494,-2.77556e-19,5.55112e-19,4.74184e-17,
73,19.7681,-63.0197,-18.3732,75.695,0.319257,-12,-0.836188,4.32506,-164.072,-3.82955,2004.35,0.580367,-108.192,-0.013586,-0.0537094,0.256443,0.00326966,-2.32824,-0.0464203,0.892202,-0.0977416,2,0.02,0,0.198178,-0.325013,-0.186614,0.60285,-0.0218404,-1.34901,-0.0841508,-7.22224e-34,2.77556e-19,3.79347e-17,
74,19.7547,-62.8936,-18.3651,75.6568,0.317259,-12,-0.834249,4.32506,-164.072,-3.82955,2004.35,0.580367,-108.192,-0.013586,-0.0529177,0.255145,0.0025235,-2.32583,-0.0465088,0.88681,-0.0980774,2,0.02,0,0.197928,-0.324454,-0.186542,0.602507,-0.0221353,-1.34807,-0.0839472,2.77556e-19,9.62965e-35,-2.03378e-31,
75,19.7417,-62.7665,-18.3573,75.618,0.315699,-12,-0.832278,4.32506,-164.072,-3.82955,2004.35,0.580367,-108.192,-0.013586,-0.0521269,0.25385,0.00177762,-2.32342,-0.0465987,0.881421,-0.0984124,2,0.02,0,0.197707,-0.323766,-0.18647,0.602091,-0.0224835,-1.34715,-0.0837514,-7.22224e-34,9.62965e-35,1.89674e-17,
76,19.7292,-62.638,-18.3498,75.5788,0.314549,-12,-0.830282,4.32506,-164.072,-3.82955,2004.35,0.580367,-108.192,-0.013586,-0.0513369,0.252558,0.00103206,-2.32102,-0.0466901,0.876036,-0.0987467,2,0.02,0,0.197505,-0.322972,-0.18639,0.601614,-0.0228353,-1.34629,-0.083556,2.77556e-19,9.62965e-35,-1.42255e-17,
77,19.7172,-62.5082,-18.3426,75.5391,0.314037,-12,-0.828239,4.32506,-164.072,-3.82955,2004.35,0.580367,-108.192,-0.013586,-0.0505476,0.25127,0.000286848,-2.31861,-0.0467828,0.870654,-0.0990801,2,0.02,0,0.19732,-0.322088,-0.186303,0.601086,-0.0231716,-1.34549,-0.0833594,-2.77556e-19,2.77556e-19,4.74184e-18,
78,19.7064,-62.3767,-18.3364,75.4996,0.315733,-12,-0.825945,4.32506,-164.072,-3.82955,2004.35,0.580367,-108.192,-0.013586,-0.049759,0.249986,-0.000457992,-2.31621,-0.0468766,0.865275,-0.0994127,2,0.02,0,0.197149,-0.321128,-0.18621,0.600513,-0.0234685,-1.34476,-0.0831597,-5.55112e-19,2.77556e-19,2.37092e-17,
79,19.7912,-62.2432,-18.4323,75.4625,0.347757,-12,-0.828114,4.32506,-164.072,-3.82955,2004.35,0.580367,-108.192,-0.013586,-0.048971,0.248705,-0.00120247,-2.31381,-0.0469711,0.859899,-0.0997445,2,0.02,0,0.197,-0.3201,-0.18612,0.599901,-0.0236122,-1.34408,-0.0829423,-8.32667e-19,5.55112e-19,8.06113e-17,
80,14.1333,-62.7444,-12.4342,75.9434,0.09247,-12,-0.530467,2.72504,-144.367,-2.50674,1979.96,0.602243,-101.654,-0.00614481,-0.0481798,0.247429,-0.00195042,-2.31142,-0.0470576,0.854525,-0.100077,2,0.02,0,0.19779,-0.319013,-0.186986,0.599211,-0.0216221,-1.34336,-0.0832449,-5.55112e-19,5.55112e-19,7.11276e-17,
81,14.1353,-62.6199,-12.44,75.9042,0.0999081,-12,-0.527843,2.72504,-144.367,-2.50674,1979.96,0.602243,-101.654,-0.00614481,-0.0476032,0.246155,-0.00246903,-2.30901,-0.0472281,0.849136,-0.100294,2,0.02,0,0.144169,-0.318631,-0.129653,0.600548,-0.0426363,-1.3474,-0.0540633,-5.55112e-19,5.55112e-19,4.26766e-17,
82,14.126,-62.4945,-12.4339,75.8649,0.099395,-12,-0.525668,2.72504,-144.367,-2.50674,1979.96,0.602243,-101.654,-0.00614481,-0.047037,0.244881,-0.00297688,-2.30661,-0.0474102,0.843749,-0.100506,2,0.02,0,0.141539,-0.318426,-0.126964,0.600384,-0.0455261,-1.34673,-0.0530425,-2.77556e-19,1.11022e-18,8.06113e-17,
83,14.1165,-62.3682,-12.4275,75.8251,0.0974107,-12,-0.523706,2.72504,-144.367,-2.50674,1979.96,0.602243,-101.654,-0.00614481,-0.0464719,0.243609,-0.00348397,-2.30421,-0.047596,0.838366,-0.100717,2,0.02,0,0.141282,-0.318035,-0.126773,0.600047,-0.046446,-1.34568,-0.0528853,-2.77556e-19,5.55112e-19,1.2803e-16,
84,14.1073,-62.2409,-12.4213,75.7848,0.095287,-12,-0.521792,2.72504,-144.367,-2.50674,1979.96,0.602243,-101.654,-0.00614481,-0.0459073,0.242339,-0.00399072,-2.30181,-0.047784,0.832987,-0.100928,2,0.02,0,0.141147,-0.31748,-0.126687,0.599652,-0.0469941,-1.34468,-0.0527135,2.77556e-19,5.55112e-19,9.0095e-17,
85,14.0984,-62.1126,-12.4152,75.7439,0.0933473,-12,-0.519882,2.72504,-144.367,-2.50674,1979.96,0.602243,-101.654,-0.00614481,-0.0453432,0.241072,-0.00449713,-2.29942,-0.0479738,0.827612,-0.101138,2,0.02,0,0.141026,-0.316794,-0.126602,0.599206,-0.0474441,-1.34376,-0.052531,2.77556e-19,5.55112e-19,1.2803e-16,
86,14.0898,-61.9831,-12.4092,75.7025,0.0917283,-12,-0.517964,2.72504,-144.367,-2.50674,1979.96,0.602243,-101.654,-0.00614481,-0.0447795,0.239808,-0.00500319,-2.29702,-0.0481652,0.822241,-0.101348,2,0.02,0,0.140913,-0.316001,-0.126515,0.598712,-0.0478562,-1.34291,-0.0523453,5.55112e-19,2.77556e-19,1.18546e-16,
87,14.0815,-61.8523,-12.4034,75.6607,0.0907681,-12,-0.516003,2.72504,-144.367,-2.50674,1979.96,0.602243,-101.654,-0.00614481,-0.0442163,0.238547,-0.0055089,-2.29463,-0.0483581,0.816872,-0.101556,2,0.02,0,0.140808,-0.31512,-0.126426,0.598172,-0.0482403,-1.34214,-0.0521581,8.32667e-19,2.77556e-19,9.95787e-17,
88,14.0738,-61.7199,-12.3979,75.619,0.0926077,-12,-0.513747,2.72504,-144.367,-2.50674,1979.96,0.602243,-101.654,-0.00614481,-0.0436535,0.237291,-0.00601424,-2.29224,-0.0485524,0.811506,-0.101764,2,0.02,0,0.140709,-0.314165,-0.126335,0.597591,-0.0485772,-1.34142,-0.0519679,5.55112e-19,2.77556e-19,9.95787e-17,
89,14.1317,-61.5855,-12.4622,75.5794,0.130731,-12,-0.512839,2.72504,-144.367,-2.50674,1979.96,0.602243,-101.654,-0.00614481,-0.043091,0.236038,-0.00651922,-2.28985,-0.0487473,0.806143,-0.101971,2,0.02,0,0.140621,-0.313144,-0.126245,0.596972,-0.0487183,-1.34075,-0.0517571,5.55112e-19,-2.77556e-19,5.21603e-17,
90,10.1336,-62.0932,-8.18087,76.0702,-0.165808,-12,-0.315156,1.74149,-124.623,-1.60247,1955.76,0.630707,-95.121,-0.00243401,-0.0425262,0.23479,-0.00702648,-2.28747,-0.0489327,0.800783,-0.102178,2,0.02,0,0.141184,-0.312063,-0.126815,0.596265,-0.0463485,-1.34002,-0.0517863,8.32667e-19,-5.55112e-19,5.21603e-17,
91,10.134,-61.9673,-8.18333,76.0288,-0.15145,-12,-0.31165,1.74149,-124.623,-1.60247,1955.76,0.630707,-95.121,-0.00243401,-0.0421143,0.233543,-0.00737007,-2.28507,-0.0492091,0.795406,-0.102306,2,0.02,0,0.102975,-0.311744,-0.0858969,0.597746,-0.0690976,-1.34424,-0.0319193,8.32667e-19,-5.55112e-19,2.37092e-17,
92,10.1273,-61.8406,-8.17833,75.9872,-0.149283,-12,-0.309297,1.74149,-124.623,-1.60247,1955.76,0.630707,-95.121,-0.00243401,-0.0417093,0.232297,-0.00770634,-2.28268,-0.0495004,0.790032,-0.102432,2,0.02,0,0.101254,-0.311534,-0.084067,0.597585,-0.0728301,-1.34347,-0.0313887,5.55112e-19,-1.11022e-18,6.16439e-17,
93,10.1206,-61.713,-8.17321,75.945,-0.149692,-12,-0.307292,1.74149,-124.623,-1.60247,1955.76,0.630707,-95.121,-0.00243401,-0.0413048,0.231052,-0.00804196,-2.28029,-0.049796,0.784663,-0.102557,2,0.02,0,0.101123,-0.311143,-0.0839059,0.597231,-0.0739036,-1.34236,-0.0312747,2.77556e-19,-1.11022e-18,7.11276e-17,
94,10.1141,-61.5844,-8.16815,75.9023,-0.150534,-12,-0.305374,1.74149,-124.623,-1.60247,1955.76,0.630707,-95.121,-0.00243401,-0.0409006,0.22981,-0.0083772,-2.27791,-0.0500936,0.779298,-0.102681,2,0.02,0,0.101062,-0.31059,-0.0838109,0.596824,-0.0744027,-1.34133,-0.0311114,5.55112e-19,-8.32667e-19,1.18546e-16,
95,10.1078,-61.4549,-8.16313,75.859,-0.151272,-12,-0.303479,1.74149,-124.623,-1.60247,1955.76,0.630707,-95.121,-0.00243401,-0.0404966,0.22857,-0.00871208,-2.27552,-0.0503926,0.773936,-0.102805,2,0.02,0,0.101006,-0.309908,-0.0837184,0.596371,-0.0747469,-1.34041,-0.0309324,5.55112e-19,-5.55112e-19,9.0095e-17,
96,10.1016,-61.3242,-8.15812,75.8152,-0.151707,-12,-0.301585,1.74149,-124.623,-1.60247,1955.76,0.630707,-95.121,-0.00243401,-0.0400927,0.227334,-0.00904659,-2.27314,-0.0506928,0.768578,-0.102928,2,0.02,0,0.100951,-0.309121,-0.0836271,0.595872,-0.0750358,-1.33957,-0.0307497,8.32667e-19,-2.77556e-19,7.11276e-17,
97,10.0956,-61.1924,-8.15306,75.7709,-0.151473,-12,-0.29966,1.74149,-124.623,-1.60247,1955.76,0.630707,-95.121,-0.00243401,-0.0396892,0.226101,-0.00938073,-2.27076,-0.0509939,0.763223,-0.10305,2,0.02,0,0.100897,-0.308248,-0.083537,0.595329,-0.0752905,-1.3388,-0.0305658,8.32667e-19,2.88889e-34,6.16439e-17,
98,10.0899,-61.059,-8.14801,75.7267,-0.148408,-12,-0.297475,1.74149,-124.623,-1.60247,1955.76,0.630707,-95.121,-0.00243401,-0.0392858,0.224871,-0.00971452,-2.26838,-0.0512959,0.75787,-0.103172,2,0.02,0,0.100843,-0.307302,-0.0834477,0.594745,-0.0754943,-1.33809,-0.0303796,8.32667e-19,2.88889e-34,5.21603e-17,
99,10.1289,-60.9236,-8.19047,75.6844,-0.112764,-12,-0.295952,1.74149,-124.623,-1.60247,1955.76,0.630707,-95.121,-0.00243401,-0.0388826,0.223646,-0.010048,-2.266,-0.0515979,0.75252,-0.103292,2,0.02,0,0.100793,-0.306292,-0.0833597,0.594124,-0.0755,-1.33743,-0.0301756,5.55112e-19,-5.55112e-19,3.31929e-17,
100,7.32068,-61.4322,-5.14131,76.1834,-0.380955,-12,-0.153006,1.13136,-104.822,-0.995283,1931.72,0.663067,-88.5933,-0.000556703,-0.0384779,0.222425,-0.0103829,-2.26363,-0.051891,0.747174,-0.103413,2,0.02,0,0.101186,-0.305221,-0.0837279,0.593423,-0.0732731,-1.33671,-0.0301286,8.32667e-19,2.88889e-34,1.42255e-17,
101,7.31995,-61.3051,-5.1418,76.1393,-0.364632,-12,-0.149578,1.13136,-104.822,-0.995283,1931.72,0.663067,-88.5933,-0.000556703,-0.0381814,0.221206,-0.0106013,-2.26125,-0.0522645,0.74181,-0.103475,2,0.02,0,0.0741182,-0.304919,-0.0546041,0.594889,-0.093375,-1.34081,-0.0156009,-3.60822e-18,4.44089e-18,1.18546e-16,
102,7.31486,-61.1771,-5.13768,76.0951,-0.360523,-12,-0.147292,1.13136,-104.822,-0.995283,1931.72,0.663067,-88.5933,-0.000556703,-0.0378894,0.219987,-0.0108147,-2.25887,-0.0526517,0.73645,-0.103536,2,0.02,0,0.0730112,-0.304693,-0.0533501,0.59477,-0.0967951,-1.3401,-0.0152355,-2.77556e-18,3.05311e-18,1.51739e-16,
103,7.30982,-61.0483,-5.1335,76.0503,-0.359035,-12,-0.145342,1.13136,-104.822,-0.995283,1931.72,0.663067,-88.5933,-0.000556703,-0.0375975,0.21877,-0.0110275,-2.25649,-0.0530424,0.731094,-0.103597,2,0.02,0,0.0729545,-0.304298,-0.0532122,0.594436,-0.0976675,-1.339,-0.0151255,-1.94289e-18,2.498e-18,1.8019e-16,
104,7.30493,-60.9186,-5.1293,76.005,-0.357976,-12,-0.143483,1.13136,-104.822,-0.995283,1931.72,0.663067,-88.5933,-0.000556703,-0.0373058,0.217555,-0.01124,-2.25412,-0.0534342,0.725742,-0.103657,2,0.02,0,0.0729355,-0.30375,-0.0531171,0.594037,-0.0979641,-1.33798,-0.0149667,-1.38778e-18,1.66533e-18,1.51739e-16,
105,7.30015,-60.7879,-5.12506,75.959,-0.35679,-12,-0.141653,1.13136,-104.822,-0.995283,1931.72,0.663067,-88.5933,-0.000556703,-0.0370141,0.216342,-0.0114521,-2.25174,-0.0538266,0.720394,-0.103716,2,0.02,0,0.0729144,-0.303077,-0.0530257,0.593587,-0.0981012,-1.33705,-0.0147936,-1.11022e-18,1.11022e-18,1.04321e-16,
106,7.29548,-60.6562,-5.12074,75.9125,-0.355273,-12,-0.139834,1.13136,-104.822,-0.995283,1931.72,0.663067,-88.5933,-0.000556703,-0.0367226,0.215133,-0.0116639,-2.24937,-0.0542193,0.715049,-0.103774,2,0.02,0,0.0728906,-0.302301,-0.0529374,0.59309,-0.0981793,-1.33622,-0.0146176,-1.11022e-18,8.32667e-19,8.53531e-17,
107,7.29089,-60.5233,-5.11631,75.8655,-0.353089,-12,-0.137997,1.13136,-104.822,-0.995283,1931.72,0.663067,-88.5933,-0.000556703,-0.0364311,0.213927,-0.0118753,-2.247,-0.0546122,0.709707,-0.103832,2,0.02,0,0.0728643,-0.30144,-0.0528519,0.592547,-0.0982199,-1.33545,-0.0144412,-1.11022e-18,8.32667e-19,9.48368e-17,
108,7.28639,-60.3891,-5.1117,75.8185,-0.348413,-12,-0.13597,1.13136,-104.822,-0.995283,1931.72,0.663067,-88.5933,-0.000556703,-0.0361398,0.212725,-0.0120863,-2.24463,-0.0550051,0.704368,-0.103889,2,0.02,0,0.0728358,-0.300507,-0.0527683,0.591962,-0.0982089,-1.33474,-0.0142637,-1.11022e-18,5.55112e-19,9.48368e-17,
109,7.31219,-60.2527,-5.1393,75.7733,-0.31968,-12,-0.134962,1.13136,-104.822,-0.995283,1931.72,0.663067,-88.5933,-0.000556703,-0.0358485,0.211527,-0.0122971,-2.24227,-0.0553971,0.699032,-0.103945,2,0.02,0,0.0728062,-0.29951,-0.0526864,0.59134,-0.0980231,-1.33407,-0.0140737,-1.11022e-18,2.77556e-19,9.0095e-17,
110,5.352,-60.7595,-2.97423,76.2794,-0.524434,-12,-0.022819,0.748398,-84.9472,-0.595631,1907.85,0.697105,-82.071,0.000421244,-0.0355563,0.210334,-0.0125088,-2.2399,-0.0557819,0.693698,-0.104002,2,0.02,0,0.073073,-0.298453,-0.0529202,0.590655,-0.0961984,-1.33339,-0.0140434,-8.32667e-19,5.55112e-19,5.21603e-17,
111,5.35046,-60.6313,-2.97379,76.2324,-0.509298,-12,-0.0199704,0.748398,-84.9472,-0.595631,1907.85,0.697105,-82.071,0.000421244,-0.0353402,0.209141,-0.0126379,-2.23753,-0.0562283,0.68835,-0.104012,2,0.02,0,0.054014,-0.298146,-0.0322716,0.592033,-0.111594,-1.33721,-0.00271043,-8.32667e-19,5.55112e-19,2.37092e-17,
112,5.3463,-60.5022,-2.97048,76.1853,-0.503976,-12,-0.0179346,0.748398,-84.9472,-0.595631,1907.85,0.697105,-82.071,0.000421244,-0.035127,0.207949,-0.0127635,-2.23517,-0.0566847,0.683003,-0.104022,2,0.02,0,0.05331,-0.297899,-0.0314057,0.591971,-0.114095,-1.33663,-0.00236688,-2.77556e-19,8.32667e-19,1.89674e-17,
113,5.34222,-60.3723,-2.96709,76.1378,-0.500677,-12,-0.0161542,0.748398,-84.9472,-0.595631,1907.85,0.697105,-82.071,0.000421244,-0.0349138,0.206759,-0.0128886,-2.2328,-0.057143,0.677661,-0.104031,2,0.02,0,0.0532927,-0.297501,-0.0312883,0.591672,-0.114585,-1.33558,-0.00225014,-2.77556e-19,8.32667e-19,9.48368e-17,
114,5.33823,-60.2415,-2.96364,76.0896,-0.497618,-12,-0.0144493,0.748398,-84.9472,-0.595631,1907.85,0.697105,-82.071,0.000421244,-0.0347006,0.205572,-0.0130134,-2.23044,-0.0576015,0.672322,-0.104039,2,0.02,0,0.0532928,-0.29696,-0.0312001,0.591291,-0.114614,-1.33457,-0.00210021,-2.77556e-19,5.55112e-19,1.89674e-17,
115,5.33431,-60.1098,-2.96009,76.0409,-0.494345,-12,-0.0127753,0.748398,-84.9472,-0.595631,1907.85,0.697105,-82.071,0.000421244,-0.0344875,0.204386,-0.0131379,-2.22807,-0.0580595,0.666988,-0.104047,2,0.02,0,0.0532878,-0.296298,-0.0311164,0.590849,-0.11451,-1.33365,-0.00194046,-7.22224e-34,5.55112e-19,-9.48368e-18,
116,5.33045,-59.9772,-2.95642,75.9915,-0.490691,-12,-0.0111187,0.748398,-84.9472,-0.595631,1907.85,0.697105,-82.071,0.000421244,-0.0342744,0.203204,-0.013262,-2.22571,-0.0585169,0.661657,-0.104054,2,0.02,0,0.0532781,-0.295536,-0.0310364,0.590355,-0.114352,-1.33281,-0.0017794,5.55112e-19,5.55112e-19,-1.89674e-17,
117,5.32663,-59.8434,-2.95259,75.9417,-0.486384,-12,-0.00945921,0.748398,-84.9472,-0.595631,1907.85,0.697105,-82.071,0.000421244,-0.0340613,0.202025,-0.0133859,-2.22335,-0.0589736,0.656328,-0.104061,2,0.02,0,0.0532643,-0.29469,-0.0309597,0.589813,-0.114156,-1.33204,-0.00161903,-6.74075e-34,5.55112e-19,1.89674e-17,
118,5.32284,-59.7084,-2.94855,75.8916,-0.48013,-12,-0.00769047,0.748398,-84.9472,-0.595631,1907.85,0.697105,-82.071,0.000421244,-0.0338483,0.20085,-0.0135094,-2.22099,-0.0594292,0.651003,-0.104067,2,0.02,0,0.0532469,-0.293773,-0.0308855,0.589228,-0.113909,-1.33132,-0.00145882,2.77556e-19,8.32667e-19,1.89674e-17,
119,5.33961,-59.5712,-2.96633,75.8434,-0.459833,-12,-0.00756913,0.748398,-84.9472,-0.595631,1907.85,0.697105,-82.071,0.000421244,-0.0336354,0.199679,-0.0136327,-2.21864,-0.0598833,0.645681,-0.104072,2,0.02,0,0.0532266,-0.292793,-0.0308132,0.588606,-0.113525,-1.33066,-0.00129186,2.77556e-19,5.55112e-19,4.26766e-17,
120,3.97977,-60.075,-1.43389,76.356,-0.590225,-12,0.0860915,0.502676,-65.4428,-0.340869,1884.02,0.727923,-75.5704,0.000908662,-0.0334218,0.198512,-0.0137565,-2.21629,-0.060332,0.640361,-0.104077,2,0.02,0,0.0534035,-0.291752,-0.0309587,0.587939,-0.112181,-1.33001,-0.00131284,-6.74075e-34,5.55112e-19,6.16439e-17,
121,3.97771,-59.9458,-1.43326,76.3059,-0.577957,-12,0.0881645,0.502676,-65.4428,-0.340869,1884.02,0.727923,-75.5704,0.000908662,-0.0332616,0.197346,-0.0138221,-2.21393,-0.0608216,0.635026,-0.104045,2,0.02,0,0.0400591,-0.291428,-0.0163885,0.589207,-0.122395,-1.3335,0.00798148,2.77556e-19,2.77556e-19,8.06113e-17,
122,3.97403,-59.8158,-1.43074,76.2559,-0.572026,-12,0.0898303,0.502676,-65.4428,-0.340869,1884.02,0.727923,-75.5704,0.000908662,-0.0331031,0.196182,-0.0138852,-2.21157,-0.0613166,0.629694,-0.104012,2,0.02,0,0.0396131,-0.29116,-0.0157861,0.589206,-0.123758,-1.33306,0.00834795,2.77556e-19,5.55112e-19,8.06113e-17,
123,3.97043,-59.6849,-1.42813,76.2053,-0.567208,-12,0.0913403,0.502676,-65.4428,-0.340869,1884.02,0.727923,-75.5704,0.000908662,-0.0329446,0.195019,-0.013948,-2.20922,-0.0618119,0.624366,-0.103978,2,0.02,0,0.0396132,-0.29076,-0.0156872,0.588946,-0.123809,-1.33209,0.00846722,2.77556e-19,5.55112e-19,6.16439e-17,
124,3.96687,-59.5532,-1.42541,76.1542,-0.562343,-12,0.0927958,0.502676,-65.4428,-0.340869,1884.02,0.727923,-75.5704,0.000908662,-0.0327862,0.193858,-0.0140104,-2.20686,-0.0623061,0.619041,-0.103943,2,0.02,0,0.0396194,-0.290228,-0.0156096,0.588584,-0.123563,-1.3311,0.00860032,-6.74075e-34,5.55112e-19,2.37092e-17,
125,3.96336,-59.4207,-1.42256,76.1026,-0.557148,-12,0.0942213,0.502676,-65.4428,-0.340869,1884.02,0.727923,-75.5704,0.000908662,-0.0326277,0.1927,-0.0140725,-2.20451,-0.062799,0.613721,-0.103908,2,0.02,0,0.0396193,-0.28958,-0.0155368,0.588151,-0.123226,-1.33018,0.00873799,-2.77556e-19,8.32667e-19,2.37092e-17,
126,3.95988,-59.2872,-1.41957,76.0502,-0.551516,-12,0.0956239,0.502676,-65.4428,-0.340869,1884.02,0.727923,-75.5704,0.000908662,-0.0324692,0.191544,-0.0141344,-2.20216,-0.0632904,0.608403,-0.103873,2,0.02,0,0.0396138,-0.288835,-0.015468,0.58766,-0.122845,-1.32934,0.00887521,-2.77556e-19,1.11022e-18,-2.8451e-17,
127,3.95642,-59.1527,-1.41642,75.9973,-0.545258,-12,0.0970149,0.502676,-65.4428,-0.340869,1884.02,0.727923,-75.5704,0.000908662,-0.0323108,0.190392,-0.014196,-2.19981,-0.0637801,0.603089,-0.103837,2,0.02,0,0.0396038,-0.288006,-0.0154024,0.587118,-0.122425,-1.32856,0.00901069,-6.74075e-34,1.11022e-18,-9.48368e-17,
128,3.953,-59.017,-1.41309,75.9442,-0.537739,-12,0.0984366,0.502676,-65.4428,-0.340869,1884.02,0.727923,-75.5704,0.000908662,-0.0321525,0.189244,-0.0142574,-2.19747,-0.064268,0.597778,-0.1038,2,0.02,0,0.0395897,-0.287106,-0.0153393,0.586532,-0.121959,-1.32784,0.00914473,-6.74075e-34,8.32667e-19,-8.53531e-17,
129,3.9637,-58.8792,-1.42465,75.8928,-0.526247,-12,0.0976337,0.502676,-65.4428,-0.340869,1884.02,0.727923,-75.5704,0.000908662,-0.0319942,0.188099,-0.0143185,-2.19512,-0.0647536,0.592469,-0.103763,2,0.02,0,0.0395723,-0.286143,-0.0152787,0.585908,-0.1214,-1.32718,0.00927996,-2.77556e-19,8.32667e-19,-9.0095e-17,
130,3.02447,-59.3796,-0.341636,76.4114,-0.580381,-12,0.17913,0.322026,-50.4003,-0.203177,1859.39,0.728655,-69.2124,0.000712315,-0.0318354,0.186959,-0.01438,-2.19278,-0.0652358,0.587163,-0.103726,2,0.02,0,0.0396873,-0.28512,-0.0153668,0.585258,-0.12055,-1.32656,0.00919965,-2.77556e-19,8.32667e-19,-9.95787e-17,
131,3.02211,-59.2496,-0.341307,76.3582,-0.572129,-12,0.180366,0.322026,-50.4003,-0.203177,1859.39,0.728655,-69.2124,0.000712315,-0.0317139,0.18582,-0.0144005,-2.19044,-0.0657385,0.581844,-0.103658,2,0.02,0,0.0303752,-0.284776,-0.00513014,0.586416,-0.125684,-1.32972,0.0170834,-6.74075e-34,1.11022e-18,-8.53531e-17,
132,3.01865,-59.1188,-0.339615,76.3051,-0.566206,-12,0.181583,0.322026,-50.4003,-0.203177,1859.39,0.728655,-69.2124,0.000712315,-0.0315936,0.184682,-0.0144193,-2.18809,-0.0662419,0.576526,-0.103588,2,0.02,0,0.0300887,-0.284487,-0.00470707,0.586473,-0.12585,-1.32942,0.0174758,-2.77556e-19,8.32667e-19,-6.63858e-17,
133,3.01521,-58.9871,-0.33778,76.2515,-0.560309,-12,0.182742,0.322026,-50.4003,-0.203177,1859.39,0.728655,-69.2124,0.000712315,-0.0314732,0.183545,-0.0144378,-2.18575,-0.0667437,0.571212,-0.103518,2,0.02,0,0.0300932,-0.284088,-0.00462471,0.586251,-0.125457,-1.32852,0.0175889,-5.55112e-19,8.32667e-19,-3.79347e-17,
134,3.0118,-58.8547,-0.335815,76.1974,-0.554031,-12,0.183869,0.322026,-50.4003,-0.203177,1859.39,0.728655,-69.2124,0.000712315,-0.0313528,0.182411,-0.014456,-2.1834,-0.0672435,0.565902,-0.103447,2,0.02,0,0.0300986,-0.283566,-0.00455886,0.585907,-0.124958,-1.32755,0.0176974,-8.32667e-19,8.32667e-19,-7.58695e-17,
135,3.0084,-58.7214,-0.333713,76.1427,-0.547298,-12,0.184968,0.322026,-50.4003,-0.203177,1859.39,0.728655,-69.2124,0.000712315,-0.0312324,0.181279,-0.014474,-2.18106,-0.0677412,0.560595,-0.103376,2,0.02,0,0.0300977,-0.282934,-0.00449799,0.585481,-0.12442,-1.32664,0.0178054,-5.55112e-19,5.55112e-19,-9.48368e-17,
136,3.00502,-58.5872,-0.33147,76.0873,-0.540076,-12,0.18604,0.322026,-50.4003,-0.203177,1859.39,0.728655,-69.2124,0.000712315,-0.031112,0.18015,-0.0144918,-2.17872,-0.0682366,0.555292,-0.103304,2,0.02,0,0.0300916,-0.282207,-0.004441,0.584993,-0.12385,-1.32579,0.0179111,-5.55112e-19,2.77556e-19,-5.69021e-17,
137,3.00166,-58.4522,-0.329072,76.0313,-0.532264,-12,0.187088,0.322026,-50.4003,-0.203177,1859.39,0.728655,-69.2124,0.000712315,-0.0309917,0.179025,-0.0145094,-2.17638,-0.0687296,0.549992,-0.103232,2,0.02,0,0.0300809,-0.281397,-0.0043872,0.584451,-0.123246,-1.32501,0.0180142,-2.77556e-19,2.77556e-19,-7.58695e-17,
138,2.99838,-58.3161,-0.326575,75.975,-0.523809,-12,0.18811,0.322026,-50.4003,-0.203177,1859.39,0.728655,-69.2124,0.000712315,-0.0308715,0.177903,-0.0145267,-2.17405,-0.06922,0.544695,-0.10316,2,0.02,0,0.0300662,-0.280516,-0.00433597,0.583862,-0.122599,-1.32429,0.0181147,-2.77556e-19,2.77556e-19,-1.32772e-16,
139,3.00492,-58.1777,-0.334244,75.9205,-0.519059,-12,0.186618,0.322026,-50.4003,-0.203177,1859.39,0.728655,-69.2124,0.000712315,-0.0307513,0.176785,-0.0145438,-2.17171,-0.0697076,0.539401,-0.103087,2,0.02,0,0.0300485,-0.279572,-0.00428743,0.583235,-0.1219,-1.32363,0.0182124,-5.55112e-19,2.77556e-19,-1.70706e-16,
140,2.36112,-58.6754,0.427618,76.4447,-0.516165,-12,0.258477,0.192042,-40.5976,-0.130347,1834.84,0.739328,-62.863,0.000528232,-0.0306308,0.17567,-0.0145612,-2.16938,-0.0701932,0.534108,-0.103014,2,0.02,0,0.0301216,-0.278568,-0.00433833,0.582596,-0.121409,-1.32303,0.0180845,-8.32667e-19,-2.88889e-34,-1.70706e-16,
141,2.35852,-58.5448,0.427439,76.3883,-0.511196,-12,0.259009,0.192042,-40.5976,-0.130347,1834.84,0.739328,-62.863,0.000528232,-0.0305361,0.174557,-0.01455,-2.16705,-0.0706845,0.528805,-0.102915,2,0.02,0,0.0236581,-0.278203,0.00279683,0.583684,-0.122824,-1.32593,0.0248833,-1.11022e-18,-2.77556e-19,-9.48368e-17,
142,2.3551,-58.4133,0.428306,76.3321,-0.50543,-12,0.259766,0.192042,-40.5976,-0.130347,1834.84,0.739328,-62.863,0.000528232,-0.0304423,0.173446,-0.0145376,-2.16471,-0.0711729,0.523502,-0.102814,2,0.02,0,0.02347,-0.277902,0.00309355,0.583785,-0.122084,-1.32572,0.0252709,-1.11022e-18,-2.88889e-34,-1.42255e-17,
143,2.35165,-58.281,0.429345,76.2755,-0.498801,-12,0.260529,0.192042,-40.5976,-0.130347,1834.84,0.739328,-62.863,0.000528232,-0.0303484,0.172336,-0.014525,-2.16238,-0.0716583,0.518202,-0.102712,2,0.02,0,0.0234728,-0.277507,0.00316068,0.58359,-0.121348,-1.32487,0.0253637,-1.11022e-18,-2.88889e-34,-5.21603e-17,
144,2.34821,-58.148,0.430517,76.2183,-0.491505,-12,0.261274,0.192042,-40.5976,-0.130347,1834.84,0.739328,-62.863,0.000528232,-0.0302545,0.171228,-0.0145121,-2.16005,-0.0721409,0.512907,-0.102611,2,0.02,0,0.0234747,-0.276998,0.00321475,0.583258,-0.120654,-1.32393,0.0254399,-8.32667e-19,2.77556e-19,-1.42255e-17,
145,2.34477,-58.0142,0.431817,76.1606,-0.483645,-12,0.261993,0.192042,-40.5976,-0.130347,1834.84,0.739328,-62.863,0.000528232,-0.0301606,0.170122,-0.0144991,-2.15771,-0.0726207,0.507615,-0.102509,2,0.02,0,0.023471,-0.276384,0.00326389,0.582837,-0.119962,-1.32302,0.0255121,-1.38778e-18,5.55112e-19,1.42255e-17,
146,2.34134,-57.8796,0.433243,76.1021,-0.475255,-12,0.262679,0.192042,-40.5976,-0.130347,1834.84,0.739328,-62.863,0.000528232,-0.0300667,0.16902,-0.0144858,-2.15538,-0.0730977,0.502326,-0.102406,2,0.02,0,0.0234624,-0.275675,0.00330922,0.582348,-0.119249,-1.32217,0.0255807,-1.11022e-18,8.32667e-19,1.42255e-17,
147,2.33793,-57.7441,0.43479,76.043,-0.466362,-12,0.263331,0.192042,-40.5976,-0.130347,1834.84,0.739328,-62.863,0.000528232,-0.0299729,0.16792,-0.0144724,-2.15306,-0.0735717,0.49704,-0.102304,2,0.02,0,0.0234494,-0.274885,0.0033514,0.581803,-0.118505,-1.32139,0.0256459,-8.32667e-19,5.55112e-19,-1.42255e-17,
148,2.33471,-57.6077,0.436311,75.9835,-0.457765,-12,0.26389,0.192042,-40.5976,-0.130347,1834.84,0.739328,-62.863,0.000528232,-0.0298792,0.166824,-0.0144589,-2.15073,-0.0740426,0.491758,-0.102201,2,0.02,0,0.0234326,-0.274024,0.00339095,0.581211,-0.117723,-1.32067,0.0257075,-8.32667e-19,5.55112e-19,-1.42255e-17,
149,2.33865,-57.469,0.430738,75.926,-0.462421,-12,0.261804,0.192042,-40.5976,-0.130347,1834.84,0.739328,-62.863,0.000528232,-0.0297856,0.165732,-0.0144452,-2.14841,-0.0745104,0.486478,-0.102098,2,0.02,0,0.0234142,-0.2731,0.00342739,0.580581,-0.116951,-1.32001,0.0257619,-5.55112e-19,5.55112e-19,-7.11276e-17,
150,1.8998,-57.9782,0.964451,76.4551,-0.38115,-12,0.322237,0.106025,-34.7804,-0.0873497,1810.66,0.766108,-56.4752,0.000624799,-0.0296917,0.164643,-0.0144316,-2.14609,-0.0749784,0.4812,-0.101995,2,0.02,0,0.0234625,-0.272116,0.00340125,0.579954,-0.116992,-1.31944,0.0255955,-8.32667e-19,5.55112e-19,-3.31929e-17,
151,1.89728,-57.847,0.963404,76.3956,-0.382473,-12,0.321975,0.106025,-34.7804,-0.0873497,1810.66,0.766108,-56.4752,0.000624799,-0.0296158,0.163556,-0.0143983,-2.14377,-0.0754328,0.475912,-0.101871,2,0.02,0,0.0189856,-0.271765,0.00830401,0.580915,-0.11361,-1.32202,0.0311298,-8.32667e-19,5.55112e-19,-3.31929e-17,
152,1.8939,-57.7149,0.963371,76.3364,-0.378115,-12,0.322216,0.106025,-34.7804,-0.0873497,1810.66,0.766108,-56.4752,0.000624799,-0.0295404,0.16247,-0.0143643,-2.14144,-0.0758793,0.470624,-0.101745,2,0.02,0,0.0188474,-0.27147,0.00851318,0.581059,-0.111625,-1.32194,0.0314966,-8.32667e-19,2.77556e-19,-7.11276e-17,
153,1.89039,-57.582,0.963568,76.2768,-0.371463,-12,0.322544,0.106025,-34.7804,-0.0873497,1810.66,0.766108,-56.4752,0.000624799,-0.029465,0.161386,-0.01433,-2.13912,-0.0763212,0.465339,-0.101619,2,0.02,0,0.0188442,-0.271094,0.00856782,0.5809,-0.110473,-1.32118,0.0315684,-5.55112e-19,5.55112e-19,-2.37092e-17,
154,1.88684,-57.4485,0.963902,76.2167,-0.363681,-12,0.322876,0.106025,-34.7804,-0.0873497,1810.66,0.766108,-56.4752,0.000624799,-0.0293896,0.160303,-0.0142956,-2.1368,-0.0767596,0.460058,-0.101492,2,0.02,0,0.018842,-0.270611,0.00861153,0.580586,-0.109593,-1.32026,0.0316106,-5.55112e-19,5.55112e-19,-2.37092e-17,
155,1.88329,-57.3142,0.964349,76.1559,-0.355163,-12,0.323186,0.106025,-34.7804,-0.0873497,1810.66,0.766108,-56.4752,0.000624799,-0.0293143,0.159223,-0.014261,-2.13448,-0.0771947,0.454781,-0.101366,2,0.02,0,0.0188356,-0.270023,0.00865024,0.580174,-0.108781,-1.31936,0.0316444,-2.77556e-19,2.77556e-19,-2.37092e-17,
156,1.87975,-57.1792,0.964899,76.0945,-0.346049,-12,0.323462,0.106025,-34.7804,-0.0873497,1810.66,0.766108,-56.4752,0.000624799,-0.029239,0.158146,-0.0142262,-2.13216,-0.0776266,0.449507,-0.101239,2,0.02,0,0.0188247,-0.269342,0.00868505,0.579689,-0.107967,-1.31852,0.0316734,-2.77556e-19,2.77556e-19,1.42255e-17,
157,1.87623,-57.0435,0.96553,76.0324,-0.336503,-12,0.323694,0.106025,-34.7804,-0.0873497,1810.66,0.766108,-56.4752,0.000624799,-0.0291637,0.157072,-0.0141914,-2.12984,-0.0780551,0.444236,-0.101112,2,0.02,0,0.0188097,-0.268578,0.00871659,0.579146,-0.107126,-1.31774,0.0316982,-2.77556e-19,-2.88889e-34,-4.74184e-17,
158,1.87302,-56.907,0.966012,75.9698,-0.328137,-12,0.323789,0.106025,-34.7804,-0.0873497,1810.66,0.766108,-56.4752,0.000624799,-0.0290886,0.156001,-0.0141564,-2.12753,-0.0784801,0.438968,-0.100985,2,0.02,0,0.0187912,-0.267743,0.0087453,0.578553,-0.106254,-1.31701,0.0317186,-8.32667e-19,-2.88889e-34,-4.74184e-17,
159,1.87513,-56.7681,0.961647,75.9096,-0.341047,-12,0.321128,0.106025,-34.7804,-0.0873497,1810.66,0.766108,-56.4752,0.000624799,-0.0290135,0.154933,-0.0141213,-2.12522,-0.0789019,0.433702,-0.100858,2,0.02,0,0.0187726,-0.266845,0.0087706,0.577922,-0.105447,-1.31635,0.0317288,-8.32667e-19,-2.77556e-19,-8.53531e-17,
160,1.58731,-57.2092,1.32341,76.4434,-0.183876,-12,0.376689,0.0549197,-31.5663,-0.056516,1786.83,0.800209,-50.0549,0.00093304,-0.0289383,0.15387,-0.0140863,-2.12291,-0.0793257,0.428439,-0.100732,2,0.02,0,0.0188063,-0.265885,0.008763,0.577308,-0.105947,-1.3158,0.0315184,-8.32667e-19,-2.88889e-34,-1.32772e-16,
161,1.58499,-57.0782,1.32143,76.3811,-0.191956,-12,0.375698,0.0549197,-31.5663,-0.056516,1786.83,0.800209,-50.0549,0.00093304,-0.0288751,0.152808,-0.0140384,-2.12059,-0.0797181,0.423167,-0.100586,2,0.02,0,0.0157926,-0.265358,0.011963,0.578282,-0.098099,-1.31807,0.0364483,-8.32667e-19,2.77556e-19,-7.58695e-17,
162,1.58162,-56.9462,1.32052,76.3191,-0.189355,-12,0.375438,0.0549197,-31.5663,-0.056516,1786.83,0.800209,-50.0549,0.00093304,-0.0288124,0.151748,-0.01399,-2.11828,-0.0800975,0.417895,-0.100439,2,0.02,0,0.0156785,-0.264947,0.0121049,0.578502,-0.0948554,-1.31804,0.0368103,-2.77556e-19,2.77556e-19,-1.13804e-16,
163,1.57801,-56.8136,1.31991,76.2568,-0.182957,-12,0.375335,0.0549197,-31.5663,-0.056516,1786.83,0.800209,-50.0549,0.00093304,-0.0287497,0.15069,-0.0139414,-2.11597,-0.0804706,0.412625,-0.100292,2,0.02,0,0.0156683,-0.264504,0.0121492,0.578379,-0.0932759,-1.31731,0.0368581,-8.32667e-19,2.77556e-19,-7.58695e-17,
164,1.57433,-56.6804,1.31944,76.194,-0.174968,-12,0.375254,0.0549197,-31.5663,-0.056516,1786.83,0.800209,-50.0549,0.00093304,-0.0286871,0.149634,-0.0138926,-2.11365,-0.0808395,0.40736,-0.100144,2,0.02,0,0.0156631,-0.263984,0.012185,0.578074,-0.0922192,-1.31641,0.0368652,-8.32667e-19,2.77556e-19,-7.58695e-17,
165,1.57063,-56.5466,1.31908,76.1306,-0.166103,-12,0.375155,0.0549197,-31.5663,-0.056516,1786.83,0.800209,-50.0549,0.00093304,-0.0286244,0.148581,-0.0138438,-2.11134,-0.0812047,0.402098,-0.0999969,2,0.02,0,0.0156553,-0.263378,0.0122159,0.577658,-0.0913111,-1.31552,0.0368605,-8.32667e-19,-2.88889e-34,-7.58695e-17,
166,1.56693,-56.4123,1.3188,76.0666,-0.15659,-12,0.375024,0.0549197,-31.5663,-0.056516,1786.83,0.800209,-50.0549,0.00093304,-0.0285619,0.14753,-0.0137948,-2.10903,-0.0815665,0.396839,-0.0998495,2,0.02,0,0.0156435,-0.262688,0.0122427,0.577162,-0.0904277,-1.31468,0.0368497,-5.55112e-19,-2.88889e-34,-8.53531e-17,
167,1.56325,-56.2775,1.3186,76.0018,-0.146533,-12,0.374855,0.0549197,-31.5663,-0.056516,1786.83,0.800209,-50.0549,0.00093304,-0.0284994,0.146483,-0.0137457,-2.10673,-0.0819246,0.391583,-0.0997021,2,0.02,0,0.0156277,-0.261924,0.0122661,0.576606,-0.0895259,-1.31392,0.0368344,-5.55112e-19,-2.88889e-34,-8.53531e-17,
168,1.55975,-56.1421,1.31835,75.9366,-0.136863,-12,0.3746,0.0549197,-31.5663,-0.056516,1786.83,0.800209,-50.0549,0.00093304,-0.0284369,0.145438,-0.0136966,-2.10442,-0.0822789,0.386331,-0.0995549,2,0.02,0,0.0156082,-0.261094,0.0122863,0.576,-0.0885915,-1.31321,0.0368148,-8.32667e-19,-2.88889e-34,-8.53531e-17,
169,1.55988,-56.0047,1.31496,75.8736,-0.140852,-12,0.371709,0.0549197,-31.5663,-0.056516,1786.83,0.800209,-50.0549,0.00093304,-0.0283746,0.144397,-0.0136474,-2.10212,-0.0826296,0.38108,-0.0994077,2,0.02,0,0.0155873,-0.260206,0.0123034,0.575355,-0.0876725,-1.31255,0.0367884,-1.11022e-18,-2.77556e-19,-4.74184e-17,
170,1.36737,-56.2163,1.56893,76.4134,-0.049218,-12,0.435399,0.0283044,-29.9068,-0.0310764,1763.25,0.834044,-43.6194,0.00133874,-0.0283122,0.14336,-0.0135982,-2.09982,-0.0829799,0.375832,-0.0992616,2,0.02,0,0.0156019,-0.25926,0.012299,0.574712,-0.087571,-1.31199,0.0365373,-1.11022e-18,-2.88889e-34,-9.48368e-18,
171,1.36432,-56.0887,1.56694,76.349,-0.0505993,-12,0.434338,0.0283044,-29.9068,-0.0310764,1763.25,0.834044,-43.6194,0.00133874,-0.028258,0.142328,-0.01354,-2.09752,-0.0833136,0.370575,-0.0990921,2,0.02,0,0.0135387,-0.258155,0.0145353,0.576198,-0.0834146,-1.31445,0.0423606,-8.32667e-19,-2.88889e-34,-3.79347e-17,
172,1.36068,-55.9602,1.56556,76.285,-0.045819,-12,0.433785,0.0283044,-29.9068,-0.0310764,1763.25,0.834044,-43.6194,0.00133874,-0.0282041,0.141298,-0.0134815,-2.09521,-0.0836382,0.365318,-0.0989213,2,0.02,0,0.0134663,-0.257408,0.0146277,0.5765,-0.0811669,-1.31412,0.0426935,-1.11022e-18,-2.88889e-34,1.89674e-17,
173,1.3569,-55.8311,1.56436,76.2208,-0.0384641,-12,0.433306,0.0283044,-29.9068,-0.0310764,1763.25,0.834044,-43.6194,0.00133874,-0.0281503,0.140271,-0.0134229,-2.09291,-0.0839576,0.360065,-0.0987506,2,0.02,0,0.0134547,-0.256739,0.0146572,0.576354,-0.0798316,-1.31318,0.0426858,-8.32667e-19,-2.88889e-34,4.26766e-17,
174,1.35306,-55.7015,1.56327,76.1563,-0.029863,-12,0.432824,0.0283044,-29.9068,-0.0310764,1763.25,0.834044,-43.6194,0.00133874,-0.0280965,0.139247,-0.0133642,-2.0906,-0.0842728,0.354817,-0.09858,2,0.02,0,0.0134444,-0.256059,0.014681,0.575999,-0.0788138,-1.31221,0.0426464,-5.55112e-19,-2.88889e-34,8.06113e-17,
175,1.3492,-55.5713,1.56225,76.0917,-0.0204983,-12,0.432313,0.0283044,-29.9068,-0.0310764,1763.25,0.834044,-43.6194,0.00133874,-0.0280428,0.138225,-0.0133054,-2.0883,-0.0845844,0.349571,-0.0984096,2,0.02,0,0.0134313,-0.255336,0.014701,0.575526,-0.0778871,-1.31132,0.0425988,-2.77556e-19,2.77556e-19,3.31929e-17,
176,1.34534,-55.4402,1.5613,76.0271,-0.0105778,-12,0.431762,0.0283044,-29.9068,-0.0310764,1763.25,0.834044,-43.6194,0.00133874,-0.0279892,0.137207,-0.0132465,-2.086,-0.0848922,0.344329,-0.0982394,2,0.02,0,0.0134146,-0.254561,0.0147174,0.574979,-0.0769688,-1.31052,0.0425461,-2.77556e-19,5.55112e-19,6.16439e-17,
177,1.34151,-55.3076,1.5604,75.963,-0.00042992,-12,0.431152,0.0283044,-29.9068,-0.0310764,1763.25,0.834044,-43.6194,0.00133874,-0.0279356,0.136192,-0.0131876,-2.0837,-0.0851964,0.33909,-0.0980695,2,0.02,0,0.0133944,-0.253734,0.0147307,0.57438,-0.0760309,-1.30981,0.0424887,-5.55112e-19,8.32667e-19,6.16439e-17,
178,1.33801,-55.1727,1.55932,75.9001,0.00783404,-12,0.430397,0.0283044,-29.9068,-0.0310764,1763.25,0.834044,-43.6194,0.00133874,-0.0278821,0.135181,-0.0131286,-2.08141,-0.0854967,0.333853,-0.0978998,2,0.02,0,0.0133712,-0.252854,0.0147414,0.573746,-0.0750781,-1.30917,0.0424259,-2.77556e-19,8.32667e-19,4.26766e-17,
179,1.33771,-55.0326,1.55579,75.8416,-0.00435182,-12,0.427376,0.0283044,-29.9068,-0.0310764,1763.25,0.834044,-43.6194,0.00133874,-0.0278287,0.134173,-0.0130696,-2.07912,-0.0857936,0.328619,-0.0977304,2,0.02,0,0.0133492,-0.251922,0.0147498,0.573095,-0.0742345,-1.30859,0.0423521,-6.74075e-34,5.55112e-19,-4.74184e-18,
180,1.21018,-55.3227,1.73032,76.3942,0.0953188,-12,0.474731,0.0167782,-29.1148,-0.00946107,1739.84,0.863848,-37.1836,0.00177194,-0.0277752,0.133169,-0.0130106,-2.07683,-0.0860921,0.323386,-0.097562,2,0.02,0,0.0133642,-0.250929,0.0147522,0.572484,-0.0746299,-1.30813,0.0420933,-6.74075e-34,2.77556e-19,-1.42255e-17,
181,1.20362,-55.2146,1.72435,76.2786,0.13598,-12,0.475879,0.0167782,-29.1148,-0.00946107,1739.84,0.863848,-37.1836,0.00177194,-0.0277274,0.13217,-0.0129457,-2.07453,-0.0863729,0.318144,-0.0973765,2,0.02,0,0.0119532,-0.249944,0.0162329,0.573906,-0.0701858,-1.31056,0.0463771,-6.74075e-34,-2.88889e-34,-6.16439e-17,
182,1.19708,-55.1041,1.71877,76.1663,0.175815,-12,0.477058,0.0167782,-29.1148,-0.00946107,1739.84,0.863848,-37.1836,0.00177194,-0.02768,0.131172,-0.0128808,-2.07223,-0.0866343,0.312905,-0.0971895,2,0.02,0,0.0118592,-0.249414,0.0162285,0.573863,-0.065362,-1.30989,0.0467571,-5.55112e-19,5.55112e-19,-1.42255e-17,
183,1.19061,-54.9917,1.71339,76.0559,0.215003,-12,0.478096,0.0167782,-29.1148,-0.00946107,1739.84,0.863848,-37.1836,0.00177194,-0.0276328,0.130176,-0.012816,-2.06994,-0.0868779,0.30767,-0.0970019,2,0.02,0,0.0117952,-0.248979,0.0161857,0.573322,-0.0609002,-1.30873,0.0469011,-5.55112e-19,8.32667e-19,1.42255e-17,
184,1.18419,-54.8779,1.70816,75.9467,0.253431,-12,0.47899,0.0167782,-29.1148,-0.00946107,1739.84,0.863848,-37.1836,0.00177194,-0.0275859,0.129182,-0.0127515,-2.06765,-0.0871048,0.302439,-0.0968138,2,0.02,0,0.0117326,-0.248527,0.0161427,0.572569,-0.0567263,-1.30764,0.0470148,-5.55112e-19,8.32667e-19,1.42255e-17,
185,1.17783,-54.7629,1.70302,75.8383,0.291125,-12,0.47975,0.0167782,-29.1148,-0.00946107,1739.84,0.863848,-37.1836,0.00177194,-0.0275392,0.12819,-0.0126871,-2.06536,-0.0873158,0.297212,-0.0966253,2,0.02,0,0.0116707,-0.248024,0.0161,0.571703,-0.0527495,-1.3067,0.0471109,-2.77556e-19,8.32667e-19,-1.42255e-17,
186,1.1715,-54.6472,1.69796,75.7298,0.32827,-12,0.480394,0.0167782,-29.1148,-0.00946107,1739.84,0.863848,-37.1836,0.00177194,-0.0274928,0.1272,-0.0126228,-2.06308,-0.0875115,0.291989,-0.0964366,2,0.02,0,0.0116088,-0.247461,0.0160571,0.570767,-0.048912,-1.30588,0.0471922,-5.55112e-19,5.55112e-19,-5.21603e-17,
187,1.16515,-54.5314,1.69295,75.6206,0.365489,-12,0.480957,0.0167782,-29.1148,-0.00946107,1739.84,0.863848,-37.1836,0.00177194,-0.0274466,0.126213,-0.0125588,-2.0608,-0.0876922,0.286768,-0.0962475,2,0.02,0,0.0115465,-0.246841,0.0160135,0.569777,-0.0451725,-1.30516,0.0472607,-5.55112e-19,8.32667e-19,-1.04321e-16,
188,1.15877,-54.4166,1.68795,75.5098,0.404547,-12,0.481535,0.0167782,-29.1148,-0.00946107,1739.84,0.863848,-37.1836,0.00177194,-0.0274007,0.125228,-0.0124949,-2.05853,-0.0878581,0.28155,-0.0960583,2,0.02,0,0.0114826,-0.246169,0.0159686,0.56874,-0.0414747,-1.30449,0.0473194,-5.55112e-19,8.32667e-19,-1.2803e-16,
189,1.15595,-54.2989,1.68032,75.4051,0.432723,-12,0.481212,0.0167782,-29.1148,-0.00946107,1739.84,0.863848,-37.1836,0.00177194,-0.027355,0.124246,-0.0124312,-2.05626,-0.0880088,0.276335,-0.0958688,2,0.02,0,0.0114159,-0.245457,0.0159199,0.567655,-0.0376929,-1.30387,0.0473762,-8.32667e-19,8.32667e-19,-1.18546e-16,
190,1.0634,-54.7681,1.7907,75.7922,0.585667,-12,0.51349,0.0133006,-28.7772,0.00823741,1716.53,0.888623,-30.758,0.0022021,-0.0273095,0.123267,-0.0123678,-2.05399,-0.0881469,0.271121,-0.0956793,2,0.02,0,0.0113841,-0.244689,0.0158533,0.566589,-0.0345131,-1.30335,0.0473631,-8.32667e-19,1.11022e-18,-1.18546e-16,
191,1.06221,-54.6335,1.78781,75.7388,0.558382,-12,0.511018,0.0133006,-28.7772,0.00823741,1716.53,0.888623,-30.758,0.0022021,-0.0272681,0.12229,-0.0123009,-2.05172,-0.0882482,0.265901,-0.0954783,2,0.02,0,0.0103344,-0.244482,0.0167203,0.566721,-0.0253239,-1.30496,0.0502394,-1.11022e-18,5.55112e-19,-4.26766e-17,
192,1.05985,-54.4986,1.78566,75.685,0.545837,-12,0.509143,0.0133006,-28.7772,0.00823741,1716.53,0.888623,-30.758,0.0022021,-0.027227,0.121313,-0.0122339,-2.04946,-0.0883392,0.26068,-0.095277,2,0.02,0,0.0102674,-0.24418,0.0167667,0.566694,-0.0227605,-1.30534,0.0503416,-8.32667e-19,5.55112e-19,-1.09062e-16,
193,1.05714,-54.3632,1.78373,75.631,0.538453,-12,0.507399,0.0133006,-28.7772,0.00823741,1716.53,0.888623,-30.758,0.0022021,-0.027186,0.120338,-0.0121667,-2.04719,-0.0884284,0.25546,-0.0950761,2,0.02,0,0.0102696,-0.243773,0.0168001,0.56651,-0.0223017,-1.30506,0.0502171,-8.32667e-19,5.55112e-19,-1.09062e-16,
194,1.0543,-54.2275,1.78186,75.5765,0.533166,-12,0.505671,0.0133006,-28.7772,0.00823741,1716.53,0.888623,-30.758,0.0022021,-0.0271448,0.119365,-0.0120993,-2.04493,-0.0885184,0.250242,-0.0948759,2,0.02,0,0.0102824,-0.243259,0.0168312,0.566223,-0.0224864,-1.3045,0.0500579,-1.11022e-18,2.77556e-19,-9.95787e-17,
195,1.05142,-54.0916,1.78,75.5216,0.528987,-12,0.503923,0.0133006,-28.7772,0.00823741,1716.53,0.888623,-30.758,0.0022021,-0.0271037,0.118394,-0.0120319,-2.04266,-0.0886098,0.245026,-0.0946763,2,0.02,0,0.0102942,-0.242647,0.0168576,0.565867,-0.0228489,-1.30384,0.0498876,-1.38778e-18,5.55112e-19,-7.11276e-17,
196,1.04851,-53.9555,1.77815,75.4662,0.525627,-12,0.502143,0.0133006,-28.7772,0.00823741,1716.53,0.888623,-30.758,0.0022021,-0.0270625,0.117426,-0.0119644,-2.0404,-0.0887027,0.239814,-0.0944775,2,0.02,0,0.0103018,-0.241948,0.016879,0.565457,-0.0232375,-1.30317,0.0497114,-1.11022e-18,8.32667e-19,-2.37092e-17,
197,1.0456,-53.8193,1.77626,75.4102,0.523028,-12,0.500333,0.0133006,-28.7772,0.00823741,1716.53,0.888623,-30.758,0.0022021,-0.0270212,0.116462,-0.0118968,-2.03814,-0.0887971,0.234604,-0.0942794,2,0.02,0,0.0103047,-0.241176,0.0168956,0.565003,-0.0235989,-1.30252,0.0495306,-8.32667e-19,2.77556e-19,-9.0095e-17,
198,1.04341,-53.6825,1.77378,75.3548,0.518276,-12,0.498485,0.0133006,-28.7772,0.00823741,1716.53,0.888623,-30.758,0.0022021,-0.02698,0.1155,-0.0118292,-2.03588,-0.0888928,0.229396,-0.094082,2,0.02,0,0.0103032,-0.240341,0.0169076,0.56451,-0.0239117,-1.3019,0.0493463,-8.32667e-19,-2.40741e-34,-9.0095e-17,
199,1.0495,-53.5301,1.76757,75.323,0.441229,-12,0.49491,0.0133006,-28.7772,0.00823741,1716.53,0.888623,-30.758,0.0022021,-0.0269388,0.114542,-0.0117615,-2.03363,-0.0889901,0.224191,-0.0938853,2,0.02,0,0.0103061,-0.239451,0.0169128,0.563993,-0.0243313,-1.30131,0.0491609,-1.11022e-18,-2.77556e-19,-1.2803e-16,
200,0.986959,-54.069,1.81207,75.7594,1.1159,-12,0.533151,0.0133714,-28.6608,0.0218985,1693.28,0.908766,-24.3489,0.0026197,-0.0268971,0.113589,-0.0116937,-2.03137,-0.0891057,0.218986,-0.0936898,2,0.02,0,0.0104235,-0.238441,0.0169565,0.563696,-0.0289083,-1.30108,0.048885,-1.11022e-18,-2.40741e-34,-1.2803e-16,
201,0.98979,-53.9334,1.80631,75.7045,1.03577,-12,0.529168,0.0133714,-28.6608,0.0218985,1693.28,0.908766,-24.3489,0.0026197,-0.0268593,0.112636,-0.0116272,-2.02912,-0.0890804,0.213783,-0.0934829,2,0.02,0,0.0094479,-0.238224,0.0166191,0.563443,0.00633298,-1.30094,0.051727,-1.66533e-18,-2.77556e-19,-9.0095e-17,
202,0.988626,-53.7974,1.80274,75.6491,1.00551,-12,0.526669,0.0133714,-28.6608,0.0218985,1693.28,0.908766,-24.3489,0.0026197,-0.0268225,0.111684,-0.0115609,-2.02686,-0.089012,0.208576,-0.0932749,2,0.02,0,0.00920288,-0.237855,0.0165831,0.563765,0.017092,-1.30164,0.0519927,-1.38778e-18,-2.40741e-34,-8.06113e-17,
203,0.986207,-53.6609,1.79984,75.5934,0.991398,-12,0.524598,0.0133714,-28.6608,0.0218985,1693.28,0.908766,-24.3489,0.0026197,-0.0267858,0.110735,-0.0114944,-2.02461,-0.0889312,0.20337,-0.0930673,2,0.02,0,0.00917517,-0.237463,0.0166235,0.563881,0.0201924,-1.30159,0.0519131,-1.38778e-18,-2.40741e-34,-3.31929e-17,
204,0.983388,-53.5242,1.79716,75.5373,0.982676,-12,0.522645,0.0133714,-28.6608,0.0218985,1693.28,0.908766,-24.3489,0.0026197,-0.026749,0.109786,-0.0114277,-2.02235,-0.0888479,0.198165,-0.0928602,2,0.02,0,0.00920637,-0.237013,0.0166795,0.563789,0.0208397,-1.30107,0.0517556,-1.38778e-18,2.77556e-19,-3.31929e-17,
205,0.980435,-53.3873,1.79454,75.4807,0.975892,-12,0.520712,0.0133714,-28.6608,0.0218985,1693.28,0.908766,-24.3489,0.0026197,-0.026712,0.108841,-0.0113607,-2.0201,-0.0887652,0.192964,-0.0926539,2,0.02,0,0.00924882,-0.236484,0.0167335,0.56356,0.0206837,-1.30037,0.0515741,-1.38778e-18,2.77556e-19,4.74184e-18,
206,0.977406,-53.2502,1.79196,75.4237,0.970159,-12,0.518772,0.0133714,-28.6608,0.0218985,1693.28,0.908766,-24.3489,0.0026197,-0.0266748,0.107897,-0.0112936,-2.01784,-0.0886841,0.187765,-0.0924484,2,0.02,0,0.00928838,-0.23587,0.0167807,0.563241,0.020262,-1.29964,0.0513833,-1.11022e-18,-2.77556e-19,-4.74184e-18,
207,0.974193,-53.1132,1.78948,75.3661,0.96647,-12,0.516855,0.0133714,-28.6608,0.0218985,1693.28,0.908766,-24.3489,0.0026197,-0.0266375,0.106956,-0.0112263,-2.01559,-0.088605,0.18257,-0.0922437,2,0.02,0,0.00932087,-0.235179,0.0168201,0.562855,0.0197683,-1.29893,0.0511878,-1.11022e-18,-2.77556e-19,-6.16439e-17,
208,0.970506,-52.9754,1.78722,75.3091,0.970046,-11.9497,0.515159,0.0133714,-28.6608,0.0218985,1693.28,0.908766,-24.3489,0.0026197,-0.0266002,0.106019,-0.0111589,-2.01334,-0.0885276,0.177377,-0.0920397,2,0.02,0,0.0093434,-0.234418,0.0168511,0.562415,0.0193472,-1.29824,0.0509919,-1.38778e-18,-2.40741e-34,-4.74184e-18,
209,0.970987,-52.824,1.78198,75.2714,0.973956,-11.997,0.514689,0.0133714,-28.6608,0.0218985,1693.28,0.908766,-24.3489,0.0026197,-0.0265628,0.105084,-0.0110915,-2.0111,-0.0884497,0.172198,-0.0918364,2,0.02,0,0.00933517,-0.23362,0.016853,0.561667,0.01948,-1.29478,0.050816,-1.11022e-18,-2.77556e-19,-6.16439e-17,
210,0.918079,-53.3673,1.85675,75.7301,0.949396,-11.5012,0.513343,0.0145209,-28.6412,0.0318099,1670.07,0.925162,-17.9603,0.00302377,-0.0265253,0.104154,-0.0110241,-2.00885,-0.0883718,0.167014,-0.0916334,2,0.02,0,0.0093775,-0.23261,0.0168459,0.561532,0.0194808,-1.29583,0.0507515,-8.32667e-19,-5.55112e-19,-6.63858e-17,
211,0.915714,-53.2288,1.85372,75.6757,0.94904,-11.422,0.511922,0.0145209,-28.6412,0.0318099,1670.07,0.925162,-17.9603,0.00302377,-0.0264905,0.103223,-0.0109545,-2.00661,-0.0882973,0.161932,-0.0914307,2,0.02,0,0.00869986,-0.232698,0.0174131,0.559889,0.0186352,-1.27046,0.0506751,-8.32667e-19,-2.77556e-19,-1.04321e-16,
212,0.913252,-53.0907,1.85073,75.6197,0.945903,-11.3267,0.510304,0.0145209,-28.6412,0.0318099,1670.07,0.925162,-17.9603,0.00302377,-0.0264558,0.102294,-0.0108848,-2.00437,-0.0882266,0.156912,-0.0912286,2,0.02,0,0.00866791,-0.232221,0.0174172,0.559821,0.0176571,-1.25521,0.0505179,-8.32667e-19,-5.55112e-19,-7.58695e-17,
213,0.910818,-52.9525,1.8477,75.563,0.941676,-11.2259,0.508603,0.0145209,-28.6412,0.0318099,1670.07,0.925162,-17.9603,0.00302377,-0.0264212,0.101367,-0.0108152,-2.00213,-0.0881588,0.151941,-0.0910273,2,0.02,0,0.00865987,-0.231645,0.017408,0.559854,0.016957,-1.24265,0.0503455,-5.55112e-19,-2.88889e-34,-2.8451e-17,
214,0.908395,-52.8142,1.84462,75.5058,0.937234,-11.123,0.50686,0.0145209,-28.6412,0.0318099,1670.07,0.925162,-17.9603,0.00302377,-0.0263866,0.100443,-0.0107456,-1.99989,-0.0880931,0.147017,-0.0908266,2,0.02,0,0.00865122,-0.231029,0.0173968,0.559756,0.0164155,-1.23094,0.0501699,-4.81482e-34,2.77556e-19,-1.89674e-17,
215,0.905972,-52.6757,1.84151,75.448,0.932938,-11.0188,0.50509,0.0145209,-28.6412,0.0318099,1670.07,0.925162,-17.9603,0.00302377,-0.026352,0.0995219,-0.0106761,-1.99766,-0.0880294,0.142139,-0.0906266,2,0.02,0,0.00864115,-0.230369,0.0173843,0.559528,0.0159414,-1.21955,0.0499927,-4.81482e-34,2.77556e-19,9.48368e-18,
216,0.903534,-52.5374,1.83836,75.3896,0.928994,-10.914,0.503301,0.0145209,-28.6412,0.0318099,1670.07,0.925162,-17.9603,0.00302377,-0.0263175,0.0986033,-0.0106066,-1.99542,-0.0879674,0.137306,-0.0904274,2,0.02,0,0.00863,-0.229656,0.0173705,0.559202,0.0154987,-1.20831,0.049814,-2.77556e-19,-2.88889e-34,1.42255e-17,
217,0.901072,-52.3992,1.83517,75.3305,0.925734,-10.8097,0.501509,0.0145209,-28.6412,0.0318099,1670.07,0.925162,-17.9603,0.00302377,-0.026283,0.0976877,-0.0105372,-1.99318,-0.0879071,0.132517,-0.0902288,2,0.02,0,0.00861785,-0.22889,0.0173554,0.558802,0.0150811,-1.19715,0.0496335,-5.55112e-19,2.77556e-19,7.11276e-17,
218,0.899046,-52.2604,1.83161,75.2719,0.921905,-10.718,0.499797,0.0145209,-28.6412,0.0318099,1670.07,0.925162,-17.9603,0.00302377,-0.0262486,0.0967754,-0.0104678,-1.99095,-0.0878482,0.127773,-0.090031,2,0.02,0,0.00860462,-0.228072,0.017339,0.558352,0.0147031,-1.18609,0.0494525,-2.77556e-19,-2.88889e-34,5.21603e-17,
219,0.903418,-52.1059,1.8257,75.2358,0.865538,-10.806,0.498536,0.0145209,-28.6412,0.0318099,1670.07,0.925162,-17.9603,0.00302377,-0.0262142,0.0958666,-0.0103985,-1.98872,-0.0877911,0.12307,-0.0898339,2,0.02,0,0.00859851,-0.227196,0.0173228,0.557931,0.0142753,-1.17581,0.0492783,2.77556e-19,-2.77556e-19,3.31929e-17,
220,0.873175,-52.7135,1.83738,75.6972,1.32175,-10.1678,0.506467,0.0156303,-28.6554,0.0385915,1646.87,0.938719,-11.5941,0.00341576,-0.0261793,0.0949623,-0.0103289,-1.98648,-0.0877491,0.118365,-0.0896373,2,0.02,0,0.00873773,-0.226092,0.0174,0.558608,0.0105027,-1.17611,0.0491612,2.77556e-19,-2.77556e-19,5.69021e-17,
221,0.875134,-52.5738,1.83203,75.6423,1.2691,-10.0983,0.504101,0.0156303,-28.6554,0.0385915,1646.87,0.938719,-11.5941,0.00341576,-0.0261473,0.0940563,-0.0102618,-1.98426,-0.0876102,0.113802,-0.0894387,2,0.02,0,0.00798443,-0.226498,0.0167821,0.555915,0.0347405,-1.14087,0.0496433,-4.81482e-34,-5.55112e-19,1.89674e-17,
222,0.874202,-52.4346,1.82787,75.5848,1.24768,-10.0071,0.502102,0.0156303,-28.6554,0.0385915,1646.87,0.938719,-11.5941,0.00341576,-0.0261162,0.0931523,-0.010195,-1.98203,-0.0874435,0.109309,-0.0892402,2,0.02,0,0.00778135,-0.226,0.0167031,0.556345,0.0416557,-1.12312,0.0496316,-4.81482e-34,-5.55112e-19,-1.57156e-31,
223,0.872393,-52.2948,1.82404,75.5264,1.23625,-9.90995,0.500213,0.0156303,-28.6554,0.0385915,1646.87,0.938719,-11.5941,0.00341576,-0.0260851,0.0922504,-0.0101281,-1.97981,-0.0872696,0.10487,-0.0890422,2,0.02,0,0.00776872,-0.225467,0.0167199,0.556914,0.0434882,-1.10971,0.0494924,-2.77556e-19,-2.77556e-19,-3.79347e-17,
224,0.870306,-52.1545,1.8203,75.4674,1.22827,-9.81076,0.498351,0.0156303,-28.6554,0.0385915,1646.87,0.938719,-11.5941,0.00341576,-0.0260539,0.0913505,-0.0100611,-1.97758,-0.0870946,0.10048,-0.0888449,2,0.02,0,0.00780634,-0.224965,0.0167577,0.557207,0.0437392,-1.09768,0.0493196,-2.77556e-19,-2.77556e-19,-8.53531e-17,
225,0.868133,-52.0136,1.81653,75.4078,1.22161,-9.71079,0.496489,0.0156303,-28.6554,0.0385915,1646.87,0.938719,-11.5941,0.00341576,-0.0260225,0.0904527,-0.00999387,-1.97535,-0.0869207,0.0961346,-0.0886484,2,0.02,0,0.00785355,-0.224449,0.0167961,0.557254,0.0434727,-1.08625,0.0491371,-5.55112e-19,-2.77556e-19,-9.48368e-18,
226,0.865972,-51.8721,1.81271,75.3475,1.21526,-9.61044,0.494615,0.0156303,-28.6554,0.0385915,1646.87,0.938719,-11.5941,0.00341576,-0.0259909,0.0895572,-0.00992656,-1.97312,-0.0867486,0.091834,-0.0884526,2,0.02,0,0.00789864,-0.223885,0.0168291,0.557127,0.0430282,-1.07516,0.0489512,-5.55112e-19,-2.77556e-19,-5.69021e-17,
227,0.863992,-51.73,1.80874,75.2865,1.20744,-9.50883,0.492698,0.0156303,-28.6554,0.0385915,1646.87,0.938719,-11.5941,0.00341576,-0.0259592,0.0886642,-0.00985914,-1.97089,-0.0865786,0.0875769,-0.0882575,2,0.02,0,0.00793892,-0.223258,0.0168556,0.556879,0.0425049,-1.06428,0.0487633,-5.55112e-19,-2.88889e-34,-9.48368e-17,
228,0.86263,-51.5885,1.80442,75.2232,1.19196,-9.39509,0.490554,0.0156303,-28.6554,0.0385915,1646.87,0.938719,-11.5941,0.00341576,-0.0259272,0.0877739,-0.00979163,-1.96867,-0.0864112,0.083363,-0.0880632,2,0.02,0,0.00797638,-0.222564,0.0168765,0.556539,0.0418569,-1.05349,0.0485719,-1.11022e-18,-2.88889e-34,-9.48368e-17,
229,0.859253,-51.4605,1.80155,75.1403,1.167,-9.13801,0.487794,0.0156303,-28.6554,0.0385915,1646.87,0.938719,-11.5941,0.00341576,-0.0258952,0.0868866,-0.00972405,-1.96644,-0.0862482,0.0791945,-0.0878698,2,0.02,0,0.00801852,-0.221819,0.0168954,0.556071,0.0407576,-1.04212,0.0483633,-1.11022e-18,-5.55112e-19,-6.63858e-17,
230,0.831394,-52.0413,1.81631,75.7033,1.48297,-11.1429,0.487904,0.0165683,-28.6833,0.0432097,1623.7,0.949832,-5.42651,0.00377621,-0.0258631,0.0860019,-0.00965646,-1.96422,-0.0860911,0.0751043,-0.0876773,2,0.02,0,0.00801316,-0.221185,0.0168978,0.554719,0.0392705,-1.02254,0.048112,-1.11022e-18,-5.55112e-19,-6.63858e-17,
231,0.830936,-51.9057,1.81233,75.6325,1.41548,-10.8387,0.483369,0.0165683,-28.6833,0.0432097,1623.7,0.949832,-5.42651,0.00377621,-0.0258308,0.085125,-0.00958727,-1.96196,-0.0858929,0.0705976,-0.0874865,2,0.02,0,0.00807016,-0.21923,0.0172978,0.566321,0.0495331,-1.12668,0.0477072,-1.11022e-18,-2.88889e-34,-2.8451e-17,
232,0.829602,-51.7652,1.80849,75.5704,1.38452,-10.664,0.480502,0.0165683,-28.6833,0.0432097,1623.7,0.949832,-5.42651,0.00377621,-0.0257988,0.0842426,-0.00951834,-1.9597,-0.0856714,0.0659966,-0.0872967,2,0.02,0,0.00800114,-0.220606,0.0172308,0.565096,0.0553908,-1.15026,0.0474577,-8.32667e-19,-2.88889e-34,-2.8451e-17,
233,0.827666,-51.624,1.80474,75.5097,1.36881,-10.5299,0.478199,0.0165683,-28.6833,0.0432097,1623.7,0.949832,-5.42651,0.00377621,-0.0257671,0.0833561,-0.00944963,-1.95745,-0.0854424,0.0613899,-0.0871076,2,0.02,0,0.00794189,-0.221602,0.0171791,0.562592,0.0572513,-1.15167,0.0472667,-8.32667e-19,2.77556e-19,-2.8451e-17,
234,0.825488,-51.4828,1.80099,75.4489,1.35878,-10.4105,0.476097,0.0165683,-28.6833,0.0432097,1623.7,0.949832,-5.42651,0.00377621,-0.0257354,0.0824686,-0.00938104,-1.95521,-0.0852131,0.0568062,-0.0869193,2,0.02,0,0.00791155,-0.221886,0.0171463,0.560638,0.0573236,-1.14592,0.0470784,-5.55112e-19,2.77556e-19,-1.42255e-17,
235,0.823228,-51.3417,1.79719,75.3876,1.35075,-10.2972,0.474066,0.0165683,-28.6833,0.0432097,1623.7,0.949832,-5.42651,0.00377621,-0.0257038,0.081582,-0.00931256,-1.95297,-0.0849861,0.0522566,-0.0867317,2,0.02,0,0.00789432,-0.221654,0.0171203,0.55925,0.0567557,-1.13739,0.0468858,-5.55112e-19,2.77556e-19,-4.74184e-18,
236,0.820943,-51.2005,1.79332,75.326,1.34335,-10.1864,0.472054,0.0165683,-28.6833,0.0432097,1623.7,0.949832,-5.42651,0.00377621,-0.0256723,0.0806976,-0.00924418,-1.95074,-0.0847621,0.0477462,-0.086545,2,0.02,0,0.00788082,-0.221099,0.0170955,0.55822,0.055997,-1.1276,0.0466898,-5.55112e-19,2.77556e-19,-4.26766e-17,
237,0.818676,-51.059,1.78935,75.264,1.33584,-10.0763,0.470038,0.0165683,-28.6833,0.0432097,1623.7,0.949832,-5.42651,0.00377621,-0.0256409,0.0798162,-0.0091759,-1.94851,-0.0845413,0.0432775,-0.086359,2,0.02,0,0.00786774,-0.220349,0.0170702,0.557389,0.0551963,-1.11718,0.0464914,-8.32667e-19,2.77556e-19,1.42255e-17,
238,0.816665,-50.9168,1.78518,75.2021,1.32609,-9.96707,0.468,0.0165683,-28.6833,0.0432097,1623.7,0.949832,-5.42651,0.00377621,-0.0256094,0.0789383,-0.00910772,-1.94628,-0.0843238,0.0388519,-0.0861738,2,0.02,0,0.00785482,-0.219478,0.0170441,0.556661,0.0543789,-1.1064,0.0462906,-5.55112e-19,5.55112e-19,-4.74184e-18,
239,0.816216,-50.7714,1.78061,75.1436,1.29782,-9.87809,0.466567,0.0165683,-28.6833,0.0432097,1623.7,0.949832,-5.42651,0.00377621,-0.025578,0.0780642,-0.00903964,-1.94406,-0.08411,0.0344701,-0.0859895,2,0.02,0,0.00784647,-0.218527,0.0170193,0.555991,0.0534366,-1.09546,0.0460873,-5.55112e-19,5.55112e-19,-1.42255e-17,
240,0.800914,-51.3554,1.79692,75.6497,1.5178,-10.3035,0.458789,0.0202782,-28.8317,0.0492752,1600.96,0.954792,-1.95877,0.00383845,-0.0255465,0.0771942,-0.00897156,-1.94183,-0.0839044,0.0301278,-0.0858057,2,0.02,0,0.0078757,-0.217494,0.0170211,0.555493,0.0513989,-1.08558,0.0459422,-5.55112e-19,5.55112e-19,-7.11276e-17,
241,0.800605,-51.214,1.79243,75.5842,1.4779,-10.1535,0.456193,0.0202782,-28.8317,0.0492752,1600.96,0.954792,-1.95877,0.00383845,-0.025516,0.0763273,-0.00890357,-1.9396,-0.0836635,0.0257038,-0.0856255,2,0.02,0,0.00762386,-0.216715,0.0169968,0.558764,0.0602306,-1.10598,0.0450578,-5.55112e-19,5.55112e-19,4.74184e-18,
242,0.799271,-51.0713,1.78817,75.5207,1.45752,-10.0389,0.454091,0.0202782,-28.8317,0.0492752,1600.96,0.954792,-1.95877,0.00383845,-0.0254859,0.07546,-0.00883585,-1.93736,-0.0834097,0.0212835,-0.0854462,2,0.02,0,0.00753748,-0.216833,0.01693,0.558526,0.0634402,-1.10509,0.0448351,-2.77556e-19,5.55112e-19,-1.42255e-17,
243,0.797506,-50.9284,1.78399,75.4574,1.44469,-9.93538,0.452159,0.0202782,-28.8317,0.0492752,1600.96,0.954792,-1.95877,0.00383845,-0.0254559,0.0745928,-0.00876825,-1.93513,-0.0831534,0.0168904,-0.0852675,2,0.02,0,0.00751101,-0.216813,0.0169007,0.557822,0.0640896,-1.09825,0.0446553,-2.77556e-19,8.32667e-19,-4.26766e-17,
244,0.795578,-50.7858,1.7798,75.3937,1.43473,-9.83577,0.450285,0.0202782,-28.8317,0.0492752,1600.96,0.954792,-1.95877,0.00383845,-0.0254258,0.0737266,-0.0087007,-1.9329,-0.0828984,0.0125325,-0.0850896,2,0.02,0,0.00750958,-0.216546,0.0168868,0.557168,0.0637468,-1.0895,0.0444751,-2.77556e-19,1.38778e-18,-3.31929e-17,
245,0.793583,-50.6435,1.77558,75.3295,1.42593,-9.7377,0.448429,0.0202782,-28.8317,0.0492752,1600.96,0.954792,-1.95877,0.00383845,-0.0253958,0.0728623,-0.0086332,-1.93068,-0.0826462,0.00821238,-0.0849125,2,0.02,0,0.00751586,-0.216079,0.0168764,0.556593,0.0630539,-1.08002,0.0442929,-8.32667e-19,1.38778e-18,-3.31929e-17,
246,0.791524,-50.5016,1.77132,75.2648,1.41799,-9.64049,0.446582,0.0202782,-28.8317,0.0492752,1600.96,0.954792,-1.95877,0.00383845,-0.0253657,0.0720004,-0.00856573,-1.92845,-0.0823972,0.00393144,-0.084736,2,0.02,0,0.00752289,-0.215467,0.0168653,0.556059,0.0622521,-1.07024,0.0441092,-8.32667e-19,8.32667e-19,-2.37092e-17,
247,0.789305,-50.3602,1.76705,75.1994,1.41195,-9.5455,0.444763,0.0202782,-28.8317,0.0492752,1600.96,0.954792,-1.95877,0.00383845,-0.0253355,0.0711414,-0.00849833,-1.92623,-0.0821514,-0.000309874,-0.0845603,2,0.02,0,0.00752787,-0.21475,0.0168518,0.555534,0.0614411,-1.06033,0.0439247,-1.11022e-18,5.55112e-19,3.31929e-17,
248,0.786924,-50.2181,1.7627,75.1352,1.41071,-9.46969,0.443181,0.0202782,-28.8317,0.0492752,1600.96,0.954792,-1.95877,0.00383845,-0.0253054,0.0702856,-0.00843099,-1.92401,-0.0819085,-0.00451175,-0.0843854,2,0.02,0,0.00752824,-0.213954,0.0168346,0.555007,0.0607198,-1.05047,0.0437418,-1.11022e-18,5.55112e-19,3.31929e-17,
249,0.789555,-50.0534,1.75674,75.1012,1.38001,-9.62541,0.444135,0.0202782,-28.8317,0.0492752,1600.96,0.954792,-1.95877,0.00383845,-0.0252753,0.0694333,-0.00836374,-1.92179,-0.0816675,-0.00867847,-0.084211,2,0.02,0,0.00752442,-0.213076,0.0168131,0.55456,0.0602505,-1.04168,0.0435782,-8.32667e-19,5.55112e-19,3.31929e-17,
250,0.776855,-50.6643,1.7635,75.5669,1.62462,-8.53464,0.432982,0.0226219,-28.9571,0.0531904,1578.07,0.965792,-0.276566,0.00397313,-0.0252448,0.0685859,-0.00829625,-1.91957,-0.0814362,-0.0128634,-0.0840365,2,0.02,0,0.00764659,-0.211837,0.0168721,0.55546,0.05783,-1.04624,0.0436299,-5.55112e-19,5.55112e-19,-3.31929e-17,
251,0.777492,-50.5169,1.75843,75.5075,1.59582,-8.53584,0.432226,0.0226219,-28.9571,0.0531904,1578.07,0.965792,-0.276566,0.00397313,-0.0252166,0.0677348,-0.00823101,-1.91737,-0.08115,-0.0168197,-0.0838658,2,0.02,0,0.00702568,-0.212776,0.0163084,0.550904,0.0715489,-0.989058,0.0426723,-5.55112e-19,5.55112e-19,-1.42255e-17,
252,0.77639,-50.3719,1.75384,75.4437,1.58064,-8.48238,0.430886,0.0226219,-28.9571,0.0531904,1578.07,0.965792,-0.276566,0.00397313,-0.025189,0.0668869,-0.00816605,-1.91516,-0.0808518,-0.0206823,-0.0836958,2,0.02,0,0.00690845,-0.211989,0.0162411,0.551712,0.0745469,-0.96566,0.0425075,-5.55112e-19,5.55112e-19,4.74184e-18,
253,0.774793,-50.2275,1.74936,75.3786,1.56923,-8.41039,0.429352,0.0226219,-28.9571,0.0531904,1578.07,0.965792,-0.276566,0.00397313,-0.0251613,0.0660421,-0.00810101,-1.91295,-0.0805523,-0.0244881,-0.0835264,2,0.02,0,0.0069301,-0.211195,0.0162597,0.552797,0.0748912,-0.951447,0.0423573,-2.77556e-19,2.77556e-19,-3.31929e-17,
254,0.773021,-50.0832,1.74491,75.313,1.55917,-8.33026,0.427729,0.0226219,-28.9571,0.0531904,1578.07,0.965792,-0.276566,0.00397313,-0.0251334,0.0651999,-0.00803584,-1.91074,-0.0802543,-0.0282488,-0.0833576,2,0.02,0,0.00698148,-0.21055,0.0162938,0.553429,0.0744913,-0.940172,0.0421975,-2.77556e-19,2.77556e-19,4.74184e-18,
255,0.771159,-49.9393,1.74045,75.2467,1.54988,-8.2457,0.426053,0.0226219,-28.9571,0.0531904,1578.07,0.965792,-0.276566,0.00397313,-0.0251052,0.06436,-0.00797053,-1.90852,-0.0799589,-0.0319688,-0.0831895,2,0.02,0,0.00703533,-0.209976,0.0163264,0.553659,0.0738437,-0.930007,0.0420323,-4.81482e-34,2.77556e-19,-4.26766e-17,
256,0.769201,-49.7959,1.73597,75.1799,1.54152,-8.15861,0.424346,0.0226219,-28.9571,0.0531904,1578.07,0.965792,-0.276566,0.00397313,-0.0250769,0.0635224,-0.00790512,-1.90631,-0.0796665,-0.03565,-0.083022,2,0.02,0,0.00708439,-0.209402,0.016353,0.553616,0.0731032,-0.920306,0.0418636,-4.81482e-34,2.77556e-19,-5.21603e-17,
257,0.76702,-49.653,1.73152,75.1125,1.53571,-8.07205,0.422646,0.0226219,-28.9571,0.0531904,1578.07,0.965792,-0.276566,0.00397313,-0.0250484,0.0626872,-0.00783963,-1.90409,-0.0793771,-0.0392933,-0.0828552,2,0.02,0,0.00712615,-0.208789,0.0163724,0.553394,0.0723484,-0.910811,0.0416925,-4.81482e-34,5.55112e-19,-5.21603e-17,
258,0.764585,-49.5089,1.72699,75.0471,1.53631,-8.00943,0.421242,0.0226219,-28.9571,0.0531904,1578.07,0.965792,-0.276566,0.00397313,-0.0250198,0.0618547,-0.0077741,-1.90188,-0.0790903,-0.0428994,-0.0826891,2,0.02,0,0.0071576,-0.208119,0.016383,0.553061,0.0716996,-0.90152,0.0415219,-4.81482e-34,2.77556e-19,-4.26766e-17,
259,0.768404,-49.3332,1.72076,75.023,1.499,-8.25328,0.423271,0.0226219,-28.9571,0.0531904,1578.07,0.965792,-0.276566,0.00397313,-0.024991,0.0610253,-0.00770856,-1.89967,-0.0788048,-0.0464741,-0.0825236,2,0.02,0,0.00717899,-0.207356,0.0163842,0.552774,0.071373,-0.893682,0.0413763,-2.77556e-19,5.55112e-19,-2.37092e-17,
260,0.741426,-50.0228,1.72948,75.465,1.7675,-6.18607,0.405716,0.0233907,-28.9926,0.055027,1555.05,0.976028,0.523907,0.00400429,-0.0249616,0.0602009,-0.0076426,-1.89745,-0.0785306,-0.0500881,-0.0823576,2,0.02,0,0.00735961,-0.206094,0.0164891,0.554231,0.0685473,-0.903492,0.0415156,-2.77556e-19,8.32667e-19,-4.26766e-17,
261,0.742267,-49.8734,1.724,75.41,1.74643,-6.27324,0.406049,0.0233907,-28.9926,0.055027,1555.05,0.976028,0.523907,0.00400429,-0.024936,0.0593672,-0.00757973,-1.89527,-0.0781891,-0.0532691,-0.082197,2,0.02,0,0.00639472,-0.208435,0.0157194,0.544735,0.085382,-0.795273,0.0401357,-8.32667e-19,8.32667e-19,-2.37092e-17,
262,0.741087,-49.7291,1.71903,75.3462,1.73534,-6.25205,0.405085,0.0233907,-28.9926,0.055027,1555.05,0.976028,0.523907,0.00400429,-0.024911,0.0585384,-0.00751712,-1.89309,-0.0778353,-0.0562927,-0.0820372,2,0.02,0,0.00626313,-0.207186,0.0156521,0.54626,0.0884529,-0.755886,0.0399479,-5.55112e-19,1.11022e-18,-6.16439e-17,
263,0.739436,-49.5855,1.7142,75.2802,1.72549,-6.19714,0.403736,0.0233907,-28.9926,0.055027,1555.05,0.976028,0.523907,0.00400429,-0.0248857,0.0577146,-0.00745431,-1.8909,-0.0774803,-0.0592359,-0.081878,2,0.02,0,0.00631845,-0.205959,0.0157032,0.548544,0.0887548,-0.735797,0.0397999,-5.55112e-19,5.55112e-19,-9.0095e-17,
264,0.737643,-49.4417,1.7094,75.2133,1.71576,-6.13028,0.402255,0.0233907,-28.9926,0.055027,1555.05,0.976028,0.523907,0.00400429,-0.0248601,0.0568941,-0.00739122,-1.88869,-0.0771266,-0.0621248,-0.0817195,2,0.02,0,0.00640709,-0.205117,0.0157717,0.550059,0.088417,-0.722223,0.0396457,-5.55112e-19,8.32667e-19,-1.2803e-16,
265,0.735793,-49.2978,1.70461,75.1458,1.70606,-6.05902,0.40073,0.0233907,-28.9926,0.055027,1555.05,0.976028,0.523907,0.00400429,-0.0248341,0.0560761,-0.00732787,-1.88649,-0.0767752,-0.0649703,-0.0815615,2,0.02,0,0.00649634,-0.204511,0.0158366,0.550869,0.0878556,-0.711371,0.0394893,-8.32667e-19,8.32667e-19,-9.0095e-17,
266,0.733921,-49.1538,1.6998,75.0779,1.69627,-5.9864,0.399194,0.0233907,-28.9926,0.055027,1555.05,0.976028,0.523907,0.00400429,-0.0248078,0.0552601,-0.0072643,-1.88429,-0.0764265,-0.0677778,-0.0814042,2,0.02,0,0.006579,-0.203995,0.0158935,0.551209,0.087169,-0.701888,0.0393331,-8.32667e-19,5.55112e-19,-1.42255e-17,
267,0.732067,-49.0096,1.69496,75.0093,1.68593,-5.91287,0.397653,0.0233907,-28.9926,0.055027,1555.05,0.976028,0.523907,0.00400429,-0.0247812,0.0544462,-0.00720053,-1.88208,-0.0760809,-0.0705506,-0.0812475,2,0.02,0,0.00665368,-0.203479,0.0159416,0.551255,0.0863897,-0.693196,0.039178,-5.55112e-19,5.55112e-19,-9.48368e-18,
268,0.730037,-48.8667,1.69018,74.9386,1.67532,-5.82748,0.395969,0.0233907,-28.9926,0.055027,1555.05,0.976028,0.523907,0.00400429,-0.0247543,0.0536345,-0.00713661,-1.87988,-0.0757389,-0.0732904,-0.0810914,2,0.02,0,0.00672079,-0.202922,0.0159816,0.551107,0.085517,-0.68496,0.0390237,-5.55112e-19,2.77556e-19,-9.48368e-18,
269,0.723849,-48.7423,1.68593,74.8436,1.70035,-5.58033,0.393398,0.0233907,-28.9926,0.055027,1555.05,0.976028,0.523907,0.00400429,-0.0247272,0.0528252,-0.00707256,-1.87767,-0.0754005,-0.0759959,-0.0809359,2,0.02,0,0.00677616,-0.202323,0.0160118,0.550762,0.0845958,-0.676372,0.0388579,-2.77556e-19,2.77556e-19,-7.58695e-17,
270,0.760516,-49.1459,1.69437,75.4561,1.5877,-7.88317,0.390194,0.0225737,-28.9694,0.0549311,1531.94,0.984084,0.914279,0.00389957,-0.0247003,0.0520176,-0.00700875,-1.87548,-0.0750571,-0.0786308,-0.0807814,2,0.02,0,0.00671099,-0.201907,0.0159529,0.549349,0.0858371,-0.658728,0.0386328,-2.77556e-19,5.55112e-19,-1.04321e-16,
271,0.757618,-49.0065,1.69037,75.3744,1.56629,-7.5979,0.386234,0.0225737,-28.9694,0.0549311,1531.94,0.984084,0.914279,0.00389957,-0.0246699,0.0512231,-0.00694205,-1.87322,-0.0747594,-0.0817472,-0.0806296,2,0.02,0,0.00761129,-0.198617,0.0166744,0.562955,0.0744341,-0.779083,0.037957,-2.77556e-19,5.55112e-19,-1.04321e-16,
272,0.755857,-48.8604,1.68606,75.303,1.54932,-7.45568,0.383987,0.0225737,-28.9694,0.0549311,1531.94,0.984084,0.914279,0.00389957,-0.0246389,0.0504232,-0.00687518,-1.87098,-0.0744681,-0.0849918,-0.0804786,2,0.02,0,0.00773674,-0.19998,0.016717,0.561627,0.0728354,-0.811148,0.0377373,-2.77556e-19,8.32667e-19,-3.79347e-17,
273,0.754193,-48.7138,1.68164,75.2336,1.53696,-7.35889,0.382283,0.0225737,-28.9694,0.0549311,1531.94,0.984084,0.914279,0.00389957,-0.024608,0.0496187,-0.00680851,-1.86874,-0.0741799,-0.0882663,-0.0803283,2,0.02,0,0.00772262,-0.201122,0.016667,0.55883,0.0720459,-0.818627,0.0375806,-4.81482e-34,5.55112e-19,-3.79347e-17,
274,0.752519,-48.5676,1.67717,75.1642,1.52677,-7.27906,0.38078,0.0225737,-28.9694,0.0549311,1531.94,0.984084,0.914279,0.00389957,-0.0245773,0.0488127,-0.00674208,-1.86652,-0.0738956,-0.0915384,-0.0801785,2,0.02,0,0.00769115,-0.201518,0.0166081,0.556683,0.0710786,-0.818042,0.0374396,-2.77556e-19,5.55112e-19,-3.79347e-17,
275,0.750833,-48.4223,1.67267,75.0944,1.51751,-7.20643,0.37936,0.0225737,-28.9694,0.0549311,1531.94,0.984084,0.914279,0.00389957,-0.0245466,0.0480072,-0.00667588,-1.8643,-0.0736155,-0.0947956,-0.0800293,2,0.02,0,0.00765951,-0.20136,0.0165508,0.555189,0.0700141,-0.81429,0.0373038,-2.77556e-19,5.55112e-19,-1.04321e-16,
276,0.749097,-48.2778,1.66813,75.024,1.50907,-7.13743,0.377982,0.0225737,-28.9694,0.0549311,1531.94,0.984084,0.914279,0.00389957,-0.0245161,0.0472038,-0.00660989,-1.86208,-0.0733397,-0.098032,-0.0798807,2,0.02,0,0.007629,-0.200854,0.0164954,0.554101,0.0689503,-0.809103,0.0371698,-2.77556e-19,1.11022e-18,-7.11276e-17,
277,0.74717,-48.1342,1.6636,74.9529,1.50297,-7.07278,0.376651,0.0225737,-28.9694,0.0549311,1531.94,0.984084,0.914279,0.00389957,-0.0244857,0.0464032,-0.00654413,-1.85987,-0.0730679,-0.101245,-0.0797325,2,0.02,0,0.0075989,-0.200139,0.0164413,0.553234,0.0679422,-0.80322,0.0370367,-2.77556e-19,1.11022e-18,-7.11276e-17,
278,0.744997,-47.9896,1.65899,74.8841,1.50274,-7.03625,0.375667,0.0225737,-28.9694,0.0549311,1531.94,0.984084,0.914279,0.00389957,-0.0244555,0.0456061,-0.00647858,-1.85766,-0.0727996,-0.104433,-0.0795849,2,0.02,0,0.00756641,-0.199295,0.0163865,0.552486,0.0670867,-0.797121,0.0369063,-5.55112e-19,1.11022e-18,-3.79347e-17,
279,0.748331,-47.8097,1.6539,74.8603,1.46067,-7.3261,0.377775,0.0225737,-28.9694,0.0549311,1531.94,0.984084,0.914279,0.00389957,-0.0244253,0.0448127,-0.00641326,-1.85545,-0.0725334,-0.107603,-0.0794377,2,0.02,0,0.00753137,-0.198334,0.0163303,0.551927,0.0665607,-0.79238,0.0368051,-5.55112e-19,8.32667e-19,-7.58695e-17,
280,0.752994,-48.4461,1.63416,75.3181,1.74267,-5.19618,0.385841,0.0207748,-28.9257,0.0536117,1508.81,0.990603,1.11727,0.00369078,-0.0243947,0.0440255,-0.00634766,-1.85324,-0.0722799,-0.110828,-0.0792899,2,0.02,0,0.0076634,-0.196809,0.0164006,0.553277,0.0633721,-0.806161,0.036943,-8.32667e-19,5.55112e-19,-5.69021e-17,
281,0.753862,-48.2916,1.62908,75.2594,1.71831,-5.32997,0.386959,0.0207748,-28.9257,0.0536117,1508.81,0.990603,1.11727,0.00369078,-0.0243671,0.0432292,-0.0062865,-1.85106,-0.0719581,-0.113617,-0.0791377,2,0.02,0,0.00690643,-0.199083,0.015289,0.543593,0.0804378,-0.697279,0.0380434,-5.55112e-19,2.77556e-19,-5.69021e-17,
282,0.752908,-48.1431,1.62422,75.1917,1.70508,-5.34609,0.38665,0.0207748,-28.9257,0.0536117,1508.81,0.990603,1.11727,0.00369078,-0.02434,0.042439,-0.00622584,-1.84888,-0.0716238,-0.116256,-0.0789856,2,0.02,0,0.00675507,-0.19753,0.015166,0.545218,0.083574,-0.659721,0.0380371,-8.32667e-19,-2.88889e-34,9.48368e-18,
283,0.751508,-47.9959,1.61944,75.1217,1.69365,-5.32313,0.38586,0.0207748,-28.9257,0.0536117,1508.81,0.990603,1.11727,0.00369078,-0.0243129,0.0416549,-0.00616509,-1.84669,-0.0712885,-0.118825,-0.0788338,2,0.02,0,0.00678546,-0.196034,0.0151871,0.547534,0.0838266,-0.642331,0.0379493,-5.55112e-19,-2.88889e-34,-2.8451e-17,
284,0.749961,-47.8489,1.6147,75.0509,1.6827,-5.2845,0.384877,0.0207748,-28.9257,0.0536117,1508.81,0.990603,1.11727,0.00369078,-0.0242855,0.040875,-0.00610416,-1.84449,-0.0709549,-0.121352,-0.0786824,2,0.02,0,0.00685192,-0.19498,0.0152321,0.549003,0.0833914,-0.631694,0.0378484,-5.55112e-19,-2.88889e-34,9.48368e-18,
285,0.748338,-47.7024,1.60997,74.9796,1.67214,-5.23859,0.383806,0.0207748,-28.9257,0.0536117,1508.81,0.990603,1.11727,0.00369078,-0.0242578,0.0400982,-0.00604306,-1.8423,-0.0706241,-0.123847,-0.0785314,2,0.02,0,0.00692145,-0.194206,0.0152765,0.549725,0.0827213,-0.623753,0.0377416,-5.55112e-19,2.77556e-19,-2.8451e-17,
286,0.746636,-47.5563,1.60525,74.9076,1.66223,-5.18917,0.382691,0.0207748,-28.9257,0.0536117,1508.81,0.990603,1.11727,0.00369078,-0.0242299,0.039324,-0.0059818,-1.8401,-0.0702963,-0.126315,-0.0783809,2,0.02,0,0.00698603,-0.193551,0.0153149,0.549959,0.081937,-0.617042,0.0376314,-5.55112e-19,5.55112e-19,2.8451e-17,
287,0.744765,-47.4109,1.60055,74.8351,1.65425,-5.13967,0.38157,0.0207748,-28.9257,0.0536117,1508.81,0.990603,1.11727,0.00369078,-0.0242017,0.0385523,-0.00592042,-1.8379,-0.0699719,-0.128759,-0.0782308,2,0.02,0,0.00704295,-0.192919,0.0153454,0.549894,0.0811031,-0.61095,0.0375194,-2.77556e-19,2.77556e-19,-1.72563e-31,
288,0.742605,-47.2647,1.59584,74.7639,1.65134,-5.10784,0.380664,0.0207748,-28.9257,0.0536117,1508.81,0.990603,1.11727,0.00369078,-0.0241733,0.0377832,-0.00585895,-1.8357,-0.0696506,-0.13118,-0.0780812,2,0.02,0,0.00708941,-0.19226,0.0153666,0.54965,0.080319,-0.605281,0.0374079,-2.77556e-19,5.55112e-19,4.26766e-17,
289,0.743627,-47.094,1.59096,74.7236,1.62558,-5.29699,0.38199,0.0207748,-28.9257,0.0536117,1508.81,0.990603,1.11727,0.00369078,-0.0241448,0.0370171,-0.00579744,-1.8335,-0.0693315,-0.133583,-0.0779319,2,0.02,0,0.00712337,-0.191527,0.0153772,0.549378,0.0797694,-0.600844,0.0373159,-4.81482e-34,2.77556e-19,-1.42255e-17,
290,0.748794,-47.6698,1.58662,75.221,1.79361,-3.89089,0.386707,0.0187537,-28.8823,0.0519005,1485.65,0.996248,1.23514,0.00341439,-0.0241158,0.0362556,-0.00573561,-1.8313,-0.0690207,-0.13602,-0.0777823,2,0.02,0,0.00725072,-0.190381,0.0154574,0.550297,0.0777091,-0.609125,0.0373975,-4.81482e-34,-2.88889e-34,-7.11276e-17,
291,0.7485,-47.5168,1.58175,75.1569,1.77545,-3.96772,0.38718,0.0187537,-28.8823,0.0519005,1485.65,0.996248,1.23514,0.00341439,-0.0240886,0.0354883,-0.0056762,-1.82912,-0.0686702,-0.138171,-0.07763,2,0.02,0,0.00679664,-0.191841,0.0148535,0.544718,0.0876334,-0.537891,0.0380719,-4.81482e-34,2.77556e-19,-4.74184e-18,
292,0.747196,-47.368,1.57694,75.0869,1.76358,-3.96832,0.386705,0.0187537,-28.8823,0.0519005,1485.65,0.996248,1.23514,0.00341439,-0.0240616,0.0347248,-0.00561697,-1.82694,-0.0683134,-0.14022,-0.0774779,2,0.02,0,0.00674842,-0.190851,0.0148063,0.546024,0.0892037,-0.512204,0.0380319,-4.81482e-34,5.55112e-19,-2.37092e-17,
293,0.745646,-47.22,1.57217,75.0153,1.75269,-3.94314,0.385906,0.0187537,-28.8823,0.0519005,1485.65,0.996248,1.23514,0.00341439,-0.0240344,0.0339654,-0.0055576,-1.82475,-0.0679572,-0.142219,-0.0773261,2,0.02,0,0.00680356,-0.189871,0.0148436,0.547603,0.0890443,-0.499629,0.0379463,-4.81482e-34,5.55112e-19,-3.31929e-17,
294,0.744013,-47.0724,1.56743,74.943,1.74209,-3.90749,0.384977,0.0187537,-28.8823,0.0519005,1485.65,0.996248,1.23514,0.00341439,-0.0240069,0.0332088,-0.00549803,-1.82255,-0.0676033,-0.144185,-0.0771747,2,0.02,0,0.00687531,-0.189133,0.0148914,0.548545,0.0884606,-0.491535,0.0378533,2.77556e-19,2.77556e-19,-9.0095e-17,
295,0.742333,-46.9251,1.5627,74.8701,1.73177,-3.86694,0.383988,0.0187537,-28.8823,0.0519005,1485.65,0.996248,1.23514,0.00341439,-0.0239792,0.0324547,-0.00543829,-1.82036,-0.0672525,-0.146126,-0.0770237,2,0.02,0,0.00694466,-0.188531,0.0149351,0.548951,0.0877212,-0.485264,0.0377564,5.55112e-19,2.77556e-19,-1.37513e-16,
296,0.740602,-46.7782,1.55799,74.7967,1.72192,-3.82403,0.382968,0.0187537,-28.8823,0.0519005,1485.65,0.996248,1.23514,0.00341439,-0.0239511,0.0317028,-0.00537841,-1.81816,-0.0669049,-0.148045,-0.0768731,2,0.02,0,0.00700723,-0.187964,0.0149714,0.549004,0.0869003,-0.479838,0.037657,-2.77556e-19,5.55112e-19,-2.37092e-17,
297,0.738751,-46.6318,1.55329,74.7227,1.71346,-3.78102,0.381943,0.0187537,-28.8823,0.0519005,1485.65,0.996248,1.23514,0.00341439,-0.0239229,0.0309534,-0.00531841,-1.81596,-0.0665607,-0.149944,-0.0767228,2,0.02,0,0.0070617,-0.187373,0.0149997,0.548835,0.0860409,-0.474843,0.0375563,-4.33334e-34,5.55112e-19,-7.11276e-17,
298,0.73664,-46.4849,1.5486,74.6494,1.70899,-3.74914,0.381047,0.0187537,-28.8823,0.0519005,1485.65,0.996248,1.23514,0.00341439,-0.0238945,0.0302064,-0.00525833,-1.81377,-0.0662198,-0.151825,-0.076573,2,0.02,0,0.00710636,-0.18673,0.0150192,0.548527,0.0852138,-0.470141,0.0374559,-2.77556e-19,5.55112e-19,-1.84889e-31,
299,0.736086,-46.3225,1.54388,74.5954,1.6948,-3.85492,0.381654,0.0187537,-28.8823,0.0519005,1485.65,0.996248,1.23514,0.00341439,-0.0238659,0.0294624,-0.00519822,-1.81158,-0.0658815,-0.15369,-0.0764235,2,0.02,0,0.00713858,-0.18601,0.0150283,0.548179,0.0845728,-0.466233,0.0373675,-2.77556e-19,2.77556e-19,-1.8489e-31,
300,0.744436,-46.8422,1.54817,75.1241,1.79144,-3.06289,0.383875,0.0170361,-28.8457,0.0503738,1462.49,1.00133,1.31424,0.00309671,-0.023837,0.0287224,-0.00513793,-1.80938,-0.0655486,-0.155571,-0.0762739,2,0.02,0,0.00721641,-0.185,0.0150713,0.548548,0.0832472,-0.470244,0.0373979,-4.33334e-34,5.55112e-19,-3.79347e-17,
301,0.743459,-46.6912,1.54345,75.0551,1.7764,-3.0894,0.383751,0.0170361,-28.8457,0.0503738,1462.49,1.00133,1.31424,0.00309671,-0.0238091,0.0279803,-0.00507887,-1.8072,-0.065195,-0.157295,-0.076123,2,0.02,0,0.00697389,-0.185533,0.0147667,0.546219,0.0884016,-0.43093,0.0377326,-4.33334e-34,5.55112e-19,-1.89674e-17,
302,0.741958,-46.5424,1.53873,74.9828,1.76525,-3.0752,0.38311,0.0170361,-28.8457,0.0503738,1462.49,1.00133,1.31424,0.00309671,-0.0237813,0.0272409,-0.00501991,-1.80501,-0.0648388,-0.158956,-0.0759723,2,0.02,0,0.00695999,-0.184846,0.0147396,0.547118,0.0890293,-0.415448,0.0376712,-5.55112e-19,8.32667e-19,1.89674e-17,
303,0.740319,-46.3942,1.53402,74.9095,1.75493,-3.04679,0.382287,0.0170361,-28.8457,0.0503738,1462.49,1.00133,1.31424,0.00309671,-0.0237533,0.0265042,-0.00496087,-1.80282,-0.0644843,-0.160584,-0.075822,2,0.02,0,0.00700036,-0.18416,0.0147587,0.547976,0.0886442,-0.407006,0.0375871,-2.77556e-19,5.55112e-19,-3.79347e-17,
304,0.738628,-46.2464,1.52934,74.8355,1.74493,-3.01244,0.381388,0.0170361,-28.8457,0.0503738,1462.49,1.00133,1.31424,0.00309671,-0.0237251,0.02577,-0.00490174,-1.80062,-0.0641323,-0.162189,-0.075672,2,0.02,0,0.00704894,-0.183571,0.0147833,0.548399,0.0879791,-0.40105,0.0374993,-2.77556e-19,2.77556e-19,-4.74184e-17,
305,0.736905,-46.0988,1.52467,74.7611,1.73516,-2.97527,0.380455,0.0170361,-28.8457,0.0503738,1462.49,1.00133,1.31424,0.00309671,-0.0236967,0.0250379,-0.00484252,-1.79843,-0.0637835,-0.163773,-0.0755223,2,0.02,0,0.00709517,-0.183014,0.0148046,0.548477,0.0872025,-0.396133,0.0374093,-2.77556e-19,5.55112e-19,-1.13804e-16,
306,0.735145,-45.9517,1.52001,74.686,1.72576,-2.93675,0.379503,0.0170361,-28.8457,0.0503738,1462.49,1.00133,1.31424,0.00309671,-0.0236682,0.0243082,-0.00478324,-1.79624,-0.0634381,-0.16534,-0.0753731,2,0.02,0,0.00713642,-0.182434,0.0148208,0.548326,0.086367,-0.391708,0.0373177,-5.55112e-19,2.77556e-19,-5.69021e-17,
307,0.733294,-45.8049,1.51537,74.6105,1.71743,-2.89832,0.378548,0.0170361,-28.8457,0.0503738,1462.49,1.00133,1.31424,0.00309671,-0.0236395,0.0235809,-0.00472391,-1.79404,-0.063096,-0.16689,-0.0752242,2,0.02,0,0.00717179,-0.181805,0.0148313,0.548027,0.0855048,-0.387542,0.0372252,-8.32667e-19,5.55112e-19,-5.69021e-17,
308,0.731208,-45.6579,1.51074,74.5352,1.71245,-2.86756,0.377677,0.0170361,-28.8457,0.0503738,1462.49,1.00133,1.31424,0.00309671,-0.0236107,0.0228565,-0.00466457,-1.79185,-0.0627574,-0.168424,-0.0750756,2,0.02,0,0.00719996,-0.181115,0.0148354,0.547629,0.0846695,-0.383562,0.0371328,-1.11022e-18,5.55112e-19,-9.48368e-17,
309,0.729861,-45.5002,1.50611,74.473,1.7044,-2.92984,0.377898,0.0170361,-28.8457,0.0503738,1462.49,1.00133,1.31424,0.00309671,-0.0235818,0.0221351,-0.00460525,-1.78967,-0.0624214,-0.169945,-0.0749274,2,0.02,0,0.00721786,-0.180352,0.0148313,0.547199,0.0839948,-0.380118,0.0370485,-8.32667e-19,5.55112e-19,-1.37513e-16,
310,0.740109,-45.9817,1.51344,75.0194,1.76271,-2.45956,0.378846,0.0158334,-28.8141,0.0492792,1439.31,1.0059,1.37546,0.00275421,-0.0235528,0.0214176,-0.00454587,-1.78748,-0.0620892,-0.171473,-0.0747792,2,0.02,0,0.0072582,-0.179372,0.014844,0.54724,0.0830579,-0.382011,0.0370523,-1.11022e-18,5.55112e-19,-2.37092e-17,
311,0.738781,-45.8318,1.50882,74.9469,1.74985,-2.46133,0.378427,0.0158334,-28.8141,0.0492792,1439.31,1.0059,1.37546,0.00275421,-0.0235243,0.0207002,-0.00448717,-1.78529,-0.0617464,-0.172911,-0.0746304,2,0.02,0,0.00712546,-0.179338,0.0146762,0.546602,0.0856854,-0.359461,0.0372085,-5.55112e-19,5.55112e-19,-4.74184e-18,
312,0.737168,-45.6833,1.50419,74.8726,1.73951,-2.44083,0.377721,0.0158334,-28.8141,0.0492792,1439.31,1.0059,1.37546,0.00275421,-0.0234958,0.0199852,-0.00442856,-1.7831,-0.0614032,-0.174309,-0.0744818,2,0.02,0,0.0071194,-0.17876,0.0146516,0.54727,0.0858123,-0.349465,0.0371405,-5.55112e-19,8.32667e-19,5.21603e-17,
313,0.73547,-45.5352,1.49956,74.7976,1.72985,-2.41217,0.376907,0.0158334,-28.8141,0.0492792,1439.31,1.0059,1.37546,0.00275421,-0.0234672,0.0192724,-0.00436995,-1.78091,-0.0610619,-0.175682,-0.0743336,2,0.02,0,0.00714337,-0.178191,0.0146536,0.547732,0.0853205,-0.343349,0.0370602,-2.77556e-19,8.32667e-19,-4.74184e-18,
314,0.733735,-45.3874,1.49495,74.7219,1.72048,-2.37993,0.376048,0.0158334,-28.8141,0.0492792,1439.31,1.0059,1.37546,0.00275421,-0.0234385,0.0185618,-0.00431131,-1.77872,-0.0607233,-0.177037,-0.0741857,2,0.02,0,0.00717224,-0.17765,0.0146591,0.547867,0.0846338,-0.338672,0.0369777,-8.32667e-19,8.32667e-19,-4.74184e-18,
315,0.731974,-45.24,1.49035,74.6458,1.71132,-2.34596,0.375166,0.0158334,-28.8141,0.0492792,1439.31,1.0059,1.37546,0.00275421,-0.0234097,0.0178535,-0.00425266,-1.77653,-0.0603879,-0.178375,-0.0740381,2,0.02,0,0.00719972,-0.177092,0.0146629,0.547758,0.0838627,-0.334624,0.0368936,-1.11022e-18,8.32667e-19,-4.26766e-17,
316,0.730184,-45.0929,1.48577,74.5691,1.70246,-2.31116,0.374272,0.0158334,-28.8141,0.0492792,1439.31,1.0059,1.37546,0.00275421,-0.0233808,0.0171475,-0.004194,-1.77434,-0.0600557,-0.179699,-0.0738909,2,0.02,0,0.007224,-0.176488,0.0146635,0.547487,0.0830468,-0.330883,0.0368085,-8.32667e-19,5.55112e-19,-1.04321e-16,
317,0.728319,-44.9462,1.48119,74.4919,1.69449,-2.27654,0.373376,0.0158334,-28.8141,0.0492792,1439.31,1.0059,1.37546,0.00275421,-0.0233519,0.0164442,-0.00413536,-1.77215,-0.0597269,-0.181008,-0.073744,2,0.02,0,0.00724433,-0.175824,0.0146604,0.547108,0.0822113,-0.327308,0.0367227,-8.32667e-19,8.32667e-19,-1.46997e-16,
318,0.726242,-44.7994,1.47663,74.4148,1.68945,-2.24777,0.372541,0.0158334,-28.8141,0.0492792,1439.31,1.0059,1.37546,0.00275421,-0.0233228,0.0157438,-0.00407675,-1.76996,-0.0594013,-0.182303,-0.0735974,2,0.02,0,0.00725946,-0.175098,0.0146528,0.546653,0.0814,-0.323861,0.0366369,-1.38778e-18,1.11022e-18,-8.06113e-17,
319,0.724498,-44.6444,1.47208,74.3475,1.68446,-2.28875,0.372576,0.0158334,-28.8141,0.0492792,1439.31,1.0059,1.37546,0.00275421,-0.0232938,0.0150466,-0.0040182,-1.76778,-0.0590783,-0.183587,-0.0734512,2,0.02,0,0.00726619,-0.174303,0.0146387,0.546169,0.0807326,-0.320813,0.036557,-1.11022e-18,5.55112e-19,-2.37092e-17,
