DMackRus/ILQR_Mujoco_Arm_Push_Clyinder/finalTrajectory.csv
Control Number,T1,T2,T3,T4,T5,T6,T7,T1_init,T2_init,T3_init,T4_init,T5_init,T6_init,T7_init,J1,J2,J3,J4,J5,J6,J7,Cube x,Cube y,Cube w,V1,V2,V3,V4,V5,V6,V7,Cube x V,Cube y V,Cube w V,
0,-3.58407,-38.272,8.45531,30.5403,-1.55115,12,-0.0576321,1.97556,-38.1971,3.32259,34.5749,-0.295006,1.91838,0.00353243,-0.12031,0.454866,0.0614957,-2.50333,-0.0018156,1.31875,0.000859587,0.8,0.02,0,-0.00231844,-1.40969,0.0477199,-0.0524125,-0.00875051,-0.90971,0.0300402,-8.88178e-19,4.44089e-19,7.32015e-17,
1,-3.55116,-38.2853,8.46646,30.627,-1.37337,12,-0.185118,1.97556,-38.1971,3.32259,34.5749,-0.295006,1.91838,0.00353243,-0.120525,0.449278,0.0617238,-2.50354,-0.00220147,1.31511,0.000993096,0.8,0.02,0,-0.0537421,-1.39694,0.057033,-0.0534479,-0.0964684,-0.908066,0.0333772,-4.44089e-19,-4.44089e-19,2.74506e-17,
2,-3.55851,-38.3023,8.50653,30.7134,-1.21803,12,-0.30612,1.97556,-38.1971,3.32259,34.5749,-0.295006,1.91838,0.00353243,-0.120807,0.443785,0.0619791,-2.50375,-0.00257504,1.3115,0.00112734,0.8,0.02,0,-0.0705736,-1.37345,0.0638388,-0.0504705,-0.0933926,-0.904401,0.0335609,-8.88178e-19,0,1.83004e-17,
3,-3.58765,-38.3227,8.56257,30.8037,-1.0687,12,-0.42785,1.97556,-38.1971,3.32259,34.5749,-0.295006,1.91838,0.00353243,-0.121105,0.438419,0.0622554,-2.50392,-0.00286093,1.30791,0.00125923,0.8,0.02,0,-0.0745159,-1.34126,0.069063,-0.0446098,-0.0714707,-0.896426,0.0329734,0,0,-2.15704e-32,
4,-3.63346,-38.3462,8.63124,30.8982,-0.921303,12,-0.551833,1.97556,-38.1971,3.32259,34.5749,-0.295006,1.91838,0.00353243,-0.121401,0.43321,0.0625474,-2.50408,-0.00304758,1.30438,0.00138723,0.8,0.02,0,-0.073821,-1.30248,0.0729947,-0.0375471,-0.0466626,-0.883219,0.0319983,0,0,9.15019e-17,
5,-3.69583,-38.3728,8.71301,30.9961,-0.774927,12,-0.678386,1.97556,-38.1971,3.32259,34.5749,-0.295006,1.91838,0.00353243,-0.121688,0.428174,0.0628506,-2.5042,-0.00313593,1.30092,0.00150978,0.8,0.02,0,-0.0718025,-1.25891,0.0758032,-0.0302914,-0.0220892,-0.864733,0.0306388,0,-8.88178e-19,1.83004e-17,
6,-3.77755,-38.4022,8.81088,31.0959,-0.629527,12,-0.807654,1.97556,-38.1971,3.32259,34.5749,-0.295006,1.91838,0.00353243,-0.121967,0.423326,0.0631613,-2.50429,-0.00312837,1.29755,0.0016252,0.8,0.02,0,-0.0698204,-1.21205,0.0776784,-0.0233348,0.0018919,-0.841351,0.0288549,0,-4.44089e-19,-1.00652e-16,
7,-3.88383,-38.4344,8.93012,31.1958,-0.48545,12,-0.939707,1.97556,-38.1971,3.32259,34.5749,-0.295006,1.91838,0.00353243,-0.122241,0.418674,0.0634766,-2.50436,-0.00302686,1.2943,0.00173169,0.8,0.02,0,-0.0684176,-1.16304,0.0788378,-0.0168586,0.025376,-0.813675,0.0266232,-8.88178e-19,4.44089e-19,-1.00652e-16,
8,-4.01912,-38.4694,9.07554,31.2939,-0.343304,12,-1.07391,1.97556,-38.1971,3.32259,34.5749,-0.295006,1.91838,0.00353243,-0.122512,0.414222,0.0637946,-2.5044,-0.00283294,1.29117,0.00182744,0.8,0.02,0,-0.0677998,-1.11282,0.0794977,-0.0109051,0.0484809,-0.782371,0.0239354,-8.88178e-19,0,-2.74506e-17,
9,-4.1639,-38.5072,9.23056,31.3901,-0.202884,12,-1.20591,1.97556,-38.1971,3.32259,34.5749,-0.295006,1.91838,0.00353243,-0.122784,0.409974,0.0641141,-2.50442,-0.00254806,1.28818,0.00191063,0.8,0.02,0,-0.0680187,-1.06212,0.0798581,-0.00545938,0.0712192,-0.74808,0.0207984,-4.44089e-19,4.44089e-19,-9.15019e-18,
10,-4.08384,-38.5215,9.19447,31.1545,-0.0813555,12,-1.27242,1.85791,-36.0284,3.04382,35.003,-0.165785,1.77439,0.00255611,-0.123059,0.405928,0.0644344,-2.50442,-0.0021741,1.28533,0.00197962,0.8,0.02,0,-0.0688269,-1.01153,0.0800705,-0.000471706,0.0934905,-0.711383,0.0172481,0,0,-1.83004e-17,
11,-4.08267,-38.5828,9.27338,31.2348,0.0825287,12,-1.35772,1.85791,-36.0284,3.04382,35.003,-0.165785,1.77439,0.00255611,-0.123331,0.402081,0.064754,-2.50441,-0.00172601,1.28264,0.00203439,0.8,0.02,0,-0.0678261,-0.961704,0.0799117,0.0029648,0.112024,-0.671537,0.0136929,0,0,3.66008e-17,
12,-4.07419,-38.6481,9.34571,31.3121,0.246349,12,-1.44191,1.85791,-36.0284,3.04382,35.003,-0.165785,1.77439,0.00255611,-0.123599,0.39843,0.0650724,-2.50439,-0.00120177,1.28012,0.00207357,0.8,0.02,0,-0.0671148,-0.912764,0.0796001,0.00653344,0.131058,-0.630704,0.00979482,4.44089e-19,0,7.32015e-17,
13,-4.05636,-38.7175,9.40987,31.3858,0.409853,12,-1.5242,1.85791,-36.0284,3.04382,35.003,-0.165785,1.77439,0.00255611,-0.123865,0.39497,0.0653893,-2.50435,-0.000600981,1.27777,0.00209594,0.8,0.02,0,-0.0665445,-0.865011,0.0792252,0.0100308,0.150198,-0.589134,0.00559173,4.44089e-19,4.44089e-19,-3.69779e-32,
14,-4.02639,-38.7912,9.46343,31.4553,0.572544,12,-1.60354,1.85791,-36.0284,3.04382,35.003,-0.165785,1.77439,0.00255611,-0.124129,0.391695,0.0657046,-2.50429,7.5992e-05,1.27558,0.00210039,0.8,0.02,0,-0.0660009,-0.818679,0.0788276,0.0133425,0.169243,-0.547251,0.00111382,0,4.44089e-19,1.73854e-16,
15,-3.9803,-38.8693,9.50279,31.5196,0.733631,12,-1.67857,1.85791,-36.0284,3.04382,35.003,-0.165785,1.77439,0.00255611,-0.124391,0.388599,0.0660182,-2.50423,0.000828474,1.27355,0.00208593,0.8,0.02,0,-0.065409,-0.774013,0.0784007,0.0163446,0.188121,-0.505746,-0.00361502,0,0,1.09802e-16,
16,-3.91188,-38.9519,9.52201,31.5785,0.892087,12,-1.74758,1.85791,-36.0284,3.04382,35.003,-0.165785,1.77439,0.00255611,-0.12465,0.385674,0.0663306,-2.50415,0.0016544,1.27169,0.00205179,0.8,0.02,0,-0.0646356,-0.731201,0.0781043,0.0189671,0.206482,-0.465286,-0.00853533,4.44089e-19,-4.44089e-19,-7.32015e-17,
17,-3.81448,-39.0388,9.5145,31.6329,1.0472,12,-1.80932,1.85791,-36.0284,3.04382,35.003,-0.165785,1.77439,0.00255611,-0.124904,0.382913,0.0666415,-2.50407,0.00255009,1.26999,0.00199739,0.8,0.02,0,-0.0635667,-0.690274,0.077724,0.021219,0.223921,-0.42603,-0.0136008,0,-8.88178e-19,7.32015e-17,
18,-3.68402,-39.1289,9.47557,31.6859,1.19841,12,-1.86357,1.85791,-36.0284,3.04382,35.003,-0.165785,1.77439,0.00255611,-0.125152,0.380308,0.0669504,-2.50397,0.00351143,1.26844,0.00192228,0.8,0.02,0,-0.0621493,-0.651212,0.0772214,0.0231428,0.240334,-0.387962,-0.0187779,-4.44089e-19,-8.88178e-19,2.10454e-16,
19,-3.55894,-39.2198,9.44011,31.7449,1.34712,12,-1.91762,1.85791,-36.0284,3.04382,35.003,-0.165785,1.77439,0.00255611,-0.125394,0.377852,0.0672567,-2.50388,0.00453404,1.26703,0.00182614,0.8,0.02,0,-0.0603254,-0.613967,0.0765765,0.0247989,0.255655,-0.351112,-0.0240333,0,0,2.56205e-16,
20,-3.81935,-39.3794,9.78809,31.1187,1.4469,12,-1.97277,1.79072,-34.4049,2.86669,35.2312,-0.0831123,1.70243,0.00187807,-0.125628,0.375538,0.06756,-2.50377,0.00561437,1.26577,0.00170862,0.8,0.02,0,-0.0584705,-0.578479,0.0758168,0.026234,0.270082,-0.315528,-0.0293801,0,0,1.28103e-16,
21,-4.07269,-39.436,10.0603,31.2647,1.55632,12,-2.14384,1.79072,-34.4049,2.86669,35.2312,-0.0831123,1.70243,0.00187807,-0.125871,0.373357,0.0678629,-2.50367,0.00673252,1.26465,0.00156945,0.8,0.02,0,-0.0608088,-0.545254,0.0757286,0.0245156,0.279537,-0.278734,-0.0347928,-4.44089e-19,-4.44089e-19,1.73854e-16,
22,-4.38508,-39.5068,10.3937,31.3869,1.67679,12,-2.33452,1.79072,-34.4049,2.86669,35.2312,-0.0831123,1.70243,0.00187807,-0.126127,0.371304,0.0681665,-2.50357,0.00791248,1.26368,0.00140631,0.8,0.02,0,-0.0641179,-0.513401,0.0758917,0.0242564,0.294989,-0.244654,-0.0407866,-4.44089e-19,8.88178e-19,1.18952e-16,
23,-4.7861,-39.5904,10.8189,31.4852,1.8121,12,-2.54991,1.79072,-34.4049,2.86669,35.2312,-0.0831123,1.70243,0.00187807,-0.126401,0.369372,0.0684721,-2.50348,0.00917091,1.26283,0.00121693,0.8,0.02,0,-0.0684201,-0.482996,0.0764179,0.024591,0.314609,-0.212651,-0.0473432,0,4.44089e-19,1.09802e-16,
24,-5.32145,-39.6851,11.3833,31.5572,1.96508,12,-2.79455,1.79072,-34.4049,2.86669,35.2312,-0.0831123,1.70243,0.00187807,-0.126697,0.367556,0.0687818,-2.50338,0.0105226,1.2621,0.000998823,0.8,0.02,0,-0.0739708,-0.454081,0.0774218,0.0250362,0.337925,-0.18234,-0.0545278,8.88178e-19,4.44089e-19,2.74506e-17,
25,-6.06326,-39.7887,12.1618,31.5982,2.13646,12,-3.07121,1.79072,-34.4049,2.86669,35.2312,-0.0831123,1.70243,0.00187807,-0.127022,0.365849,0.0690982,-2.50328,0.0119822,1.26148,0.000748971,0.8,0.02,0,-0.0813064,-0.426705,0.0790862,0.0253313,0.364901,-0.153448,-0.062463,4.44089e-19,0,1.83004e-17,
26,-7.12669,-39.898,13.2743,31.6003,2.32259,12,-3.37835,1.79072,-34.4049,2.86669,35.2312,-0.0831123,1.70243,0.00187807,-0.127387,0.364245,0.069425,-2.50317,0.0135639,1.26098,0.000463878,0.8,0.02,0,-0.0913356,-0.400903,0.0817189,0.0253146,0.395429,-0.125739,-0.0712732,4.44089e-19,0,-2.74506e-17,
27,-8.69143,-40.007,14.9091,31.5555,2.51067,12,-3.70411,1.79072,-34.4049,2.86669,35.2312,-0.0831123,1.70243,0.00187807,-0.127809,0.362737,0.0697694,-2.50307,0.0152807,1.26058,0.000139344,0.8,0.02,0,-0.105504,-0.377135,0.0860829,0.0249067,0.429202,-0.0986673,-0.0811335,0,0,-9.15019e-18,
28,-10.9913,-40.1038,17.3172,31.4692,2.67027,12,-4.00979,1.79072,-34.4049,2.86669,35.2312,-0.0831123,1.70243,0.00187807,-0.128313,0.361312,0.0701432,-2.50298,0.0171364,1.2603,-0.000229532,0.8,0.02,0,-0.125929,-0.356114,0.0934627,0.0242512,0.463917,-0.0715358,-0.0922191,4.44089e-19,4.44089e-19,4.57509e-17,
29,-13.8778,-40.1639,20.3999,31.4326,2.72825,12,-4.15064,1.79072,-34.4049,2.86669,35.2312,-0.0831123,1.70243,0.00187807,-0.128934,0.359954,0.0705676,-2.50288,0.0191117,1.26013,-0.000647561,0.8,0.02,0,-0.155264,-0.339655,0.106102,0.0237392,0.493819,-0.042233,-0.104507,-8.88178e-19,-4.44089e-19,1.55553e-16,
30,-12.7635,-40.1863,19.8133,31.6789,2.41678,12,-3.33856,1.76872,-33.4714,2.78442,35.2318,-0.0393421,1.66011,0.00167222,-0.129703,0.358644,0.0710691,-2.50278,0.0211349,1.2601,-0.0011158,0.8,0.02,0,-0.192133,-0.327475,0.125355,0.0249735,0.505809,-0.00832435,-0.11706,0,-4.44089e-19,1.00652e-16,
31,-11.5442,-41.3725,19.6729,32.3498,1.45333,12,-3.04855,1.76872,-33.4714,2.78442,35.2318,-0.0393421,1.66011,0.00167222,-0.130457,0.357436,0.0716141,-2.50265,0.0229895,1.26018,-0.0016074,0.8,0.02,0,-0.188569,-0.301849,0.136252,0.0324053,0.463645,0.01977,-0.122898,0,-4.44089e-19,1.00652e-16,
32,-9.87104,-42.5501,19.1108,33.0993,0.447424,12,-2.65205,1.76872,-33.4714,2.78442,35.2318,-0.0393421,1.66011,0.00167222,-0.131154,0.356315,0.0721934,-2.50249,0.0244827,1.26038,-0.00210386,0.8,0.02,0,-0.174137,-0.280223,0.14483,0.0412714,0.373308,0.0516303,-0.124117,4.44089e-19,4.44089e-19,1.00652e-16,
33,-7.71089,-43.6848,18.0556,33.914,-0.58091,12,-2.15375,1.76872,-33.4714,2.78442,35.2318,-0.0393421,1.66011,0.00167222,-0.131762,0.355248,0.0727841,-2.50229,0.0254921,1.26072,-0.00259044,0.8,0.02,0,-0.15217,-0.26679,0.147671,0.0506324,0.252334,0.0849295,-0.121645,4.44089e-19,4.44089e-19,4.57509e-17,
34,-5.03913,-44.7457,16.4376,34.7774,-1.61066,12,-1.56885,1.76872,-33.4714,2.78442,35.2318,-0.0393421,1.66011,0.00167222,-0.132259,0.354214,0.073365,-2.50204,0.0259501,1.26119,-0.0030539,0.8,0.02,0,-0.12429,-0.258657,0.145243,0.0607811,0.114515,0.117127,-0.115864,4.44089e-19,4.44089e-19,-9.15019e-18,
35,-1.84832,-45.7059,14.2,35.6753,-2.61535,12,-0.929179,1.76872,-33.4714,2.78442,35.2318,-0.0393421,1.66011,0.00167222,-0.132622,0.353197,0.0739152,-2.50176,0.02582,1.26178,-0.00348145,0.8,0.02,0,-0.0906192,-0.25421,0.137543,0.0717388,-0.0325263,0.147392,-0.106889,4.44089e-19,0,4.57509e-17,
36,1.86717,-46.5494,11.286,36.596,-3.56472,12,-0.290851,1.76872,-33.4714,2.78442,35.2318,-0.0393421,1.66011,0.00167222,-0.132826,0.352186,0.0744126,-2.50142,0.0251046,1.26248,-0.00383956,0.8,0.02,0,-0.0510326,-0.252787,0.124345,0.0832395,-0.178848,0.176074,-0.089527,4.44089e-19,-4.44089e-19,-9.15019e-18,
37,6.11099,-47.2749,7.64495,37.5297,-4.43675,12,0.285483,1.76872,-33.4714,2.78442,35.2318,-0.0393421,1.66011,0.00167222,-0.132848,0.351167,0.0748328,-2.50104,0.023826,1.2633,-0.0041151,0.8,0.02,0,-0.00546277,-0.254747,0.105047,0.0953376,-0.319647,0.204237,-0.0688843,0,-4.44089e-19,9.15019e-18,
38,10.9213,-47.9133,3.19769,38.4564,-5.21839,12,0.712833,1.76872,-33.4714,2.78442,35.2318,-0.0393421,1.66011,0.00167222,-0.132663,0.350131,0.0751502,-2.50061,0.0220342,1.26423,-0.00429777,0.8,0.02,0,0.0461701,-0.259003,0.0793584,0.107919,-0.447962,0.231387,-0.0456679,-4.44089e-19,-4.44089e-19,1.00652e-16,
39,16.0822,-48.5542,-1.86694,39.2899,-5.92386,12,0.856913,1.76872,-33.4714,2.78442,35.2318,-0.0393421,1.66011,0.00167222,-0.132246,0.349071,0.0753371,-2.50013,0.0198118,1.26526,-0.00438089,0.8,0.02,0,0.104259,-0.264819,0.0467333,0.120624,-0.555597,0.257321,-0.0207788,-4.44089e-19,-4.44089e-19,2.74506e-17,
40,14.5599,-49.6774,-0.171583,39.2675,-6.36949,12,-0.223951,1.76008,-32.9663,2.74506,35.1768,-0.0133694,1.6356,0.00165222,-0.13158,0.347987,0.0753672,-2.4996,0.0172741,1.26638,-0.00436274,0.8,0.02,0,0.166483,-0.271043,0.00751435,0.132503,-0.634438,0.281596,0.00453746,4.44089e-19,4.44089e-19,-9.15019e-18,
41,13.3479,-49.6866,0.622083,39.3025,-6.43085,12,-0.687132,1.76008,-32.9663,2.74506,35.1768,-0.0133694,1.6356,0.00165222,-0.130934,0.346916,0.0753887,-2.49906,0.014717,1.26756,-0.00431092,0.8,0.02,0,0.161551,-0.267865,0.00536957,0.134497,-0.639271,0.295104,0.0129543,4.44089e-19,0,-1.18952e-16,
42,11.9727,-49.675,1.62104,39.3371,-6.5067,12,-1.07667,1.76008,-32.9663,2.74506,35.1768,-0.0133694,1.6356,0.00165222,-0.13034,0.345846,0.075427,-2.49852,0.0122594,1.26881,-0.0042381,0.8,0.02,0,0.148387,-0.267356,0.00957402,0.135596,-0.614386,0.311909,0.0182039,-4.44089e-19,0,-9.15019e-18,
43,10.4446,-49.6373,2.83036,39.3726,-6.59534,12,-1.36174,1.76008,-32.9663,2.74506,35.1768,-0.0133694,1.6356,0.00165222,-0.129812,0.344778,0.0754927,-2.49797,0.00991732,1.27013,-0.00415115,0.8,0.02,0,0.13205,-0.267141,0.0164234,0.137679,-0.585527,0.33075,0.0217383,-8.88178e-19,0,6.40513e-17,
44,8.80464,-49.5724,4.21596,39.4158,-6.70542,12,-1.5162,1.76008,-32.9663,2.74506,35.1768,-0.0133694,1.6356,0.00165222,-0.129357,0.343714,0.0755954,-2.4974,0.00766559,1.27155,-0.00405422,0.8,0.02,0,0.113816,-0.265807,0.0256893,0.141176,-0.562933,0.354862,0.0242338,-8.88178e-19,4.44089e-19,-9.15019e-18,
45,7.11108,-49.4708,5.71604,39.54,-6.81833,12,-1.54606,1.76008,-32.9663,2.74506,35.1768,-0.0133694,1.6356,0.00165222,-0.128977,0.342693,0.0757432,-2.4968,0.00543696,1.27333,-0.00395486,0.8,0.02,0,0.0950278,-0.255402,0.0369454,0.150511,-0.557158,0.443687,0.0248378,-4.44089e-19,0,9.15019e-18,
46,5.40414,-49.2756,7.31006,39.9279,-6.8882,12,-1.30753,1.76008,-32.9663,2.74506,35.1768,-0.0133694,1.6356,0.00165222,-0.12867,0.341841,0.0759398,-2.49607,0.00279356,1.2763,-0.00449266,0.8,0.02,0,0.0766303,-0.212854,0.049159,0.182359,-0.660849,0.743444,-0.134448,0,-4.44089e-19,-1.37253e-16,
47,3.78249,-49.1887,8.76833,40.1955,-6.94409,12,-1.38477,1.76008,-32.9663,2.74506,35.1768,-0.0133694,1.6356,0.00165222,-0.128434,0.341075,0.0761974,-2.49523,-4.22523e-05,1.27978,-0.00500105,0.8,0.02,0,0.059,-0.191611,0.0643995,0.210913,-0.708953,0.869898,-0.127097,0,-8.88178e-19,-3.66008e-17,
48,2.18364,-49.1629,10.1654,40.5428,-6.86648,12,-1.78186,1.76008,-32.9663,2.74506,35.1768,-0.0133694,1.6356,0.00165222,-0.128263,0.340347,0.0765154,-2.4943,-0.00294685,1.2835,-0.00554543,0.8,0.02,0,0.0429644,-0.18192,0.0794908,0.231557,-0.726149,0.929279,-0.136096,4.44089e-19,-4.44089e-19,-7.32015e-17,
49,0.613091,-49.1471,11.5149,41.1904,-6.48749,11.6195,-2.64793,1.76008,-32.9663,2.74506,35.1768,-0.0133694,1.6356,0.00165222,-0.128152,0.339634,0.0768928,-2.49331,-0.00584211,1.28734,-0.0062461,0.8,0.02,0,0.027692,-0.17821,0.0943385,0.246207,-0.723815,0.959614,-0.175167,4.44089e-19,-4.44089e-19,-1.83004e-17,
50,1.43273,-49.1976,10.4936,42.7346,-6.01726,7.6602,-3.69883,1.75279,-32.6965,2.72331,35.125,0.00529622,1.62308,0.00169871,-0.128099,0.338922,0.0773299,-2.49228,-0.00862697,1.29115,-0.00728727,0.8,0.02,0,0.0132402,-0.178023,0.109291,0.259496,-0.696215,0.952739,-0.260292,0,-4.44089e-19,3.66008e-17,
51,2.1572,-48.4449,9.96326,43.6632,0.588063,10.986,4.40936,1.75279,-32.6965,2.72331,35.125,0.00529622,1.62308,0.00169871,-0.128018,0.338174,0.0777348,-2.49111,-0.0113058,1.29399,-0.00874526,0.8,0.02,0,0.0202505,-0.187063,0.101228,0.29229,-0.669711,0.710273,-0.364497,-4.44089e-19,-4.44089e-19,1.00652e-16,
52,2.69726,-47.7999,9.38683,44.7492,2.55451,11.9934,8.66117,1.75279,-32.6965,2.72331,35.125,0.00529622,1.62308,0.00169871,-0.127867,0.337449,0.0781748,-2.49,-0.0121981,1.29739,-0.00730914,0.8,0.02,0,0.0377398,-0.181183,0.109989,0.277946,-0.223072,0.849816,0.359029,-4.44089e-19,1.37668e-17,-1.73854e-16,
53,3.17168,-47.3953,8.66382,45.6415,4.26754,12,12,1.75279,-32.6965,2.72331,35.125,0.00529622,1.62308,0.00169871,-0.127667,0.336757,0.0786105,-2.48887,-0.011989,1.30117,-0.00404967,0.8,0.02,0,0.0500175,-0.17309,0.108928,0.280553,0.0522813,0.945382,0.814868,6.66134e-18,-7.54952e-18,-3.56857e-16,
54,3.55675,-47.1983,7.79828,46.3633,5.85529,12,12,1.75279,-32.6965,2.72331,35.125,0.00529622,1.62308,0.00169871,-0.127431,0.336087,0.0790289,-2.48771,-0.0109733,1.30507,0.000595732,0.8,0.02,0,0.0588547,-0.16754,0.104602,0.291768,0.253914,0.976074,1.16135,-4.44089e-19,1.37668e-17,-3.75158e-16,
55,3.83878,-47.1617,6.79696,47.0055,6.92849,12,12,1.75279,-32.6965,2.72331,35.125,0.00529622,1.62308,0.00169871,-0.127168,0.33543,0.079424,-2.4865,-0.00921933,1.30903,0.00533863,0.8,0.02,0,0.0659476,-0.164182,0.0987668,0.302509,0.438499,0.987906,1.18573,-4.44089e-19,4.44089e-18,-2.37905e-16,
56,4.00855,-47.1798,5.78011,47.6296,6.23845,11.5568,12,1.75279,-32.6965,2.72331,35.125,0.00529622,1.62308,0.00169871,-0.126883,0.334781,0.0797853,-2.48524,-0.00694047,1.31299,0.0101009,0.8,0.02,0,0.0710201,-0.162398,0.090328,0.313113,0.569713,0.991212,1.19057,-1.33227e-18,8.88178e-19,-4.93038e-32,
57,4.13243,-47.1418,4.895,48.2457,3.58249,10.8395,11.3034,1.75279,-32.6965,2.72331,35.125,0.00529622,1.62308,0.00169871,-0.126598,0.33413,0.0800948,-2.48393,-0.00469168,1.31683,0.0148984,0.8,0.02,0,0.0713654,-0.162666,0.0773745,0.327867,0.562199,0.960697,1.19938,-4.44089e-19,-7.70372e-34,3.66008e-17,
58,4.28561,-47.007,4.20595,48.8241,-0.101002,10.0395,5.73319,1.75279,-32.6965,2.72331,35.125,0.00529622,1.62308,0.00169871,-0.126334,0.333472,0.080336,-2.48255,-0.00316019,1.32044,0.0194811,0.8,0.02,0,0.0658908,-0.164556,0.0603031,0.3459,0.382873,0.901124,1.14567,-4.44089e-19,-8.88178e-19,-7.32015e-17,
59,4.52181,-46.8206,3.64351,49.3276,-3.29499,9.12605,0.312597,1.75279,-32.6965,2.72331,35.125,0.00529622,1.62308,0.00169871,-0.126108,0.332802,0.0805049,-2.4811,-0.00275521,1.32376,0.021998,0.8,0.02,0,0.0566846,-0.167349,0.0422197,0.362705,0.101243,0.829996,0.629217,1.37668e-17,1.33227e-17,-1.39083e-15,
60,4.63803,-46.7767,3.6343,49.814,-2.67292,9.32963,0.902579,1.72774,-32.5061,2.69116,35.0639,0.0252855,1.60495,0.00171864,-0.125916,0.33212,0.0806096,-2.47959,-0.00354762,1.32677,0.0223586,0.8,0.02,0,0.048034,-0.170605,0.026182,0.376573,-0.198101,0.752177,0.0901557,-4.44089e-19,6.21725e-18,-3.66008e-16,
61,4.66171,-46.7208,3.58467,49.7555,-2.609,9.26904,0.877858,1.72774,-32.5061,2.69116,35.0639,0.0252855,1.60495,0.00171864,-0.125735,0.331434,0.0807072,-2.47809,-0.00460733,1.32977,0.0227365,0.8,0.02,0,0.0451444,-0.171537,0.0244036,0.376234,-0.264929,0.749928,0.0944715,-4.44089e-19,3.10862e-18,-3.11106e-16,
62,4.68167,-46.6653,3.53532,49.6954,-2.57426,9.22689,0.874962,1.72774,-32.5061,2.69116,35.0639,0.0252855,1.60495,0.00171864,-0.125556,0.330745,0.0808032,-2.47659,-0.00573007,1.33276,0.0230938,0.8,0.02,0,0.0447328,-0.172214,0.0239899,0.374592,-0.280684,0.748045,0.0893238,-4.44089e-19,1.77636e-18,-2.56205e-16,
63,4.70141,-46.6106,3.48523,49.6346,-2.54787,9.19095,0.87782,1.72774,-32.5061,2.69116,35.0639,0.0252855,1.60495,0.00171864,-0.125376,0.330055,0.0808983,-2.4751,-0.00686528,1.33574,0.0234455,0.8,0.02,0,0.0450138,-0.172503,0.0237689,0.37317,-0.283802,0.744976,0.0879351,-8.88178e-19,8.88178e-19,-1.83004e-16,
64,4.72192,-46.5567,3.43407,49.5734,-2.52402,9.15703,0.882176,1.72774,-32.5061,2.69116,35.0639,0.0252855,1.60495,0.00171864,-0.125194,0.329365,0.0809925,-2.47361,-0.00799902,1.3387,0.0237971,0.8,0.02,0,0.0454533,-0.172492,0.0235585,0.371996,-0.283435,0.74139,0.0878995,-8.88178e-19,4.44089e-19,-1.09802e-16,
65,4.74348,-46.5035,3.38172,49.5122,-2.50104,9.12386,0.886815,1.72774,-32.5061,2.69116,35.0639,0.0252855,1.60495,0.00171864,-0.125011,0.328676,0.0810857,-2.47212,-0.00912721,1.34165,0.0241501,0.8,0.02,0,0.0459122,-0.172277,0.0233118,0.370964,-0.282048,0.737652,0.0882462,-8.88178e-19,4.44089e-19,8.62817e-32,
66,4.76625,-46.4511,3.32807,49.451,-2.47843,9.0911,0.891364,1.72774,-32.5061,2.69116,35.0639,0.0252855,1.60495,0.00171864,-0.124825,0.327988,0.0811778,-2.47064,-0.0102486,1.34459,0.0245049,0.8,0.02,0,0.0463568,-0.17193,0.0230185,0.37,-0.280342,0.733886,0.0886882,-1.33227e-18,4.44089e-19,7.32015e-17,
67,4.79029,-46.3995,3.27304,49.3898,-2.45604,9.05866,0.895702,1.72774,-32.5061,2.69116,35.0639,0.0252855,1.60495,0.00171864,-0.124638,0.327302,0.0812685,-2.46917,-0.0113627,1.34751,0.0248614,0.8,0.02,0,0.0467821,-0.171495,0.0226789,0.369063,-0.278528,0.730124,0.0891417,-3.85186e-34,-4.44089e-19,-3.66008e-17,
68,4.81569,-46.3486,3.21655,49.3287,-2.43379,9.02653,0.899793,1.72774,-32.5061,2.69116,35.0639,0.0252855,1.60495,0.00171864,-0.124449,0.326618,0.0813577,-2.4677,-0.0124694,1.35042,0.0252198,0.8,0.02,0,0.0471907,-0.171,0.0222962,0.368131,-0.276674,0.726373,0.0895808,4.44089e-19,-7.70372e-34,-1.28103e-16,
69,4.84254,-46.2984,3.15851,49.2678,-2.41156,8.99468,0.903698,1.72774,-32.5061,2.69116,35.0639,0.0252855,1.60495,0.00171864,-0.124259,0.325936,0.0814452,-2.46623,-0.0135686,1.35331,0.0255798,0.8,0.02,0,0.047587,-0.170465,0.0218738,0.367195,-0.274801,0.722633,0.0899981,8.88178e-19,-4.44089e-19,-9.15019e-17,
70,5.0231,-46.4267,3.05063,49.622,-2.37809,8.34252,0.887517,1.66412,-32.3115,2.62321,34.9575,0.0535573,1.55432,0.001593,-0.124067,0.325257,0.0815309,-2.46476,-0.0146602,1.35618,0.0259413,0.8,0.02,0,0.0479761,-0.169902,0.021415,0.366251,-0.272914,0.718904,0.0903972,8.88178e-19,-4.44089e-19,-4.57509e-17,
71,5.05348,-46.3771,2.98798,49.557,-2.36404,8.36353,0.897446,1.66412,-32.3115,2.62321,34.9575,0.0535573,1.55432,0.001593,-0.12387,0.324573,0.0816109,-2.46328,-0.0157514,1.35888,0.0262973,0.8,0.02,0,0.0493526,-0.170828,0.0200092,0.369729,-0.272794,0.675512,0.0889973,4.44089e-19,-4.44089e-19,6.40513e-17,
72,5.08563,-46.3297,2.92364,49.496,-2.3458,8.34731,0.902104,1.66412,-32.3115,2.62321,34.9575,0.0535573,1.55432,0.001593,-0.12367,0.32389,0.0816892,-2.46181,-0.0168304,1.36153,0.026656,0.8,0.02,0,0.0498908,-0.170754,0.01957,0.36935,-0.269756,0.661659,0.0896773,4.44089e-19,-4.44089e-19,-1.83004e-17,
73,5.11969,-46.2837,2.85739,49.4358,-2.326,8.32117,0.904375,1.66412,-32.3115,2.62321,34.9575,0.0535573,1.55432,0.001593,-0.123469,0.323209,0.0817655,-2.46033,-0.0178997,1.36415,0.0270169,0.8,0.02,0,0.0503661,-0.170317,0.0190797,0.368261,-0.267309,0.655184,0.0902121,4.44089e-19,-4.44089e-19,-6.40513e-17,
74,5.15577,-46.2388,2.78901,49.3758,-2.30591,8.2923,0.905337,1.66412,-32.3115,2.62321,34.9575,0.0535573,1.55432,0.001593,-0.123265,0.32253,0.0818396,-2.45886,-0.018961,1.36675,0.0273789,0.8,0.02,0,0.050823,-0.169738,0.0185301,0.367098,-0.265327,0.650649,0.0905018,-3.85186e-34,-7.70372e-34,4.57509e-17,
75,5.19397,-46.195,2.71833,49.3158,-2.28598,8.26271,0.905308,1.66412,-32.3115,2.62321,34.9575,0.0535573,1.55432,0.001593,-0.12306,0.321854,0.0819114,-2.4574,-0.0200152,1.36934,0.0277414,0.8,0.02,0,0.0512762,-0.169103,0.0179375,0.365971,-0.263546,0.646671,0.0906345,-4.44089e-19,-4.44089e-19,1.18952e-16,
76,5.23444,-46.1524,2.64518,49.2557,-2.26639,8.23296,0.904341,1.66412,-32.3115,2.62321,34.9575,0.0535573,1.55432,0.001593,-0.122853,0.32118,0.0819806,-2.45594,-0.0210626,1.37191,0.0281041,0.8,0.02,0,0.0517343,-0.16845,0.0173076,0.364883,-0.261847,0.642881,0.0906562,-3.85186e-34,-7.70372e-34,4.57509e-17,
77,5.27733,-46.1109,2.56939,49.1957,-2.2472,8.20324,0.9024,1.66412,-32.3115,2.62321,34.9575,0.0535573,1.55432,0.001593,-0.122644,0.320509,0.0820472,-2.45448,-0.0221033,1.37447,0.0284664,0.8,0.02,0,0.0522026,-0.167797,0.0166423,0.363822,-0.26019,0.639172,0.0905801,8.88178e-19,-4.44089e-19,7.39557e-32,
78,5.32282,-46.0705,2.49075,49.1356,-2.22842,8.17363,0.899462,1.66412,-32.3115,2.62321,34.9575,0.0535573,1.55432,0.001593,-0.122434,0.31984,0.0821109,-2.45303,-0.0231376,1.37701,0.028828,0.8,0.02,0,0.0526848,-0.167151,0.0159415,0.36278,-0.258566,0.635511,0.0904059,4.44089e-19,4.44089e-19,-3.66008e-17,
79,5.37114,-46.0314,2.40905,49.0756,-2.20981,8.14411,0.895677,1.66412,-32.3115,2.62321,34.9575,0.0535573,1.55432,0.001593,-0.122221,0.319174,0.0821718,-2.45159,-0.0241655,1.37954,0.0291885,0.8,0.02,0,0.0531844,-0.166517,0.0152047,0.361751,-0.256973,0.631886,0.0901321,4.44089e-19,4.44089e-19,-1.00652e-16,
80,5.4979,-46.1654,2.33483,49.3816,-2.18972,7.5429,0.851806,1.5819,-32.0874,2.53635,34.8227,0.0847861,1.48641,0.00136988,-0.122006,0.31851,0.0822295,-2.45014,-0.0251871,1.38205,0.0295476,0.8,0.02,0,0.0537051,-0.165897,0.0144315,0.360731,-0.255399,0.628289,0.0897717,-3.85186e-34,4.44089e-19,2.74506e-17,
81,5.55379,-46.1283,2.24435,49.3178,-2.17771,7.56082,0.853205,1.5819,-32.0874,2.53635,34.8227,0.0847861,1.48641,0.00136988,-0.121788,0.317843,0.0822829,-2.44869,-0.0262107,1.3844,0.0298907,0.8,0.02,0,0.054602,-0.166732,0.0133434,0.363682,-0.25592,0.588249,0.085764,4.44089e-19,-7.70372e-34,-5.49011e-17,
82,5.6131,-46.0939,2.15038,49.2574,-2.16167,7.54482,0.850275,1.5819,-32.0874,2.53635,34.8227,0.0847861,1.48641,0.00136988,-0.121567,0.317177,0.0823332,-2.44724,-0.0272249,1.38671,0.0302326,0.8,0.02,0,0.0552765,-0.166649,0.0125862,0.363187,-0.253546,0.575244,0.0854716,-3.85186e-34,-7.70372e-34,1.28103e-16,
83,5.67633,-46.0617,2.0523,49.1975,-2.14373,7.51981,0.84557,1.5819,-32.0874,2.53635,34.8227,0.0847861,1.48641,0.00136988,-0.121343,0.316512,0.0823802,-2.44579,-0.0282309,1.38898,0.0305734,0.8,0.02,0,0.0559583,-0.166243,0.0117448,0.362058,-0.251492,0.569077,0.0852164,-3.85186e-34,-4.44089e-19,2.74506e-16,
84,5.74382,-46.0314,1.94967,49.1374,-2.12493,7.4924,0.840046,1.5819,-32.0874,2.53635,34.8227,0.0847861,1.48641,0.00136988,-0.121116,0.315849,0.0824235,-2.44434,-0.0292299,1.39124,0.0309126,0.8,0.02,0,0.0566575,-0.165721,0.0108348,0.360873,-0.249759,0.564737,0.0847939,8.88178e-19,-4.44089e-19,6.40513e-17,
85,5.81591,-46.0032,1.84205,49.077,-2.10561,7.46443,0.833999,1.5819,-32.0874,2.53635,34.8227,0.0847861,1.48641,0.00136988,-0.120887,0.315188,0.082463,-2.44291,-0.0302225,1.39348,0.0312497,0.8,0.02,0,0.0573858,-0.165166,0.00986754,0.359725,-0.24814,0.56094,0.0842686,8.88178e-19,-4.44089e-19,6.40513e-17,
86,5.89302,-45.9771,1.72896,49.0161,-2.08589,7.43646,0.827492,1.5819,-32.0874,2.53635,34.8227,0.0847861,1.48641,0.00136988,-0.120654,0.31453,0.0824984,-2.44147,-0.0312086,1.39571,0.0315844,0.8,0.02,0,0.0581521,-0.164611,0.00884448,0.358617,-0.24653,0.557339,0.0836804,4.44089e-19,-7.70372e-34,1.00652e-16,
87,5.97561,-45.9534,1.6099,48.9547,-2.06577,7.40865,0.820506,1.5819,-32.0874,2.53635,34.8227,0.0847861,1.48641,0.00136988,-0.120418,0.313874,0.0825294,-2.44004,-0.0321882,1.39793,0.0319166,0.8,0.02,0,0.0589628,-0.164071,0.00776297,0.357535,-0.244892,0.553834,0.0830421,-3.85186e-34,-7.70372e-34,-1.83004e-17,
88,6.06422,-45.9322,1.48428,48.8929,-2.0452,7.38108,0.813001,1.5819,-32.0874,2.53635,34.8227,0.0847861,1.48641,0.00136988,-0.120179,0.313219,0.0825559,-2.43862,-0.033161,1.40013,0.032246,0.8,0.02,0,0.0598239,-0.163555,0.00661877,0.356469,-0.243212,0.550393,0.0823546,-3.85186e-34,-4.44089e-19,3.66008e-17,
89,6.15945,-45.9137,1.35143,48.8305,-2.0241,7.35376,0.804959,1.5819,-32.0874,2.53635,34.8227,0.0847861,1.48641,0.00136988,-0.119936,0.312567,0.0825775,-2.43719,-0.034127,1.40232,0.0325724,0.8,0.02,0,0.0607415,-0.163066,0.00540672,0.355413,-0.241484,0.547003,0.0816149,8.88178e-19,-8.88178e-19,-8.23517e-17,
90,6.39361,-46.0684,1.19236,49.0987,-1.97773,6.802,0.753118,1.50176,-31.86,2.45158,34.6849,0.114832,1.41974,0.00114871,-0.119689,0.311917,0.082594,-2.43578,-0.0350858,1.40449,0.0328957,0.8,0.02,0,0.0617222,-0.162607,0.00412085,0.354361,-0.239703,0.543659,0.0808212,4.44089e-19,-7.70372e-34,-9.15019e-18,
91,6.50546,-46.0559,1.0405,49.0313,-1.96283,6.82021,0.74934,1.50176,-31.86,2.45158,34.6849,0.114832,1.41974,0.00114871,-0.119435,0.311262,0.0826027,-2.43435,-0.0360382,1.40652,0.0331995,0.8,0.02,0,0.0635774,-0.163558,0.00216843,0.356833,-0.238109,0.507006,0.0759302,-3.85186e-34,-7.70372e-34,-5.49011e-17,
92,6.6266,-46.0485,0.878804,48.9662,-1.94322,6.80691,0.74034,1.50176,-31.86,2.45158,34.6849,0.114832,1.41974,0.00114871,-0.119175,0.310608,0.0826058,-2.43292,-0.0369786,1.4085,0.0335002,0.8,0.02,0,0.0648683,-0.163642,0.000785346,0.356249,-0.235088,0.495065,0.0751813,-4.44089e-19,-7.70372e-34,-3.66008e-17,
93,6.75801,-46.0458,0.706038,48.9009,-1.92125,6.78514,0.728787,1.50176,-31.86,2.45158,34.6849,0.114832,1.41974,0.00114871,-0.11891,0.309954,0.0826029,-2.4315,-0.0379091,1.41046,0.0337975,0.8,0.02,0,0.0661798,-0.163442,-0.000723251,0.355091,-0.232623,0.48946,0.0743424,-8.88178e-19,-7.70372e-34,2.19605e-16,
94,6.90089,-46.0481,0.520775,48.8346,-1.89795,6.7611,0.715562,1.50176,-31.86,2.45158,34.6849,0.114832,1.41974,0.00114871,-0.11864,0.309301,0.0825935,-2.43009,-0.038831,1.4124,0.0340905,0.8,0.02,0,0.0675647,-0.16316,-0.00236762,0.353872,-0.230495,0.485563,0.0732417,-4.44089e-19,-4.44089e-19,1.83004e-17,
95,7.05665,-46.0558,0.321398,48.767,-1.87361,6.73653,0.700854,1.50176,-31.86,2.45158,34.6849,0.114832,1.41974,0.00114871,-0.118364,0.30865,0.0825769,-2.42868,-0.0397448,1.41433,0.0343783,0.8,0.02,0,0.0690491,-0.162871,-0.00414723,0.352677,-0.228449,0.482173,0.0719498,-4.44089e-19,-4.44089e-19,9.15019e-18,
96,7.227,-46.0697,0.10602,48.6979,-1.84825,6.71195,0.684588,1.50176,-31.86,2.45158,34.6849,0.114832,1.41974,0.00114871,-0.118081,0.308,0.0825526,-2.42727,-0.0406503,1.41625,0.0346603,0.8,0.02,0,0.0706539,-0.162613,-0.00607242,0.351505,-0.226368,0.478965,0.0704986,-4.44089e-19,-4.44089e-19,9.15019e-18,
97,7.41395,-46.0906,-0.1276,48.6269,-1.82173,6.68751,0.666592,1.50176,-31.86,2.45158,34.6849,0.114832,1.41974,0.00114871,-0.117792,0.30735,0.0825199,-2.42587,-0.0415471,1.41815,0.0349359,0.8,0.02,0,0.0723988,-0.162401,-0.00815968,0.350343,-0.224203,0.475841,0.0688879,-4.44089e-19,-4.44089e-19,-6.40513e-17,
98,7.61994,-46.1196,-0.382142,48.5538,-1.79385,6.66326,0.646675,1.50176,-31.86,2.45158,34.6849,0.114832,1.41974,0.00114871,-0.117495,0.306701,0.0824782,-2.42447,-0.0424348,1.42004,0.0352043,0.8,0.02,0,0.0743055,-0.162249,-0.01043,0.349179,-0.221929,0.472769,0.0671033,-4.44089e-19,-7.70372e-34,-1.00652e-16,
99,7.84792,-46.1578,-0.660833,48.4783,-1.76409,6.63908,0.624807,1.50176,-31.86,2.45158,34.6849,0.114832,1.41974,0.00114871,-0.117189,0.306052,0.0824266,-2.42308,-0.0433129,1.42192,0.0354648,0.8,0.02,0,0.0763993,-0.162164,-0.0129088,0.348005,-0.219525,0.469736,0.0651265,-4.44089e-19,4.44089e-19,-8.23517e-17,
100,8.14241,-46.3824,-0.930434,48.6951,-1.69401,6.14458,0.50285,1.4256,-31.639,2.3712,34.5472,0.143331,1.35605,0.000939186,-0.116874,0.305404,0.0823641,-2.42169,-0.0441807,1.42379,0.0357166,0.8,0.02,0,0.0787107,-0.162157,-0.0156265,0.346813,-0.216953,0.466727,0.0629523,-4.44089e-19,4.44089e-19,2.74506e-17,
101,8.43002,-46.4442,-1.27546,48.6102,-1.66469,6.15809,0.485741,1.4256,-31.639,2.3712,34.5472,0.143331,1.35605,0.000939186,-0.116548,0.304749,0.0822901,-2.4203,-0.0450331,1.42552,0.0359219,0.8,0.02,0,0.0814257,-0.163537,-0.0184831,0.348633,-0.21308,0.433875,0.0513359,-4.44089e-19,4.44089e-19,8.23517e-17,
102,8.75353,-46.5221,-1.65955,48.5242,-1.62737,6.14346,0.463195,1.4256,-31.639,2.3712,34.5472,0.143331,1.35605,0.000939186,-0.116211,0.304093,0.0822031,-2.41891,-0.0458686,1.42721,0.0361178,0.8,0.02,0,0.0844181,-0.164192,-0.0217557,0.347818,-0.208892,0.422844,0.0489574,-4.44089e-19,4.44089e-19,2.74506e-17,
103,9.12002,-46.6182,-2.09073,48.4339,-1.58342,6.12131,0.437723,1.4256,-31.639,2.3712,34.5472,0.143331,1.35605,0.000939186,-0.11586,0.303434,0.0821013,-2.41752,-0.0466883,1.42888,0.0363047,0.8,0.02,0,0.0877366,-0.164666,-0.0254617,0.346451,-0.204924,0.417485,0.0467233,4.44089e-19,-7.70372e-34,-1.83004e-17,
104,9.53842,-46.7359,-2.57896,48.3377,-1.53277,6.09722,0.409888,1.4256,-31.639,2.3712,34.5472,0.143331,1.35605,0.000939186,-0.115494,0.302773,0.0819827,-2.41614,-0.0474918,1.43054,0.0364815,0.8,0.02,0,0.0914679,-0.165156,-0.029646,0.344974,-0.200857,0.413654,0.0442026,4.44089e-19,-4.44089e-19,-1.83004e-17,
105,10.0204,-46.8802,-3.13715,48.2343,-1.47442,6.07278,0.379498,1.4256,-31.639,2.3712,34.5472,0.143331,1.35605,0.000939186,-0.115111,0.30211,0.0818451,-2.41477,-0.0482773,1.43218,0.0366471,0.8,0.02,0,0.0957137,-0.165756,-0.0343911,0.343451,-0.196374,0.410266,0.0414212,1.33227e-18,-4.44089e-19,-9.15019e-17,
106,10.5815,-47.0574,-3.78243,48.1217,-1.40668,6.04846,0.345945,1.4256,-31.639,2.3712,34.5472,0.143331,1.35605,0.000939186,-0.114709,0.301444,0.0816859,-2.4134,-0.0490423,1.43381,0.0368006,0.8,0.02,0,0.100597,-0.166524,-0.0398174,0.341866,-0.191259,0.407019,0.0383695,-3.85186e-34,-7.70372e-34,-9.15019e-17,
107,11.2428,-47.2764,-4.53809,47.9974,-1.32718,6.02443,0.308255,1.4256,-31.639,2.3712,34.5472,0.143331,1.35605,0.000939186,-0.114284,0.300774,0.0815015,-2.41204,-0.0497836,1.43542,0.0369406,0.8,0.02,0,0.106278,-0.167513,-0.0460887,0.340189,-0.18532,0.403821,0.0349925,-3.85186e-34,-7.70372e-34,-1.55553e-16,
108,12.0339,-47.5495,-5.43664,47.8581,-1.23261,6.00076,0.26498,1.4256,-31.639,2.3712,34.5472,0.143331,1.35605,0.000939186,-0.113832,0.300099,0.0812878,-2.41069,-0.0504969,1.43703,0.0370654,0.8,0.02,0,0.112968,-0.168783,-0.0534289,0.338381,-0.178338,0.400635,0.0311942,-4.44089e-19,-7.70372e-34,-6.40513e-17,
109,12.9971,-47.8944,-6.52488,47.6986,-1.1182,5.97748,0.213948,1.4256,-31.639,2.3712,34.5472,0.143331,1.35605,0.000939186,-0.113348,0.299417,0.0810392,-2.40934,-0.051177,1.43861,0.0371727,0.8,0.02,0,0.120966,-0.17041,-0.0621504,0.336393,-0.170026,0.397435,0.0268289,-3.85186e-34,-7.70372e-34,-5.49011e-17,
110,14.1222,-46.2894,-8.1239,48.2004,-0.779593,5.39049,0.0360947,1.35366,-31.4263,2.2955,34.4106,0.170274,1.29557,0.000742778,-0.112825,0.298727,0.0807484,-2.408,-0.0518169,1.44019,0.0372594,0.8,0.02,0,0.130699,-0.172499,-0.0727025,0.33416,-0.15998,0.394195,0.0216774,4.44089e-19,-7.70372e-34,9.24446e-32,
111,15.6746,-46.8881,-9.86216,47.9659,-0.612979,5.41062,-0.0334135,1.35366,-31.4263,2.2955,34.4106,0.170274,1.29557,0.000742778,-0.11225,0.298046,0.0804035,-2.40665,-0.052368,1.44163,0.0372752,0.8,0.02,0,0.143737,-0.170246,-0.0862242,0.339095,-0.137758,0.359843,0.00395087,4.44089e-19,4.44089e-19,-9.15019e-18,
112,17.7345,-47.6989,-12.1591,47.6765,-0.38269,5.40235,-0.136796,1.35366,-31.4263,2.2955,34.4106,0.170274,1.29557,0.000742778,-0.111612,0.297365,0.0799908,-2.40529,-0.0528389,1.44302,0.0372608,0.8,0.02,0,0.159428,-0.17026,-0.10318,0.338362,-0.11773,0.348219,-0.00359589,4.44089e-19,-7.70372e-34,-8.23517e-17,
113,20.6046,-48.8495,-15.3494,47.2931,-0.0618986,5.38729,-0.288198,1.35366,-31.4263,2.2955,34.4106,0.170274,1.29557,0.000742778,-0.110892,0.296675,0.0794885,-2.40395,-0.0532208,1.44439,0.0372053,0.8,0.02,0,0.180048,-0.172548,-0.125556,0.335111,-0.0954825,0.342069,-0.0138713,4.44089e-19,-7.70372e-34,-2.47055e-16,
114,24.896,-50.5993,-20.1079,46.7421,0.409409,5.37052,-0.526376,1.35366,-31.4263,2.2955,34.4106,0.170274,1.29557,0.000742778,-0.110057,0.295966,0.0788626,-2.40263,-0.0534893,1.44574,0.0370892,0.8,0.02,0,0.208748,-0.177416,-0.156485,0.330035,-0.0671276,0.336955,-0.0290397,-3.85186e-34,4.44089e-19,1.73854e-16,
115,32.0662,-53.5707,-28.0437,45.8478,1.17639,5.35067,-0.950462,1.35366,-31.4263,2.2955,34.4106,0.170274,1.29557,0.000742778,-0.109051,0.295222,0.0780532,-2.40134,-0.0535981,1.44707,0.0368773,0.8,0.02,0,0.251661,-0.185884,-0.20234,0.322699,-0.0271815,0.33153,-0.052958,8.88178e-19,-7.70372e-34,-2.74506e-17,
116,46.4275,-59.7312,-43.9238,44.0547,2.71146,5.28339,-1.82101,1.35366,-31.4263,2.2955,34.4106,0.170274,1.29557,0.000742778,-0.107758,0.29442,0.0769401,-2.4001,-0.0534555,1.44837,0.0364954,0.8,0.02,0,0.323254,-0.20063,-0.27829,0.31129,0.0356456,0.324753,-0.0954773,-6.21725e-18,-2.13163e-17,-1.43658e-15,
117,87,-87,-87,35.5171,12,4.8214,-1.96393,1.35366,-31.4263,2.2955,34.4106,0.170274,1.29557,0.000742778,-0.105893,0.2935,0.0752242,-2.39894,-0.0528337,1.44961,0.0357637,0.8,0.02,0,0.46622,-0.229866,-0.428961,0.289941,0.155458,0.312107,-0.182934,-2.04281e-17,7.10543e-18,1.73854e-16,
118,-87,87,87,87,-12,12,-12,1.35366,-31.4263,2.2955,34.4106,0.170274,1.29557,0.000742778,-0.10241,0.292152,0.0719126,-2.39815,-0.049608,1.4507,0.0348216,0.8,0.02,0,0.870605,-0.336926,-0.827899,0.198312,0.806419,0.271145,-0.235515,-1.33227e-17,1.42109e-17,-7.96067e-16,
119,87,-87,-87,3.11701,12,2.88426,-12,1.35366,-31.4263,2.2955,34.4106,0.170274,1.29557,0.000742778,-0.105333,0.292858,0.0751198,-2.39573,-0.051698,1.45386,0.0306102,0.8,0.02,0,-0.730778,0.176449,0.801802,0.603429,-0.522511,0.790077,-1.05287,-1.33227e-17,-1.42109e-17,-1.18952e-16,
120,-87,5.66218,87,62.5661,-12,5.49024,7.01865,1.28586,-31.2222,2.22441,34.2755,0.195717,1.23829,0.000559378,-0.102195,0.292251,0.0720457,-2.39488,-0.0492137,1.45604,0.0255651,0.8,0.02,0,0.784502,-0.151805,-0.768527,0.213991,0.62108,0.544671,-1.26125,-1.33227e-17,-2.84217e-17,-7.13715e-16,
121,-52.6511,-18.2802,65.2628,55.7206,-7.94839,4.90996,3.52604,1.28586,-31.2222,2.22441,34.2755,0.195717,1.23829,0.000559378,-0.105174,0.292391,0.0751907,-2.39317,-0.0519488,1.45753,0.02815,0.8,0.02,0,-0.744778,0.0349766,0.786241,0.426903,-0.683768,0.373198,0.646219,-6.21725e-18,-2.84217e-17,6.03913e-16,
122,-33.332,-26.289,43.9811,53.4074,-5.58748,4.81827,2.51531,1.28586,-31.2222,2.22441,34.2755,0.195717,1.23829,0.000559378,-0.107492,0.2926,0.0776525,-2.39142,-0.0550188,1.4589,0.0296697,0.8,0.02,0,-0.579275,0.0523302,0.61545,0.438192,-0.7675,0.343507,0.379913,-2.04281e-17,7.10543e-18,2.76336e-15,
123,-24.0506,-30.125,33.7262,52.2735,-4.53245,4.85075,2.11635,1.28586,-31.2222,2.22441,34.2755,0.195717,1.23829,0.000559378,-0.108998,0.292756,0.079317,-2.38975,-0.0575879,1.46021,0.030686,0.8,0.02,0,-0.376682,0.0389819,0.416119,0.415795,-0.642273,0.326126,0.25408,8.88178e-19,7.10543e-18,-7.86916e-16,
124,-18.6842,-32.3203,27.7821,51.6014,-3.93238,4.88992,1.91371,1.28586,-31.2222,2.22441,34.2755,0.195717,1.23829,0.000559378,-0.110074,0.292844,0.0805778,-2.38818,-0.05972,1.46144,0.0315214,0.8,0.02,0,-0.268997,0.0219262,0.315197,0.393692,-0.533024,0.308844,0.208848,8.88178e-19,7.10543e-18,-9.97371e-16,
125,-15.182,-33.7354,23.8939,51.1488,-3.53111,4.91023,1.79134,1.28586,-31.2222,2.22441,34.2755,0.195717,1.23829,0.000559378,-0.1109,0.29287,0.0816101,-2.38667,-0.0615627,1.46262,0.0322775,0.8,0.02,0,-0.206378,0.00652454,0.258088,0.377215,-0.460696,0.294619,0.189036,7.99361e-18,-1.42109e-17,-1.87579e-15,
126,-12.7126,-34.7193,21.1451,50.8171,-3.23724,4.91296,1.71104,1.28586,-31.2222,2.22441,34.2755,0.195717,1.23829,0.000559378,-0.111563,0.292844,0.0824959,-2.38521,-0.0632156,1.46376,0.0329887,0.8,0.02,0,-0.165753,-0.00638962,0.221435,0.365725,-0.413212,0.2842,0.177782,1.77636e-18,-8.43769e-18,-8.69268e-16,
127,-10.8764,-35.4395,19.0948,50.5595,-3.00986,4.90341,1.65646,1.28586,-31.2222,2.22441,34.2755,0.195717,1.23829,0.000559378,-0.112112,0.292776,0.0832791,-2.38377,-0.0647368,1.46487,0.0336703,0.8,0.02,0,-0.13728,-0.0170442,0.195808,0.357869,-0.380308,0.276837,0.170416,-4.44089e-19,-5.32907e-18,-5.39861e-16,
128,-9.45688,-35.9862,17.5042,50.3503,-2.82717,4.88597,1.6189,1.28586,-31.2222,2.22441,34.2755,0.195717,1.23829,0.000559378,-0.112577,0.292673,0.0839863,-2.38236,-0.0661609,1.46595,0.0343317,0.8,0.02,0,-0.116223,-0.0258571,0.176809,0.352519,-0.356015,0.271579,0.165344,-8.88178e-19,-3.55271e-18,-3.20257e-16,
129,-8.32643,-36.4127,16.2322,50.1749,-2.67625,4.86361,1.59306,1.28586,-31.2222,2.22441,34.2755,0.195717,1.23829,0.000559378,-0.112977,0.29254,0.0846348,-2.38097,-0.0675092,1.46702,0.0349789,0.8,0.02,0,-0.100031,-0.0332096,0.162107,0.348855,-0.337071,0.267677,0.161813,-8.88178e-19,-2.22045e-18,-1.46403e-16,
130,-7.5373,-36.8936,15.4058,50.1326,-2.48606,4.69428,1.46575,1.22208,-31.0269,2.15777,34.1421,0.219728,1.18413,0.000388548,-0.113326,0.292382,0.0852362,-2.37958,-0.0687958,1.46808,0.0356164,0.8,0.02,0,-0.0872121,-0.0394029,0.150351,0.346313,-0.32167,0.264614,0.159367,-4.44089e-19,-1.77636e-18,-1.09802e-16,
131,-6.76878,-37.1691,14.5322,49.9985,-2.37937,4.68082,1.45751,1.22208,-31.0269,2.15777,34.1421,0.219728,1.18413,0.000388548,-0.113639,0.292201,0.0858067,-2.3782,-0.0700138,1.46909,0.0362052,0.8,0.02,0,-0.0782181,-0.0452452,0.142642,0.345247,-0.304493,0.252791,0.147189,7.70372e-34,-4.44089e-19,-1.09802e-16,
132,-6.12002,-37.3954,13.791,49.8795,-2.28474,4.65628,1.4507,1.22208,-31.0269,2.15777,34.1421,0.219728,1.18413,0.000388548,-0.113917,0.292001,0.0863453,-2.37683,-0.0711834,1.47008,0.0367888,0.8,0.02,0,-0.0696354,-0.0500217,0.134655,0.344094,-0.292396,0.247957,0.145912,-4.44089e-19,-4.44089e-19,2.01304e-16,
133,-5.5653,-37.5827,13.1534,49.7717,-2.20108,4.62839,1.44577,1.22208,-31.0269,2.15777,34.1421,0.219728,1.18413,0.000388548,-0.114167,0.291785,0.0868563,-2.37545,-0.0723129,1.47107,0.0373701,0.8,0.02,0,-0.0624139,-0.0540432,0.127747,0.343115,-0.282377,0.245132,0.145309,-4.44089e-19,-4.44089e-19,2.19605e-16,
134,-5.08567,-37.7389,12.5986,49.6728,-2.12698,4.5994,1.44207,1.22208,-31.0269,2.15777,34.1421,0.219728,1.18413,0.000388548,-0.114392,0.291555,0.0873434,-2.37408,-0.0734079,1.47204,0.0379496,0.8,0.02,0,-0.0562991,-0.0574785,0.121757,0.342319,-0.273747,0.242878,0.144884,-4.44089e-19,-8.88178e-19,2.65356e-16,
135,-4.66698,-37.8699,12.1108,49.5812,-2.06122,4.57005,1.43882,1.22208,-31.0269,2.15777,34.1421,0.219728,1.18413,0.000388548,-0.114596,0.291313,0.0878094,-2.37272,-0.0744726,1.473,0.0385279,0.8,0.02,0,-0.0510629,-0.0604336,0.116504,0.341651,-0.266167,0.240772,0.144566,4.44089e-19,-4.44089e-19,1.00652e-16,
136,-4.29845,-37.98,11.6783,49.4956,-2.00286,4.54061,1.43532,1.22208,-31.0269,2.15777,34.1421,0.219728,1.18413,0.000388548,-0.114782,0.291061,0.0882568,-2.37135,-0.0755104,1.47395,0.039105,0.8,0.02,0,-0.0465358,-0.0629841,0.11185,0.341064,-0.259447,0.238678,0.144288,4.44089e-19,-4.44089e-19,9.15019e-18,
137,-3.9717,-38.0729,11.2916,49.415,-1.95116,4.51119,1.43091,1.22208,-31.0269,2.15777,34.1421,0.219728,1.18413,0.000388548,-0.114953,0.290801,0.0886875,-2.36999,-0.0765242,1.4749,0.0396809,0.8,0.02,0,-0.0425894,-0.0651882,0.10769,0.340522,-0.253471,0.236546,0.143984,4.44089e-19,-4.44089e-19,2.74506e-17,
138,-3.68014,-38.1511,10.9437,49.3388,-1.90556,4.48184,1.42503,1.22208,-31.0269,2.15777,34.1421,0.219728,1.18413,0.000388548,-0.115109,0.290532,0.0891033,-2.36863,-0.0775169,1.47584,0.0402553,0.8,0.02,0,-0.0391244,-0.0670925,0.103941,0.340003,-0.24816,0.234358,0.143589,7.70372e-34,-4.44089e-19,3.66008e-17,
139,-3.41847,-38.2168,10.6286,49.2663,-1.86545,4.45276,1.41746,1.22208,-31.0269,2.15777,34.1421,0.219728,1.18413,0.000388548,-0.115254,0.290257,0.0895055,-2.36727,-0.0784907,1.47677,0.0408275,0.8,0.02,0,-0.0360627,-0.0687357,0.100539,0.339493,-0.243459,0.232107,0.143049,-4.44089e-19,-4.44089e-19,8.23517e-17,
140,-3.40444,-38.4375,10.6363,49.2823,-1.75651,4.23854,1.27472,1.16217,-30.8403,2.09542,34.0106,0.242378,1.13298,0.000229781,-0.115387,0.289977,0.0898952,-2.36592,-0.079448,1.47769,0.0413969,0.8,0.02,0,-0.0333416,-0.0701499,0.0974348,0.338981,-0.239312,0.229801,0.142339,7.70372e-34,0,1.09802e-16,
141,-3.18945,-38.4827,10.3717,49.2135,-1.73039,4.23617,1.27589,1.16217,-30.8403,2.09542,34.0106,0.242378,1.13298,0.000229781,-0.115519,0.289688,0.0902847,-2.36456,-0.0803705,1.47855,0.0419115,0.8,0.02,0,-0.0330495,-0.0721283,0.0973819,0.339194,-0.230643,0.215771,0.128672,-4.44089e-19,0,1.83004e-16,
142,-2.99386,-38.5206,10.1291,49.1484,-1.70385,4.22071,1.27404,1.16217,-30.8403,2.09542,34.0106,0.242378,1.13298,0.000229781,-0.115643,0.289394,0.0906643,-2.36321,-0.081276,1.47939,0.0424242,0.8,0.02,0,-0.0309126,-0.0734935,0.0949017,0.338733,-0.226371,0.210621,0.128154,4.44089e-19,0,1.83004e-16,
143,-2.81521,-38.5516,9.9053,49.0856,-1.67879,4.20182,1.27134,1.16217,-30.8403,2.09542,34.0106,0.242378,1.13298,0.000229781,-0.115758,0.289096,0.0910342,-2.36185,-0.0821687,1.48022,0.0429362,0.8,0.02,0,-0.0289219,-0.0745229,0.092474,0.338122,-0.223165,0.207935,0.128019,4.44089e-19,0,9.15019e-17,
144,-2.65147,-38.5765,9.69796,49.0248,-1.6557,4.18211,1.26817,1.16217,-30.8403,2.09542,34.0106,0.242378,1.13298,0.000229781,-0.115867,0.288795,0.0913951,-2.3605,-0.0830506,1.48105,0.0434474,0.8,0.02,0,-0.0271228,-0.0753368,0.0902109,0.337501,-0.220487,0.205919,0.127795,7.70372e-34,-4.44089e-19,1.83004e-17,
145,-2.50094,-38.5961,9.5052,48.9657,-1.63468,4.16233,1.26454,1.16217,-30.8403,2.09542,34.0106,0.242378,1.13298,0.000229781,-0.115969,0.288491,0.0917475,-2.35916,-0.0839232,1.48186,0.0439574,0.8,0.02,0,-0.0254867,-0.0759925,0.0881036,0.336887,-0.21814,0.204081,0.127508,4.44089e-19,0,8.23517e-17,
146,-2.36216,-38.6107,9.32539,48.908,-1.61571,4.1427,1.2603,1.16217,-30.8403,2.09542,34.0106,0.242378,1.13298,0.000229781,-0.116065,0.288185,0.092092,-2.35781,-0.0847874,1.48267,0.0444661,0.8,0.02,0,-0.023991,-0.0765221,0.0861369,0.336277,-0.216047,0.202285,0.127168,8.88178e-19,-4.44089e-19,8.23517e-17,
147,-2.23389,-38.6211,9.15717,48.8517,-1.59875,4.12329,1.25532,1.16217,-30.8403,2.09542,34.0106,0.242378,1.13298,0.000229781,-0.116155,0.287877,0.0924292,-2.35647,-0.0856441,1.48347,0.0449732,0.8,0.02,0,-0.0226188,-0.0769462,0.084296,0.335666,-0.214176,0.200492,0.126767,8.88178e-19,-8.88178e-19,1.64703e-16,
148,-2.11505,-38.6275,8.99935,48.7967,-1.58379,4.1041,1.24939,1.16217,-30.8403,2.09542,34.0106,0.242378,1.13298,0.000229781,-0.116241,0.287568,0.0927595,-2.35513,-0.0864941,1.48427,0.0454784,0.8,0.02,0,-0.0213562,-0.0772796,0.0825682,0.335051,-0.212515,0.198692,0.126292,8.88178e-19,-4.44089e-19,1.46403e-16,
149,-2.00472,-38.6304,8.85091,48.7428,-1.57086,4.08514,1.2423,1.16217,-30.8403,2.09542,34.0106,0.242378,1.13298,0.000229781,-0.116322,0.287258,0.0930833,-2.35379,-0.0873384,1.48506,0.0459813,0.8,0.02,0,-0.0201915,-0.0775338,0.0809421,0.334431,-0.211058,0.196885,0.125724,8.88178e-19,-4.44089e-19,1.83004e-17,
150,-2.11043,-38.7929,9.01833,48.7949,-1.32068,3.69366,0.965376,1.10598,-30.6625,2.03719,33.8812,0.263736,1.08476,8.25585e-05,-0.116398,0.286947,0.0934009,-2.35245,-0.0881776,1.48584,0.0464814,0.8,0.02,0,-0.0191151,-0.0777179,0.0794079,0.333808,-0.209806,0.19507,0.125041,4.44089e-19,0,1.92154e-16,
151,-2.01476,-38.7888,8.88374,48.7405,-1.32405,3.71207,0.966232,1.10598,-30.6625,2.03719,33.8812,0.263736,1.08476,8.25585e-05,-0.116478,0.286631,0.0937258,-2.35112,-0.0889485,1.48652,0.0468739,0.8,0.02,0,-0.0199058,-0.0790381,0.0812327,0.334388,-0.192719,0.170811,0.0981288,7.70372e-34,0,1.00652e-16,
152,-1.92534,-38.7831,8.75765,48.6893,-1.32133,3.70484,0.957395,1.10598,-30.6625,2.03719,33.8812,0.263736,1.08476,8.25585e-05,-0.116553,0.286313,0.0940459,-2.34978,-0.0897,1.48717,0.0472627,0.8,0.02,0,-0.018914,-0.0795237,0.0800171,0.33394,-0.187876,0.162503,0.0971942,7.70372e-34,-4.44089e-19,1.18952e-16,
153,-1.84166,-38.7753,8.6383,48.6396,-1.3182,3.69038,0.944399,1.10598,-30.6625,2.03719,33.8812,0.263736,1.08476,8.25585e-05,-0.116625,0.285994,0.0943606,-2.34845,-0.0904438,1.48781,0.0476487,0.8,0.02,0,-0.0180453,-0.0796813,0.0786827,0.333239,-0.185958,0.158794,0.096504,4.44089e-19,-8.88178e-19,-4.57509e-17,
154,-1.76329,-38.7653,8.52493,48.5909,-1.3165,3.67384,0.928517,1.10598,-30.6625,2.03719,33.8812,0.263736,1.08476,8.25585e-05,-0.116695,0.285675,0.0946702,-2.34712,-0.0911843,1.48843,0.04803,0.8,0.02,0,-0.0172775,-0.0796919,0.0773906,0.332519,-0.185127,0.156399,0.0953223,7.70372e-34,-8.88178e-19,9.15019e-18,
155,-1.68984,-38.7534,8.41701,48.5429,-1.3169,3.65675,0.909986,1.10598,-30.6625,2.03719,33.8812,0.263736,1.08476,8.25585e-05,-0.116761,0.285357,0.0949748,-2.34579,-0.0919235,1.48905,0.0484052,0.8,0.02,0,-0.0165738,-0.0796243,0.0761565,0.331822,-0.184803,0.154394,0.0938004,4.44089e-19,-8.88178e-19,8.23517e-17,
156,-1.62091,-38.7397,8.31408,48.4957,-1.31968,3.63954,0.88872,1.10598,-30.6625,2.03719,33.8812,0.263736,1.08476,8.25585e-05,-0.116825,0.285039,0.0952747,-2.34447,-0.0926627,1.48966,0.0487732,0.8,0.02,0,-0.0159193,-0.0795073,0.07498,0.331145,-0.184801,0.152511,0.0919961,-4.44089e-19,-4.44089e-19,2.28755e-16,
157,-1.55617,-38.7242,8.21578,48.449,-1.32498,3.62236,0.864545,1.10598,-30.6625,2.03719,33.8812,0.263736,1.08476,8.25585e-05,-0.116886,0.284721,0.0955702,-2.34314,-0.093403,1.49026,0.0491329,0.8,0.02,0,-0.0153075,-0.0793546,0.0738572,0.330484,-0.185068,0.150672,0.0899141,4.44089e-19,-4.44089e-19,1.18952e-16,
158,-1.49531,-38.7072,8.12175,48.4031,-1.33282,3.60524,0.837347,1.10598,-30.6625,2.03719,33.8812,0.263736,1.08476,8.25585e-05,-0.116945,0.284405,0.0958613,-2.34183,-0.0941454,1.49086,0.049483,0.8,0.02,0,-0.0147349,-0.0791733,0.0727839,0.329833,-0.185593,0.148853,0.0875411,4.44089e-19,-8.88178e-19,1.37253e-16,
159,-1.43804,-38.6887,8.03168,48.3577,-1.34276,3.58812,0.807494,1.10598,-30.6625,2.03719,33.8812,0.263736,1.08476,8.25585e-05,-0.117001,0.284089,0.0961483,-2.34051,-0.0948909,1.49144,0.0498225,0.8,0.02,0,-0.0141988,-0.078968,0.0717561,0.329191,-0.186374,0.147043,0.0848665,8.88178e-19,0,1.37253e-16,
160,-1.72453,-38.7969,8.3715,48.4861,-1.05,3.09394,0.406518,1.05336,-30.4933,1.98293,33.7541,0.283868,1.03936,-5.36324e-05,-0.117056,0.283774,0.0964314,-2.33919,-0.0956404,1.49203,0.0501502,0.8,0.02,0,-0.0136957,-0.0787416,0.0707713,0.328554,-0.187385,0.145239,0.081922,4.44089e-19,4.44089e-19,1.55553e-16,
161,-1.67289,-38.7747,8.28479,48.4382,-1.07731,3.12475,0.394652,1.05336,-30.4933,1.98293,33.7541,0.283868,1.03936,-5.36324e-05,-0.11712,0.283455,0.0967295,-2.33788,-0.0963135,1.49248,0.0503222,0.8,0.02,0,-0.0160219,-0.0797531,0.0745161,0.329709,-0.168262,0.114767,0.0430019,4.44089e-19,0,3.01956e-16,
162,-1.62395,-38.7525,8.20332,48.3937,-1.09355,3.12292,0.374078,1.05336,-30.4933,1.98293,33.7541,0.283868,1.03936,-5.36324e-05,-0.117182,0.283135,0.0970247,-2.33656,-0.0969717,1.4929,0.0504833,0.8,0.02,0,-0.0155297,-0.0798691,0.0738075,0.329433,-0.164554,0.104761,0.0402805,4.44089e-19,0,2.47055e-16,
163,-1.57742,-38.7295,8.1251,48.3504,-1.10579,3.11205,0.352368,1.05336,-30.4933,1.98293,33.7541,0.283868,1.03936,-5.36324e-05,-0.117243,0.282817,0.0973162,-2.33524,-0.0976285,1.49331,0.0506369,0.8,0.02,0,-0.0151044,-0.0796711,0.0728838,0.328763,-0.164199,0.100668,0.0384044,8.88178e-19,0,1.55553e-16,
164,-1.53318,-38.7057,8.04967,48.3076,-1.11619,3.09868,0.331549,1.05336,-30.4933,1.98293,33.7541,0.283868,1.03936,-5.36324e-05,-0.117302,0.282499,0.0976041,-2.33393,-0.098288,1.4937,0.0507822,0.8,0.02,0,-0.0147429,-0.0793586,0.0719732,0.328034,-0.164893,0.0982776,0.036329,8.88178e-19,-4.44089e-19,1.92154e-16,
165,-1.49111,-38.6809,7.97676,48.2651,-1.12537,3.08475,0.312358,1.05336,-30.4933,1.98293,33.7541,0.283868,1.03936,-5.36324e-05,-0.117359,0.282183,0.0978885,-2.33262,-0.0989516,1.49409,0.0509193,0.8,0.02,0,-0.014405,-0.0790007,0.0710999,0.327317,-0.165893,0.0964071,0.0342743,4.44089e-19,0,9.15019e-18,
166,-1.45107,-38.6554,7.90618,48.2228,-1.13345,3.07083,0.295149,1.05336,-30.4933,1.98293,33.7541,0.283868,1.03936,-5.36324e-05,-0.117416,0.281869,0.0981696,-2.33131,-0.0996194,1.49446,0.0510488,0.8,0.02,0,-0.0140766,-0.0786229,0.070267,0.326618,-0.16694,0.0947188,0.0323554,4.44089e-19,0,-7.32015e-17,
167,-1.41292,-38.629,7.83778,48.1807,-1.14035,3.0571,0.28017,1.05336,-30.4933,1.98293,33.7541,0.283868,1.03936,-5.36324e-05,-0.117471,0.281556,0.0984475,-2.33001,-0.100291,1.49484,0.0511713,0.8,0.02,0,-0.0137536,-0.0782349,0.0694729,0.325934,-0.16794,0.0931134,0.0306239,-4.44089e-19,0,1.83004e-17,
168,-1.37655,-38.6018,7.77142,48.1389,-1.14595,3.04365,0.267643,1.05336,-30.4933,1.98293,33.7541,0.283868,1.03936,-5.36324e-05,-0.117525,0.281244,0.0987223,-2.32871,-0.100967,1.4952,0.0512877,0.8,0.02,0,-0.0134353,-0.0778404,0.0687146,0.32526,-0.168856,0.0915606,0.0291101,7.70372e-34,0,-7.32015e-17,
169,-1.34183,-38.5739,7.70696,48.0972,-1.15016,3.03049,0.257734,1.05336,-30.4933,1.98293,33.7541,0.283868,1.03936,-5.36324e-05,-0.117577,0.280935,0.0989943,-2.32741,-0.101645,1.49556,0.051399,0.8,0.02,0,-0.0131214,-0.0774411,0.0679894,0.324593,-0.169663,0.0900507,0.0278377,7.70372e-34,4.44089e-19,-1.83004e-17,
170,-1.6542,-38.693,8.11495,48.2078,-0.790798,2.5646,-0.165714,1.00417,-30.3327,1.93245,33.6295,0.30284,0.996672,-0.000179293,-0.117628,0.280626,0.0992635,-2.32612,-0.102327,1.49592,0.0515063,0.8,0.02,0,-0.0128124,-0.0770372,0.0672946,0.323932,-0.170347,0.0885805,0.0268247,-4.44089e-19,-4.44089e-19,5.49011e-17,
171,-1.62264,-38.6627,8.05044,48.163,-0.809376,2.59865,-0.15369,1.00417,-30.3327,1.93245,33.6295,0.30284,0.996672,-0.000179293,-0.11769,0.280315,0.0995505,-2.32482,-0.102912,1.49616,0.0514489,0.8,0.02,0,-0.0153942,-0.0778826,0.0717464,0.324689,-0.146362,0.0601318,-0.0143503,-4.44089e-19,0,8.23517e-17,
172,-1.59244,-38.6328,7.99004,48.1214,-0.813767,2.60044,-0.149452,1.00417,-30.3327,1.93245,33.6295,0.30284,0.996672,-0.000179293,-0.11775,0.280003,0.0998358,-2.32352,-0.103475,1.49636,0.0513897,0.8,0.02,0,-0.0150158,-0.0778613,0.0713284,0.324377,-0.140855,0.0508188,-0.0148001,7.70372e-34,0,1.37253e-16,
173,-1.56338,-38.6027,7.93156,48.0806,-0.811982,2.59331,-0.144148,1.00417,-30.3327,1.93245,33.6295,0.30284,0.996672,-0.000179293,-0.117809,0.279693,0.100118,-2.32222,-0.104032,1.49655,0.051333,0.8,0.02,0,-0.0147232,-0.0775452,0.0706616,0.323723,-0.139166,0.0471675,-0.0141808,8.88178e-19,0,9.15019e-17,
174,-1.53545,-38.5722,7.87456,48.0401,-0.806288,2.58377,-0.135262,1.00417,-30.3327,1.93245,33.6295,0.30284,0.996672,-0.000179293,-0.117867,0.279385,0.100398,-2.32093,-0.104586,1.49673,0.0512787,0.8,0.02,0,-0.0144918,-0.0771281,0.0699906,0.323015,-0.138511,0.045174,-0.0135709,4.44089e-19,0,1.46403e-16,
175,-1.50859,-38.5411,7.81886,47.9996,-0.797186,2.57372,-0.121677,1.00417,-30.3327,1.93245,33.6295,0.30284,0.996672,-0.000179293,-0.117924,0.279078,0.100676,-2.31964,-0.105138,1.49691,0.051228,0.8,0.02,0,-0.0142746,-0.0766756,0.0693435,0.322311,-0.138018,0.0436972,-0.0126847,4.44089e-19,8.88178e-19,6.40513e-17,
176,-1.48273,-38.5096,7.76434,47.9591,-0.784597,2.56377,-0.102679,1.00417,-30.3327,1.93245,33.6295,0.30284,0.996672,-0.000179293,-0.11798,0.278773,0.100951,-2.31836,-0.105688,1.49707,0.0511825,0.8,0.02,0,-0.0140556,-0.0762108,0.0687252,0.321621,-0.137379,0.0424082,-0.0113624,8.88178e-19,4.44089e-19,1.09802e-16,
177,-1.45781,-38.4777,7.71091,47.9184,-0.768273,2.55412,-0.0776828,1.00417,-30.3327,1.93245,33.6295,0.30284,0.996672,-0.000179293,-0.118035,0.27847,0.101223,-2.31707,-0.106234,1.49724,0.0511445,0.8,0.02,0,-0.0138304,-0.0757418,0.0681355,0.320939,-0.136475,0.0412102,-0.00951403,7.70372e-34,0,1.73854e-16,
178,-1.43376,-38.4454,7.65848,47.8776,-0.748079,2.54485,-0.0463163,1.00417,-30.3327,1.93245,33.6295,0.30284,0.996672,-0.000179293,-0.11809,0.278169,0.101493,-2.31579,-0.106775,1.4974,0.0511162,0.8,0.02,0,-0.013598,-0.0752715,0.0675728,0.320264,-0.135243,0.0400744,-0.00707533,4.44089e-19,-4.44089e-19,1.46403e-16,
179,-1.41055,-38.4126,7.60697,47.8367,-0.724713,2.53594,-0.00924405,1.00417,-30.3327,1.93245,33.6295,0.30284,0.996672,-0.000179293,-0.118143,0.27787,0.101762,-2.31451,-0.107309,1.49756,0.0511002,0.8,0.02,0,-0.013359,-0.0748007,0.0670348,0.319591,-0.133652,0.0389931,-0.0040051,4.44089e-19,-4.44089e-19,3.66008e-17,
180,-1.77097,-38.5358,8.09794,47.9014,-0.283883,2.10009,-0.412603,0.958254,-30.1806,1.88559,33.5074,0.320713,0.95661,-0.000294912,-0.118196,0.277573,0.102028,-2.31324,-0.107836,1.49771,0.0510987,0.8,0.02,0,-0.0131158,-0.0743297,0.0665174,0.318921,-0.131733,0.0379568,-0.000358472,4.44089e-19,-4.44089e-19,9.15019e-17,
181,-1.74774,-38.5012,8.04165,47.8589,-0.284154,2.12653,-0.356923,0.958254,-30.1806,1.88559,33.5074,0.320713,0.95661,-0.000294912,-0.11826,0.277272,0.102315,-2.31196,-0.108241,1.49776,0.0509403,0.8,0.02,0,-0.0161277,-0.0751021,0.0718308,0.319204,-0.101127,0.0118096,-0.039608,4.44089e-19,-4.44089e-19,1.18952e-16,
182,-1.72552,-38.4672,7.98923,47.8194,-0.271486,2.12156,-0.314859,0.958254,-30.1806,1.88559,33.5074,0.320713,0.95661,-0.000294912,-0.118323,0.276972,0.102601,-2.31069,-0.108611,1.49777,0.0507978,0.8,0.02,0,-0.0157841,-0.0750542,0.0715592,0.318889,-0.0925645,0.00262678,-0.0356261,4.44089e-19,4.44089e-19,2.74506e-17,
183,-1.70406,-38.433,7.93811,47.7808,-0.255561,2.10762,-0.277139,0.958254,-30.1806,1.88559,33.5074,0.320713,0.95661,-0.000294912,-0.118386,0.276673,0.102885,-2.30941,-0.108966,1.49776,0.0506733,0.8,0.02,0,-0.0155496,-0.0747283,0.0709872,0.318311,-0.0887254,-0.00141583,-0.0311233,7.70372e-34,4.44089e-19,1.18952e-16,
184,-1.68339,-38.3986,7.88786,47.7425,-0.239322,2.09094,-0.241674,0.958254,-30.1806,1.88559,33.5074,0.320713,0.95661,-0.000294912,-0.118447,0.276376,0.103167,-2.30814,-0.109311,1.49774,0.0505645,0.8,0.02,0,-0.0153919,-0.0743085,0.0703902,0.317687,-0.0863731,-0.00395827,-0.0272004,4.44089e-19,0,1.09802e-16,
185,-1.66353,-38.3638,7.83836,47.7045,-0.223771,2.07335,-0.207962,0.958254,-30.1806,1.88559,33.5074,0.320713,0.95661,-0.000294912,-0.118508,0.27608,0.103446,-2.30687,-0.10965,1.49772,0.0504701,0.8,0.02,0,-0.0152584,-0.0738562,0.0697998,0.317068,-0.0845601,-0.00605905,-0.0235886,8.88178e-19,-4.44089e-19,9.15019e-17,
186,-1.64444,-38.3286,7.78955,47.6665,-0.209307,2.0554,-0.175984,0.958254,-30.1806,1.88559,33.5074,0.320713,0.95661,-0.000294912,-0.118569,0.275787,0.103723,-2.30561,-0.109982,1.49769,0.0503894,0.8,0.02,0,-0.0151317,-0.0733927,0.069222,0.316461,-0.0829926,-0.00802827,-0.0201807,4.44089e-19,0,5.49011e-17,
187,-1.62611,-38.2931,7.74139,47.6287,-0.19615,2.03727,-0.145887,0.958254,-30.1806,1.88559,33.5074,0.320713,0.95661,-0.000294912,-0.118629,0.275495,0.103997,-2.30434,-0.110308,1.49765,0.0503216,0.8,0.02,0,-0.0150076,-0.0729255,0.0686574,0.315864,-0.0815852,-0.00995897,-0.0169541,7.70372e-34,4.44089e-19,9.15019e-17,
188,-1.60852,-38.2572,7.69386,47.591,-0.184492,2.01901,-0.117902,0.958254,-30.1806,1.88559,33.5074,0.320713,0.95661,-0.000294912,-0.118688,0.275205,0.10427,-2.30308,-0.110629,1.4976,0.0502659,0.8,0.02,0,-0.0148854,-0.0724573,0.0681051,0.315276,-0.08032,-0.0118803,-0.0139165,7.70372e-34,4.44089e-19,6.40513e-17,
189,-1.59165,-38.221,7.64694,47.5535,-0.174616,2.00063,-0.0924065,0.958254,-30.1806,1.88559,33.5074,0.320713,0.95661,-0.000294912,-0.118747,0.274917,0.10454,-2.30182,-0.110946,1.49755,0.0502216,0.8,0.02,0,-0.0147658,-0.0719889,0.0675638,0.314695,-0.0792024,-0.0138021,-0.0110884,8.88178e-19,0,-1.00652e-16,
190,-2.0997,-38.4116,8.31198,47.553,0.332569,1.74705,-0.596621,0.915467,-30.0369,1.8422,33.3879,0.33755,0.919068,-0.000400964,-0.118806,0.274631,0.104808,-2.30057,-0.111259,1.49748,0.0501876,0.8,0.02,0,-0.0146501,-0.0715207,0.0670318,0.314119,-0.0782518,-0.0157284,-0.00850552,8.88178e-19,0,-9.15019e-18,
191,-2.0842,-38.3739,8.2613,47.5135,0.31817,1.76077,-0.557604,0.915467,-30.0369,1.8422,33.3879,0.33755,0.919068,-0.000400964,-0.118882,0.274343,0.105104,-2.29932,-0.111428,1.49736,0.049957,0.8,0.02,0,-0.019031,-0.0720311,0.0740487,0.313084,-0.0422994,-0.0309898,-0.0576311,4.44089e-19,0,4.57509e-17,
192,-2.06963,-38.3365,8.21493,47.4761,0.316686,1.75118,-0.535267,0.915467,-30.0369,1.8422,33.3879,0.33755,0.919068,-0.000400964,-0.118958,0.274055,0.1054,-2.29806,-0.111564,1.49721,0.049735,0.8,0.02,0,-0.0188636,-0.0719589,0.0738415,0.312705,-0.0339987,-0.0373423,-0.055505,4.44089e-19,0,9.15019e-17,
193,-2.0556,-38.2989,8.1697,47.4394,0.317037,1.73501,-0.519637,0.915467,-30.0369,1.8422,33.3879,0.33755,0.919068,-0.000400964,-0.119033,0.273769,0.105693,-2.29682,-0.111689,1.49705,0.0495234,0.8,0.02,0,-0.0187733,-0.0716825,0.0732725,0.312266,-0.031263,-0.0405851,-0.0529144,8.88178e-19,4.44089e-19,-2.74506e-17,
194,-2.04217,-38.2612,8.12519,47.403,0.316081,1.7168,-0.508806,0.915467,-30.0369,1.8422,33.3879,0.33755,0.919068,-0.000400964,-0.119108,0.273483,0.105984,-2.29557,-0.11181,1.49688,0.0493187,0.8,0.02,0,-0.0187553,-0.0713324,0.0726783,0.311795,-0.0302629,-0.0428784,-0.0511654,4.44089e-19,8.88178e-19,6.40513e-17,
195,-2.02938,-38.2233,8.0813,47.3669,0.31272,1.69789,-0.502481,0.915467,-30.0369,1.8422,33.3879,0.33755,0.919068,-0.000400964,-0.119183,0.273199,0.106272,-2.29432,-0.11193,1.4967,0.0491188,0.8,0.02,0,-0.0187563,-0.0709501,0.0720914,0.311309,-0.0299738,-0.0448972,-0.0499871,8.88178e-19,8.88178e-19,9.15019e-17,
196,-2.01722,-38.1851,8.03798,47.3311,0.306463,1.67868,-0.500823,0.915467,-30.0369,1.8422,33.3879,0.33755,0.919068,-0.000400964,-0.119258,0.272917,0.106558,-2.29308,-0.112051,1.49651,0.0489216,0.8,0.02,0,-0.01876,-0.0705499,0.0715176,0.310817,-0.0301014,-0.0468473,-0.0492865,8.88178e-19,4.44089e-19,1.83004e-17,
197,-2.00569,-38.1466,7.99525,47.2956,0.297041,1.65928,-0.504106,0.915467,-30.0369,1.8422,33.3879,0.33755,0.919068,-0.000400964,-0.119333,0.272637,0.106842,-2.29184,-0.112173,1.49631,0.0487254,0.8,0.02,0,-0.0187627,-0.070137,0.0709572,0.310322,-0.0305695,-0.0487909,-0.0490585,4.44089e-19,4.44089e-19,7.32015e-17,
198,-1.99478,-38.108,7.9531,47.2603,0.284423,1.63968,-0.512454,0.915467,-30.0369,1.8422,33.3879,0.33755,0.919068,-0.000400964,-0.119408,0.272358,0.107124,-2.2906,-0.112298,1.49611,0.0485281,0.8,0.02,0,-0.0187649,-0.0697141,0.070409,0.309827,-0.0313666,-0.0507473,-0.049324,4.44089e-19,0,-1.83004e-17,
199,-1.98454,-38.0691,7.91163,47.2253,0.269542,1.61965,-0.525036,0.915467,-30.0369,1.8422,33.3879,0.33755,0.919068,-0.000400964,-0.119483,0.272081,0.107403,-2.28936,-0.112428,1.4959,0.0483277,0.8,0.02,0,-0.0187672,-0.0692831,0.0698722,0.309331,-0.0324903,-0.0527238,-0.0500953,4.44089e-19,0,-9.15019e-18,
200,-3.18612,-38.3028,9.26462,47.1358,0.889126,1.67563,-1.2669,0.875666,-29.9013,1.80212,33.2711,0.353406,0.883948,-0.000497908,-0.119558,0.271805,0.10768,-2.28813,-0.112564,1.49568,0.0481225,0.8,0.02,0,-0.0187693,-0.0688456,0.0693491,0.308835,-0.0338815,-0.054734,-0.0512996,-4.44089e-19,0,7.32015e-17,
201,-3.1857,-38.2627,9.22911,47.0982,0.876203,1.67442,-1.27558,0.875666,-29.9013,1.80212,33.2711,0.353406,0.883948,-0.000497908,-0.119675,0.271531,0.108014,-2.2869,-0.11252,1.49548,0.0476282,0.8,0.02,0,-0.0292219,-0.0686832,0.0834074,0.305704,0.0110444,-0.050918,-0.123587,7.70372e-34,4.44089e-19,9.15019e-18,
202,-3.18694,-38.2227,9.19988,47.0608,0.880558,1.66418,-1.29763,0.875666,-29.9013,1.80212,33.2711,0.353406,0.883948,-0.000497908,-0.119793,0.271257,0.108349,-2.28568,-0.112439,1.49527,0.0471205,0.8,0.02,0,-0.0295196,-0.0684852,0.0836258,0.305229,0.0201215,-0.0516781,-0.126919,4.44089e-19,4.44089e-19,-9.15019e-17,
203,-3.18848,-38.1827,9.17187,47.0236,0.889516,1.65221,-1.32125,0.875666,-29.9013,1.80212,33.2711,0.353406,0.883948,-0.000497908,-0.119911,0.270984,0.108681,-2.28446,-0.112346,1.49506,0.0466052,0.8,0.02,0,-0.0296369,-0.0682472,0.0832154,0.304969,0.0232816,-0.0527766,-0.128816,7.70372e-34,0,-1.46403e-16,
204,-3.19036,-38.1425,9.1446,46.9865,0.90036,1.63996,-1.34435,0.875666,-29.9013,1.80212,33.2711,0.353406,0.883948,-0.000497908,-0.120031,0.270712,0.109013,-2.28324,-0.112246,1.49484,0.046081,0.8,0.02,0,-0.0297966,-0.0679869,0.082782,0.304668,0.0249881,-0.0538524,-0.131051,-4.44089e-19,4.44089e-19,1.83004e-17,
205,-3.19258,-38.1023,9.11796,46.9494,0.912395,1.62786,-1.36627,0.875666,-29.9013,1.80212,33.2711,0.353406,0.883948,-0.000497908,-0.12015,0.270441,0.109342,-2.28203,-0.112141,1.49462,0.0455477,0.8,0.02,0,-0.0299582,-0.0677036,0.0823665,0.304308,0.0263166,-0.0549091,-0.133329,7.70372e-34,4.44089e-19,3.66008e-17,
206,-3.19514,-38.0621,9.09189,46.9123,0.925479,1.61601,-1.38674,0.875666,-29.9013,1.80212,33.2711,0.353406,0.883948,-0.000497908,-0.120271,0.270171,0.10967,-2.28081,-0.11203,1.4944,0.0450056,0.8,0.02,0,-0.0301078,-0.0673953,0.081974,0.303902,0.0275732,-0.0559643,-0.13552,4.44089e-19,0,9.15019e-17,
207,-3.19802,-38.0218,9.06638,46.8752,0.939639,1.60443,-1.40554,0.875666,-29.9013,1.80212,33.2711,0.353406,0.883948,-0.000497908,-0.120392,0.269903,0.109996,-2.2796,-0.111915,1.49417,0.0444553,0.8,0.02,0,-0.0302428,-0.0670616,0.0816039,0.303462,0.0288559,-0.057023,-0.137575,8.88178e-19,-4.44089e-19,3.66008e-17,
208,-3.20121,-37.9814,9.0414,46.838,0.954989,1.59313,-1.42245,0.875666,-29.9013,1.80212,33.2711,0.353406,0.883948,-0.000497908,-0.120513,0.269636,0.110321,-2.27839,-0.111794,1.49394,0.0438974,0.8,0.02,0,-0.0303638,-0.0667038,0.0812548,0.302997,0.0302035,-0.0580839,-0.139468,4.44089e-19,0,8.23517e-17,
209,-3.20467,-37.941,9.01694,46.8009,0.971787,1.58205,-1.43711,0.875666,-29.9013,1.80212,33.2711,0.353406,0.883948,-0.000497908,-0.120635,0.269371,0.110645,-2.27718,-0.111668,1.4937,0.0433327,0.8,0.02,0,-0.0304721,-0.0663243,0.080925,0.302513,0.0316391,-0.0591439,-0.141176,4.44089e-19,0,1.00652e-16,
210,-3.4403,-36.6354,9.43117,47.1709,0.50802,1.34263,-1.01263,0.838709,-29.7739,1.76518,33.1571,0.368339,0.851153,-0.000586188,-0.120757,0.269107,0.110968,-2.27597,-0.111535,1.49346,0.0427621,0.8,0.02,0,-0.0305688,-0.0659255,0.0806131,0.302013,0.0331889,-0.0602012,-0.142663,8.88178e-19,4.44089e-19,9.15019e-18,
211,-3.44429,-36.5986,9.41064,47.1324,0.541322,1.33433,-1.03531,0.838709,-29.7739,1.76518,33.1571,0.368339,0.851153,-0.000586188,-0.120896,0.268858,0.111299,-2.27474,-0.111534,1.49316,0.0423582,0.8,0.02,0,-0.0345332,-0.0622442,0.0828471,0.307068,0.000168048,-0.0749492,-0.100965,8.88178e-19,4.44089e-19,5.49011e-17,
212,-3.44979,-36.5615,9.38922,47.0953,0.565104,1.32515,-1.04555,0.838709,-29.7739,1.76518,33.1571,0.368339,0.851153,-0.000586188,-0.121035,0.268619,0.111631,-2.27351,-0.111555,1.49285,0.0419501,0.8,0.02,0,-0.0348261,-0.0598008,0.0829359,0.30777,-0.00513701,-0.07874,-0.102031,1.33227e-18,4.44089e-19,-3.66008e-17,
213,-3.45557,-36.524,9.36786,47.0585,0.587969,1.31672,-1.05065,0.838709,-29.7739,1.76518,33.1571,0.368339,0.851153,-0.000586188,-0.121174,0.268387,0.111962,-2.27228,-0.111575,1.49252,0.0415365,0.8,0.02,0,-0.0347266,-0.0579669,0.0828921,0.307368,-0.00512829,-0.0805948,-0.103404,4.44089e-19,4.44089e-19,3.66008e-17,
214,-3.46148,-36.4863,9.34679,47.0217,0.612257,1.30885,-1.05178,0.838709,-29.7739,1.76518,33.1571,0.368339,0.851153,-0.000586188,-0.121312,0.268161,0.112294,-2.27105,-0.11159,1.4922,0.0411202,0.8,0.02,0,-0.0345898,-0.056485,0.0828294,0.306629,-0.00376582,-0.0820899,-0.10406,7.70372e-34,4.44089e-19,1.09802e-16,
215,-3.46746,-36.4484,9.32603,46.9849,0.638713,1.30127,-1.04895,0.838709,-29.7739,1.76518,33.1571,0.368339,0.851153,-0.000586188,-0.12145,0.26794,0.112625,-2.26983,-0.111598,1.49186,0.0407033,0.8,0.02,0,-0.0344662,-0.0552257,0.0827518,0.30579,-0.0019204,-0.0834913,-0.104239,8.88178e-19,4.44089e-19,7.39557e-32,
216,-3.47351,-36.4104,9.30559,46.9479,0.667679,1.29385,-1.04187,0.838709,-29.7739,1.76518,33.1571,0.368339,0.851153,-0.000586188,-0.121588,0.267724,0.112955,-2.26861,-0.111597,1.49152,0.0402873,0.8,0.02,0,-0.0343614,-0.0541183,0.0826619,0.304933,0.000221077,-0.0848295,-0.104004,4.44089e-19,0,2.19605e-16,
217,-3.47959,-36.3723,9.28541,46.9108,0.699371,1.28654,-1.03023,0.838709,-29.7739,1.76518,33.1571,0.368339,0.851153,-0.000586188,-0.121725,0.267511,0.113285,-2.26739,-0.111587,1.49118,0.0398739,0.8,0.02,0,-0.0342734,-0.0531215,0.0825626,0.304091,0.00263342,-0.0861019,-0.103344,8.88178e-19,0,-1.83004e-17,
218,-3.48571,-36.3341,9.26548,46.8736,0.733794,1.27941,-1.01385,0.838709,-29.7739,1.76518,33.1571,0.368339,0.851153,-0.000586188,-0.121861,0.267303,0.113615,-2.26618,-0.111565,1.49083,0.039465,0.8,0.02,0,-0.0341988,-0.0522091,0.0824564,0.303274,0.00532672,-0.0873059,-0.102228,8.88178e-19,0,-1.09802e-16,
219,-3.49177,-36.2957,9.24564,46.8362,0.769937,1.27292,-0.993554,0.838709,-29.7739,1.76518,33.1571,0.368339,0.851153,-0.000586188,-0.121998,0.267097,0.113945,-2.26497,-0.111532,1.49048,0.0390624,0.8,0.02,0,-0.0341349,-0.0513631,0.0823449,0.302485,0.00830627,-0.0884398,-0.100642,1.33227e-18,-4.44089e-19,-8.23517e-17,
220,-3.69251,-38.6159,8.11245,38.5809,-0.873204,12,0.956998,0.804456,-29.6544,1.73125,33.0459,0.382402,0.820586,-0.000666232,-0.122134,0.266895,0.114274,-2.26376,-0.111486,1.49012,0.0386678,0.8,0.02,0,-0.034081,-0.0505697,0.0822257,0.301723,0.0115117,-0.0894818,-0.098655,4.44089e-19,0,8.23517e-17,
221,-3.67949,-38.6283,8.10903,38.7195,-0.761971,11.4732,0.845092,0.804456,-29.6544,1.73125,33.0459,0.382402,0.820586,-0.000666232,-0.122272,0.266734,0.114554,-2.26288,-0.111713,1.49241,0.0390213,0.8,0.02,0,-0.0345,-0.0402466,0.0702358,0.221657,-0.0567011,0.573264,0.0883682,4.44089e-19,-4.44089e-19,1.83004e-17,
222,-3.67439,-38.59,8.09775,38.6993,-0.693792,11.0106,0.778545,0.804456,-29.6544,1.73125,33.0459,0.382402,0.820586,-0.000666232,-0.122421,0.266576,0.114826,-2.26206,-0.112118,1.49551,0.0393773,0.8,0.02,0,-0.0371605,-0.0394454,0.0679286,0.203414,-0.101328,0.774976,0.0890126,7.70372e-34,0,9.15019e-17,
223,-3.67548,-38.535,8.08695,38.631,-0.657313,10.8129,0.739685,0.804456,-29.6544,1.73125,33.0459,0.382402,0.820586,-0.000666232,-0.122574,0.266406,0.115096,-2.26125,-0.112607,1.4988,0.0397023,0.8,0.02,0,-0.0381609,-0.0424844,0.0673902,0.202128,-0.122222,0.822561,0.0812378,7.70372e-34,-4.44089e-19,2.74506e-17,
224,-3.67939,-38.4757,8.07742,38.5516,-0.634919,10.6957,0.713258,0.804456,-29.6544,1.73125,33.0459,0.382402,0.820586,-0.000666232,-0.122727,0.266221,0.115366,-2.26044,-0.113123,1.50213,0.0400068,0.8,0.02,0,-0.0383478,-0.0461785,0.0674378,0.203794,-0.128959,0.831273,0.0761259,7.70372e-34,-4.44089e-19,7.32015e-17,
225,-3.68434,-38.4155,8.06865,38.4697,-0.617844,10.6083,0.692259,0.804456,-29.6544,1.73125,33.0459,0.382402,0.820586,-0.000666232,-0.12288,0.266023,0.115636,-2.25962,-0.113643,1.50545,0.0402984,0.8,0.02,0,-0.0382523,-0.0496035,0.0676478,0.205556,-0.129967,0.830107,0.0729133,7.70372e-34,0,1.28103e-16,
226,-3.68964,-38.3551,8.06035,38.3878,-0.602731,10.5359,0.674153,0.804456,-29.6544,1.73125,33.0459,0.382402,0.820586,-0.000666232,-0.123032,0.265813,0.115908,-2.25879,-0.114159,1.50875,0.0405808,0.8,0.02,0,-0.0380854,-0.0525292,0.0678752,0.206932,-0.129013,0.82654,0.0705877,4.44089e-19,0,1.46403e-16,
227,-3.69507,-38.295,8.05241,38.3064,-0.588446,10.4737,0.658169,0.804456,-29.6544,1.73125,33.0459,0.382402,0.820586,-0.000666232,-0.123184,0.265593,0.11618,-2.25796,-0.114669,1.51204,0.0408555,0.8,0.02,0,-0.0379188,-0.0549384,0.0680772,0.207909,-0.127491,0.822558,0.0686881,4.44089e-19,0,1.73854e-16,
228,-3.70056,-38.2353,8.04477,38.2258,-0.574682,10.4195,0.644111,0.804456,-29.6544,1.73125,33.0459,0.382402,0.820586,-0.000666232,-0.123335,0.265366,0.116453,-2.25712,-0.115172,1.51532,0.0411237,0.8,0.02,0,-0.0377733,-0.0568767,0.0682445,0.208552,-0.125868,0.818701,0.0670499,7.70372e-34,0,1.09802e-16,
229,-3.7061,-38.1761,8.03742,38.1458,-0.561573,10.3722,0.6318,0.804456,-29.6544,1.73125,33.0459,0.382402,0.820586,-0.000666232,-0.123486,0.265132,0.116726,-2.25629,-0.115669,1.51858,0.0413862,0.8,0.02,0,-0.037653,-0.0584046,0.0683784,0.20892,-0.124292,0.815112,0.065622,7.70372e-34,0,1.55553e-16,
230,-4.04591,-36.4124,8.15896,62.7964,2.49593,0.43659,0.794562,0.772772,-29.5427,1.70017,32.9375,0.395645,0.792153,-0.000738456,-0.123636,0.264894,0.117,-2.25545,-0.116161,1.52183,0.0416437,0.8,0.02,0,-0.0375571,-0.0595818,0.0684821,0.209066,-0.122814,0.811823,0.0643775,4.44089e-19,0,1.37253e-16,
231,-4.09324,-36.3525,8.1825,62.5984,2.24853,1.36152,0.974045,0.772772,-29.5427,1.70017,32.9375,0.395645,0.792153,-0.000738456,-0.123764,0.264704,0.117316,-2.25404,-0.116189,1.52236,0.0419347,0.8,0.02,0,-0.0319266,-0.0474393,0.0788691,0.353827,-0.00697044,0.134325,0.0727372,-1.37668e-17,0,4.30059e-16,
232,-4.11533,-36.3055,8.19629,62.4869,2.14139,1.5591,1.03584,0.772772,-29.5427,1.70017,32.9375,0.395645,0.792153,-0.000738456,-0.12388,0.264549,0.117641,-2.25242,-0.115916,1.52223,0.042304,0.8,0.02,0,-0.0291808,-0.0386897,0.0813705,0.404142,0.0681569,-0.0327562,0.0923216,-7.54952e-18,-4.44089e-19,1.37253e-16,
233,-4.12603,-36.2599,8.20411,62.4012,2.0928,1.57145,1.05121,0.772772,-29.5427,1.70017,32.9375,0.395645,0.792153,-0.000738456,-0.123997,0.264412,0.117967,-2.25072,-0.115503,1.52194,0.0427112,0.8,0.02,0,-0.0290627,-0.0343586,0.0813566,0.42485,0.103185,-0.0726443,0.101806,-4.88498e-18,0,1.46403e-16,
234,-4.13219,-36.2136,8.20914,62.3243,2.06706,1.53937,1.0491,0.772772,-29.5427,1.70017,32.9375,0.395645,0.792153,-0.000738456,-0.124117,0.26428,0.118289,-2.24898,-0.11503,1.52161,0.0431315,0.8,0.02,0,-0.03003,-0.032925,0.0804901,0.434611,0.118244,-0.0815727,0.10507,-2.66454e-18,8.88178e-19,5.49011e-17,
235,-4.13663,-36.1669,8.2129,62.251,2.05019,1.49884,1.04039,0.772772,-29.5427,1.70017,32.9375,0.395645,0.792153,-0.000738456,-0.124242,0.264148,0.118606,-2.24722,-0.114531,1.52128,0.0435539,0.8,0.02,0,-0.0313172,-0.0330165,0.0794002,0.439648,0.124718,-0.0836138,0.105601,-1.77636e-18,1.33227e-18,8.23517e-17,
236,-4.14044,-36.12,8.21602,62.1794,2.0369,1.45844,1.02906,0.772772,-29.5427,1.70017,32.9375,0.395645,0.792153,-0.000738456,-0.124372,0.264013,0.11892,-2.24545,-0.114021,1.52094,0.043974,0.8,0.02,0,-0.0326171,-0.033777,0.0783196,0.442384,0.127595,-0.0845869,0.105035,-1.33227e-18,8.88178e-19,1.18952e-16,
237,-4.14402,-36.0732,8.21878,62.1091,2.02522,1.41986,1.01659,0.772772,-29.5427,1.70017,32.9375,0.395645,0.792153,-0.000738456,-0.124508,0.263874,0.119229,-2.24368,-0.113505,1.5206,0.0443901,0.8,0.02,0,-0.0338208,-0.0347423,0.0773276,0.443898,0.128903,-0.085745,0.104033,-4.44089e-19,4.44089e-19,5.49011e-17,
238,-4.14753,-36.0264,8.22132,62.04,2.01445,1.38317,1.00364,0.772772,-29.5427,1.70017,32.9375,0.395645,0.792153,-0.000738456,-0.124647,0.263731,0.119535,-2.2419,-0.112988,1.52025,0.0448015,0.8,0.02,0,-0.0348975,-0.0356826,0.0764452,0.444713,0.129465,-0.0872523,0.10285,-3.85186e-34,8.88178e-19,9.15019e-17,
239,-4.15098,-35.9795,8.22369,61.9727,2.00449,1.34815,0.990599,0.772772,-29.5427,1.70017,32.9375,0.395645,0.792153,-0.000738456,-0.124791,0.263585,0.119837,-2.24012,-0.112469,1.51989,0.0452079,0.8,0.02,0,-0.0358462,-0.0364958,0.0756718,0.445102,0.129631,-0.0890486,0.10159,-3.85186e-34,8.88178e-19,1.46403e-16,
240,-1.31089,-35.8546,5.61035,62.1017,1.30442,0.508065,2.20945,0.743526,-29.4386,1.67179,32.8319,0.408118,0.765763,-0.000803257,-0.124937,0.263437,0.120137,-2.23834,-0.111951,1.51953,0.0456091,0.8,0.02,0,-0.0366754,-0.037144,0.0749993,0.445214,0.129574,-0.0910533,0.100307,8.88178e-19,4.44089e-19,5.49011e-17,
241,-1.30935,-35.8072,5.60446,62.0356,1.30264,0.536178,2.1856,0.743526,-29.4386,1.67179,32.8319,0.408118,0.765763,-0.000803257,-0.124993,0.263277,0.120321,-2.23653,-0.11165,1.51896,0.0464792,0.8,0.02,0,-0.0139007,-0.0398159,0.0459671,0.451422,0.0751959,-0.143629,0.21751,8.88178e-19,0,1.09802e-16,
242,-1.30623,-35.7616,5.59627,61.9736,1.29393,0.522776,2.17109,0.743526,-29.4386,1.67179,32.8319,0.408118,0.765763,-0.000803257,-0.125046,0.263115,0.120499,-2.23473,-0.111381,1.51832,0.0473595,0.8,0.02,0,-0.0132018,-0.0405843,0.0445549,0.450976,0.0671687,-0.158283,0.220094,8.88178e-19,4.44089e-19,5.49011e-17,
243,-1.30339,-35.7169,5.58833,61.9125,1.28377,0.498567,2.15762,0.743526,-29.4386,1.67179,32.8319,0.408118,0.765763,-0.000803257,-0.125099,0.262952,0.120677,-2.23293,-0.111123,1.51766,0.0482338,0.8,0.02,0,-0.013233,-0.0406761,0.0443647,0.449838,0.0646217,-0.164303,0.21857,1.33227e-18,0,9.15019e-17,
244,-1.30065,-35.6727,5.58049,61.8517,1.27324,0.471548,2.14432,0.743526,-29.4386,1.67179,32.8319,0.408118,0.765763,-0.000803257,-0.125152,0.26279,0.120854,-2.23113,-0.110871,1.51699,0.0491024,0.8,0.02,0,-0.0132462,-0.040451,0.0442486,0.448757,0.0630615,-0.168089,0.217155,8.88178e-19,0,1.46403e-16,
245,-1.29795,-35.6289,5.57273,61.7911,1.26259,0.443902,2.13106,0.743526,-29.4386,1.67179,32.8319,0.408118,0.765763,-0.000803257,-0.125205,0.26263,0.12103,-2.22934,-0.110624,1.51631,0.0499657,0.8,0.02,0,-0.0132424,-0.0400667,0.0441462,0.447788,0.0617277,-0.171233,0.21581,4.44089e-19,0,6.40513e-17,
246,-1.29526,-35.5853,5.565,61.7307,1.25184,0.41627,2.11778,0.743526,-29.4386,1.67179,32.8319,0.408118,0.765763,-0.000803257,-0.125258,0.262472,0.121207,-2.22755,-0.110382,1.51561,0.0508236,0.8,0.02,0,-0.0132307,-0.0395988,0.04405,0.446892,0.060459,-0.174159,0.214481,4.44089e-19,0,1.09802e-16,
247,-1.29258,-35.542,5.55733,61.6706,1.24102,0.388859,2.10448,0.743526,-29.4386,1.67179,32.8319,0.408118,0.765763,-0.000803257,-0.12531,0.262315,0.121382,-2.22577,-0.110145,1.5149,0.0516762,0.8,0.02,0,-0.0132146,-0.0390851,0.0439574,0.446036,0.0592123,-0.176994,0.213155,8.88178e-19,8.88178e-19,-9.15019e-18,
248,-1.2899,-35.4989,5.54969,61.6106,1.23011,0.361744,2.09113,0.743526,-29.4386,1.67179,32.8319,0.408118,0.765763,-0.000803257,-0.125363,0.262161,0.121558,-2.22399,-0.109913,1.51418,0.0525235,0.8,0.02,0,-0.013196,-0.0385451,0.043867,0.4452,0.0579723,-0.179777,0.211828,4.44089e-19,4.44089e-19,-1.18952e-16,
249,-1.28723,-35.456,5.54209,61.551,1.21907,0.334984,2.07767,0.743526,-29.4386,1.67179,32.8319,0.408118,0.765763,-0.000803257,-0.125416,0.262009,0.121733,-2.22221,-0.109686,1.51345,0.0533655,0.8,0.02,0,-0.0131758,-0.0379893,0.0437781,0.444374,0.056731,-0.182522,0.210495,-3.85186e-34,0,-2.74506e-17,
250,-1.06715,-35.2341,5.25277,61.3713,0.986125,0.441108,1.94786,0.716588,-29.342,1.64599,32.7292,0.419867,0.741326,-0.000861019,-0.125469,0.26186,0.121908,-2.22044,-0.109464,1.51271,0.0542021,0.8,0.02,0,-0.0131545,-0.0374234,0.0436902,0.443554,0.0554815,-0.185233,0.209153,4.44089e-19,0,-9.15019e-18,
251,-1.06269,-35.1931,5.24387,61.3135,0.987146,0.39739,1.92568,0.716588,-29.342,1.64599,32.7292,0.419867,0.741326,-0.000861019,-0.125514,0.261714,0.12207,-2.21867,-0.109302,1.51199,0.0549936,0.8,0.02,0,-0.0113507,-0.0363019,0.0405782,0.442413,0.0405583,-0.179694,0.197869,-3.85186e-34,4.44089e-19,2.74506e-17,
252,-1.05934,-35.152,5.23552,61.255,0.980323,0.366089,1.9093,0.716588,-29.342,1.64599,32.7292,0.419867,0.741326,-0.000861019,-0.125559,0.261573,0.122231,-2.2169,-0.109162,1.51127,0.0557713,0.8,0.02,0,-0.0113491,-0.0354578,0.0402963,0.441408,0.0350168,-0.179961,0.194413,-3.85186e-34,4.44089e-19,8.23517e-17,
253,-1.05644,-35.1109,5.2275,61.1966,0.970954,0.338795,1.89466,0.716588,-29.342,1.64599,32.7292,0.419867,0.741326,-0.000861019,-0.125605,0.261434,0.122392,-2.21514,-0.109032,1.51055,0.0565411,0.8,0.02,0,-0.0113128,-0.0347208,0.0402219,0.440468,0.0324101,-0.181958,0.192463,4.44089e-19,4.44089e-19,-1.83004e-17,
254,-1.0537,-35.07,5.21963,61.1383,0.960677,0.31293,1.88047,0.716588,-29.342,1.64599,32.7292,0.419867,0.741326,-0.000861019,-0.12565,0.261298,0.122553,-2.21338,-0.108909,1.50981,0.0573048,0.8,0.02,0,-0.0112438,-0.0340257,0.0401754,0.439564,0.0307176,-0.184456,0.190909,-3.85186e-34,4.44089e-19,3.66008e-17,
255,-1.05101,-35.0293,5.21185,61.0802,0.949997,0.287705,1.86632,0.716588,-29.342,1.64599,32.7292,0.419867,0.741326,-0.000861019,-0.125694,0.261164,0.122713,-2.21163,-0.108792,1.50906,0.0580626,0.8,0.02,0,-0.011169,-0.0333523,0.0401315,0.438682,0.029306,-0.187076,0.189465,-4.44089e-19,0,9.15019e-17,
256,-1.04832,-34.9888,5.20413,61.0225,0.939063,0.262889,1.85208,0.716588,-29.342,1.64599,32.7292,0.419867,0.741326,-0.000861019,-0.125739,0.261033,0.122874,-2.20988,-0.10868,1.5083,0.0588148,0.8,0.02,0,-0.0110972,-0.0326937,0.0400845,0.437816,0.0279766,-0.189705,0.188045,4.44089e-19,0,-1.09802e-16,
257,-1.04564,-34.9485,5.19648,60.965,0.927898,0.238426,1.83765,0.716588,-29.342,1.64599,32.7292,0.419867,0.741326,-0.000861019,-0.125783,0.260905,0.123034,-2.20813,-0.108574,1.50753,0.0595613,0.8,0.02,0,-0.0110307,-0.0320473,0.040033,0.436963,0.0266662,-0.192308,0.186621,4.44089e-19,0,-6.40513e-17,
258,-1.04296,-34.9083,5.18887,60.908,0.91637,0.214383,1.82292,0.716588,-29.342,1.64599,32.7292,0.419867,0.741326,-0.000861019,-0.125827,0.26078,0.123194,-2.20638,-0.108472,1.50675,0.060302,0.8,0.02,0,-0.0109696,-0.0314114,0.0399772,0.436121,0.0253522,-0.194875,0.185182,-3.85186e-34,4.44089e-19,-9.15019e-18,
259,-1.0404,-34.8682,5.18138,60.8514,0.903663,0.192276,1.80755,0.716588,-29.342,1.64599,32.7292,0.419867,0.741326,-0.000861019,-0.12587,0.260656,0.123353,-2.20464,-0.108376,1.50596,0.0610369,0.8,0.02,0,-0.0109138,-0.0307843,0.0399171,0.435288,0.0240178,-0.197399,0.183714,4.44089e-19,4.44089e-19,2.74506e-17,
260,-2.64489,-34.4008,6.8053,60.6986,1.38588,-0.0334532,1.02455,0.691835,-29.2526,1.62263,32.6294,0.430935,0.718755,-0.000912112,-0.125914,0.260536,0.123513,-2.20291,-0.108286,1.50516,0.0617656,0.8,0.02,0,-0.0108652,-0.0301606,0.039852,0.434462,0.0226081,-0.199788,0.18219,8.88178e-19,0,7.32015e-17,
261,-2.65327,-34.3602,6.80904,60.6366,1.35117,0.0154202,1.0319,0.691835,-29.2526,1.62263,32.6294,0.430935,0.718755,-0.000912112,-0.126012,0.260421,0.123742,-2.20117,-0.108056,1.50432,0.062192,0.8,0.02,0,-0.0245164,-0.0287171,0.0572042,0.433181,0.0573771,-0.211479,0.106607,8.88178e-19,0,5.49011e-17,
262,-2.66145,-34.3204,6.81381,60.5766,1.32763,0.0432863,1.02745,0.691835,-29.2526,1.62263,32.6294,0.430935,0.718755,-0.000912112,-0.126112,0.260311,0.123973,-2.19944,-0.107806,1.50346,0.0626088,0.8,0.02,0,-0.0251261,-0.0273983,0.0578555,0.432501,0.0626274,-0.21466,0.104189,8.88178e-19,0,8.23517e-17,
263,-2.66902,-34.281,6.81827,60.5173,1.30779,0.0651373,1.02016,0.691835,-29.2526,1.62263,32.6294,0.430935,0.718755,-0.000912112,-0.126214,0.260207,0.124204,-2.19772,-0.107554,1.5026,0.0630246,0.8,0.02,0,-0.0253726,-0.0261676,0.0577304,0.431598,0.0628419,-0.214662,0.103948,4.44089e-19,4.44089e-19,6.40513e-17,
264,-2.67638,-34.2418,6.82264,60.4584,1.28922,0.0853897,1.01212,0.691835,-29.2526,1.62263,32.6294,0.430935,0.718755,-0.000912112,-0.126316,0.260107,0.124434,-2.19599,-0.107308,1.50175,0.063438,0.8,0.02,0,-0.0256379,-0.0250444,0.057563,0.430611,0.0616381,-0.213655,0.103352,4.44089e-19,4.44089e-19,1.18952e-16,
265,-2.68369,-34.2027,6.82699,60.3998,1.27114,0.10536,1.00398,0.691835,-29.2526,1.62263,32.6294,0.430935,0.718755,-0.000912112,-0.12642,0.26001,0.124664,-2.19428,-0.107068,1.5009,0.0638484,0.8,0.02,0,-0.0258972,-0.0240152,0.0574074,0.429607,0.0599842,-0.212299,0.102599,-3.85186e-34,0,1.00652e-16,
266,-2.69098,-34.1639,6.83137,60.3415,1.25331,0.125451,0.995948,0.691835,-29.2526,1.62263,32.6294,0.430935,0.718755,-0.000912112,-0.126525,0.259918,0.124893,-2.19256,-0.106835,1.50005,0.0642556,0.8,0.02,0,-0.0261388,-0.0230625,0.057272,0.428613,0.0581855,-0.210788,0.101805,4.44089e-19,4.44089e-19,3.69779e-32,
267,-2.69829,-34.1252,6.8358,60.2833,1.23566,0.145795,0.988107,0.691835,-29.2526,1.62263,32.6294,0.430935,0.718755,-0.000912112,-0.12663,0.25983,0.125122,-2.19085,-0.10661,1.49922,0.0646597,0.8,0.02,0,-0.0263606,-0.0221716,0.057157,0.42764,0.0563422,-0.20918,0.101011,4.44089e-19,-4.44089e-19,-5.49011e-17,
268,-2.7056,-34.0867,6.84027,60.2254,1.21817,0.166451,0.980503,0.691835,-29.2526,1.62263,32.6294,0.430935,0.718755,-0.000912112,-0.126736,0.259744,0.12535,-2.18914,-0.106392,1.49839,0.0650606,0.8,0.02,0,-0.0265636,-0.0213314,0.0570611,0.426688,0.0544885,-0.207495,0.100233,4.44089e-19,0,-1.83004e-17,
269,-2.71291,-34.0483,6.8448,60.1679,1.20085,0.187491,0.973172,0.691835,-29.2526,1.62263,32.6294,0.430935,0.718755,-0.000912112,-0.126843,0.259662,0.125578,-2.18744,-0.106181,1.49756,0.0654585,0.8,0.02,0,-0.0267497,-0.0205333,0.0569822,0.42576,0.0526375,-0.205739,0.099476,4.44089e-19,4.44089e-19,1.83004e-17,
270,1.39527,-33.2176,3.01995,60.2771,1.68682,-1.47837,1.75845,0.669145,-29.1702,1.60157,32.5323,0.441366,0.697964,-0.00095689,-0.126951,0.259583,0.125806,-2.18574,-0.105978,1.49675,0.0658535,0.8,0.02,0,-0.0269209,-0.0197707,0.0569183,0.424852,0.0507946,-0.203913,0.0987455,4.44089e-19,4.44089e-19,7.32015e-17,
271,1.37352,-33.18,3.0351,60.2111,1.61974,-1.29118,1.78494,0.669145,-29.1702,1.60157,32.5323,0.441366,0.697964,-0.00095689,-0.126911,0.259496,0.125882,-2.18401,-0.105687,1.49555,0.0665355,0.8,0.02,0,0.0100026,-0.0216621,0.0190903,0.43212,0.0728144,-0.299298,0.170496,4.44089e-19,-2.08722e-17,-7.32015e-17,
272,1.363,-33.1461,3.0409,60.1545,1.5841,-1.21363,1.7883,0.669145,-29.1702,1.60157,32.5323,0.441366,0.697964,-0.00095689,-0.126862,0.259414,0.125954,-2.18229,-0.105345,1.49425,0.0672484,0.8,0.02,0,0.0123268,-0.0205645,0.0179772,0.431543,0.0853537,-0.324187,0.178238,-3.85186e-34,-1.02141e-17,3.69779e-32,
273,1.35463,-33.1135,3.04545,60.1005,1.55926,-1.16788,1.78341,0.669145,-29.1702,1.60157,32.5323,0.441366,0.697964,-0.00095689,-0.126811,0.259339,0.126026,-2.18057,-0.104992,1.49293,0.0679673,0.8,0.02,0,0.0126445,-0.0188323,0.0181163,0.429809,0.0883078,-0.330184,0.179711,-3.85186e-34,-5.32907e-18,3.66008e-17,
274,1.34688,-33.0812,3.04972,60.0472,1.53806,-1.13168,1.77605,0.669145,-29.1702,1.60157,32.5323,0.441366,0.697964,-0.00095689,-0.12676,0.259271,0.126099,-2.17886,-0.104641,1.49161,0.0686857,0.8,0.02,0,0.0127022,-0.0170235,0.018197,0.428042,0.0876553,-0.330748,0.179604,4.44089e-19,-2.22045e-18,-2.01304e-16,
275,1.33931,-33.0491,3.05398,59.9943,1.51816,-1.09848,1.76818,0.669145,-29.1702,1.60157,32.5323,0.441366,0.697964,-0.00095689,-0.126709,0.259209,0.126172,-2.17715,-0.104298,1.49029,0.0694017,0.8,0.02,0,0.012689,-0.0153048,0.0182411,0.426421,0.0858226,-0.329608,0.178998,-3.85186e-34,-4.44089e-19,-2.19605e-16,
276,1.33178,-33.017,3.05831,59.9415,1.49882,-1.06625,1.76047,0.669145,-29.1702,1.60157,32.5323,0.441366,0.697964,-0.00095689,-0.126659,0.259155,0.126245,-2.17545,-0.103964,1.48898,0.0701147,0.8,0.02,0,0.012651,-0.0137209,0.0182748,0.424949,0.0836506,-0.327842,0.178255,-4.44089e-19,-4.44089e-19,-1.28103e-16,
277,1.32424,-32.985,3.06274,59.8889,1.47985,-1.03434,1.75316,0.669145,-29.1702,1.60157,32.5323,0.441366,0.697964,-0.00095689,-0.126608,0.259105,0.126318,-2.17376,-0.103638,1.48768,0.0708247,0.8,0.02,0,0.0126027,-0.012275,0.0183068,0.4236,0.0814137,-0.325779,0.177498,-3.85186e-34,0,2.46519e-32,
278,1.3167,-32.9529,3.06728,59.8367,1.46131,-1.00248,1.74642,0.669145,-29.1702,1.60157,32.5323,0.441366,0.697964,-0.00095689,-0.126558,0.259062,0.126392,-2.17207,-0.103321,1.48638,0.0715318,0.8,0.02,0,0.0125492,-0.0109564,0.01834,0.42235,0.0791986,-0.323529,0.17677,-4.44089e-19,0,5.49011e-17,
279,1.30919,-32.9206,3.07193,59.7848,1.4435,-0.970771,1.74053,0.669145,-29.1702,1.60157,32.5323,0.441366,0.697964,-0.00095689,-0.126508,0.259023,0.126465,-2.17038,-0.103013,1.4851,0.0722361,0.8,0.02,0,0.0124924,-0.00975056,0.0183752,0.421182,0.0770357,-0.321138,0.176096,-4.44089e-19,0,-3.66008e-17,
280,1.09892,-32.992,3.27582,59.7727,1.69308,-2.19407,1.73033,0.648404,-29.0948,1.58269,32.4381,0.451198,0.678871,-0.000995694,-0.126459,0.258988,0.126539,-2.1687,-0.102713,1.48382,0.0729381,0.8,0.02,0,0.0124342,-0.00864285,0.0184131,0.420084,0.0749528,-0.318638,0.1755,-8.88178e-19,0,5.49011e-17,
281,1.09638,-32.9574,3.27391,59.7162,1.65458,-2.0472,1.74481,0.648404,-29.0948,1.58269,32.4381,0.451198,0.678871,-0.000995694,-0.126414,0.258945,0.126624,-2.16701,-0.102366,1.48226,0.0736321,0.8,0.02,0,0.0110428,-0.010848,0.0211859,0.423499,0.0866744,-0.390627,0.17348,-3.85186e-34,0,2.46519e-32,
282,1.09572,-32.9259,3.27151,59.6665,1.63127,-1.98183,1.74711,0.648404,-29.0948,1.58269,32.4381,0.451198,0.678871,-0.000995694,-0.12637,0.258901,0.126709,-2.16532,-0.102002,1.48063,0.074333,0.8,0.02,0,0.0111407,-0.0108945,0.0213454,0.422309,0.0911699,-0.408953,0.175225,-4.44089e-19,4.44089e-19,6.40513e-17,
283,1.09586,-32.8955,3.2688,59.6184,1.61397,-1.9398,1.74583,0.648404,-29.0948,1.58269,32.4381,0.451198,0.678871,-0.000995694,-0.126325,0.258861,0.126794,-2.16364,-0.101635,1.47898,0.0750363,0.8,0.02,0,0.0111372,-0.010137,0.0212574,0.420576,0.0917481,-0.41271,0.175839,-4.44089e-19,0,6.40513e-17,
284,1.09624,-32.8656,3.26603,59.5707,1.59922,-1.90474,1.74415,0.648404,-29.0948,1.58269,32.4381,0.451198,0.678871,-0.000995694,-0.126281,0.258824,0.126879,-2.16196,-0.101272,1.47733,0.0757398,0.8,0.02,0,0.011079,-0.00910874,0.0211292,0.419019,0.0907813,-0.412285,0.175878,-4.44089e-19,4.44089e-19,9.15019e-18,
285,1.09666,-32.8359,3.26331,59.5231,1.58586,-1.87184,1.74321,0.648404,-29.0948,1.58269,32.4381,0.451198,0.678871,-0.000995694,-0.126237,0.258792,0.126963,-2.16029,-0.100914,1.47568,0.0764429,0.8,0.02,0,0.0110114,-0.00802053,0.0210029,0.417678,0.0893393,-0.410537,0.175765,-4.44089e-19,4.44089e-19,1.18952e-16,
286,1.09704,-32.8064,3.2607,59.4757,1.57361,-1.83959,1.74346,0.648404,-29.0948,1.58269,32.4381,0.451198,0.678871,-0.000995694,-0.126193,0.258764,0.127046,-2.15862,-0.100563,1.47405,0.0771456,0.8,0.02,0,0.0109497,-0.0069555,0.0208887,0.416496,0.0878196,-0.408296,0.175683,4.44089e-19,0,8.23517e-17,
287,1.09737,-32.7769,3.25821,59.4282,1.56243,-1.80746,1.74514,0.648404,-29.0948,1.58269,32.4381,0.451198,0.678871,-0.000995694,-0.12615,0.25874,0.127129,-2.15696,-0.100218,1.47243,0.0778484,0.8,0.02,0,0.0108974,-0.00594405,0.0207882,0.415423,0.0863564,-0.405821,0.175703,8.88178e-19,4.44089e-19,1.18952e-16,
288,1.09764,-32.7476,3.25584,59.3809,1.55239,-1.77524,1.74839,0.648404,-29.0948,1.58269,32.4381,0.451198,0.678871,-0.000995694,-0.126106,0.25872,0.127212,-2.1553,-0.0998776,1.47081,0.0785519,0.8,0.02,0,0.0108546,-0.00499424,0.0207004,0.414427,0.0849941,-0.403202,0.175859,8.88178e-19,4.44089e-19,-3.66008e-17,
289,1.09784,-32.7183,3.25361,59.3337,1.54353,-1.74279,1.75334,0.648404,-29.0948,1.58269,32.4381,0.451198,0.678871,-0.000995694,-0.126063,0.258704,0.127295,-2.15365,-0.0995426,1.46921,0.0792566,0.8,0.02,0,0.0108201,-0.00410478,0.0206242,0.413487,0.0837491,-0.400473,0.176169,4.44089e-19,4.44089e-19,3.66008e-17,
290,0.969678,-33.3229,3.40616,59.1959,1.33222,-4.05543,2.50093,0.629497,-29.0261,1.56588,32.3466,0.460469,0.661397,-0.00102885,-0.12602,0.258691,0.127377,-2.152,-0.0992121,1.46762,0.0799631,0.8,0.02,0,0.0107932,-0.00327055,0.0205584,0.412591,0.0826282,-0.397651,0.176647,4.44089e-19,0,-8.23517e-17,
291,0.968732,-33.2875,3.40351,59.1392,1.30579,-3.80668,2.52524,0.629497,-29.0261,1.56588,32.3466,0.460469,0.661397,-0.00102885,-0.125984,0.258651,0.127463,-2.15032,-0.0989816,1.46547,0.0809538,0.8,0.02,0,0.00903243,-0.00994563,0.0216028,0.420449,0.0576364,-0.536897,0.247668,-3.85186e-34,-4.44089e-19,-2.74506e-17,
292,0.968021,-33.2579,3.40182,59.0942,1.29264,-3.70291,2.54229,0.629497,-29.0261,1.56588,32.3466,0.460469,0.661397,-0.00102885,-0.125948,0.258603,0.12755,-2.14864,-0.0987509,1.46319,0.0819668,0.8,0.02,0,0.00899176,-0.0120219,0.0218101,0.418192,0.0576762,-0.571999,0.253248,-3.85186e-34,0,-6.40513e-17,
293,0.9678,-33.2303,3.40015,59.0515,1.28641,-3.64049,2.55703,0.629497,-29.0261,1.56588,32.3466,0.460469,0.661397,-0.00102885,-0.125911,0.258555,0.127638,-2.14698,-0.0985189,1.46087,0.0829878,0.8,0.02,0,0.00905604,-0.012124,0.0218214,0.415237,0.0579948,-0.57998,0.255253,-3.85186e-34,0,7.32015e-17,
294,0.967706,-33.2036,3.39858,59.0092,1.28395,-3.59063,2.57285,0.629497,-29.0261,1.56588,32.3466,0.460469,0.661397,-0.00102885,-0.125875,0.258509,0.127725,-2.14533,-0.0982886,1.45855,0.0840152,0.8,0.02,0,0.00910361,-0.0114093,0.0218011,0.412882,0.0575655,-0.580299,0.256839,4.44089e-19,-4.44089e-19,-8.23517e-17,
295,0.967565,-33.1772,3.39719,58.9667,1.28421,-3.54488,2.5912,0.629497,-29.0261,1.56588,32.3466,0.460469,0.661397,-0.00102885,-0.125838,0.258467,0.127812,-2.14369,-0.0980608,1.45623,0.085049,0.8,0.02,0,0.00914551,-0.0103869,0.0217839,0.411071,0.0569574,-0.578215,0.258449,-3.85186e-34,-8.88178e-19,-2.74506e-17,
296,0.967316,-33.1509,3.39601,58.924,1.28709,-3.50056,2.61285,0.629497,-29.0261,1.56588,32.3466,0.460469,0.661397,-0.00102885,-0.125802,0.25843,0.127899,-2.14205,-0.0978349,1.45393,0.08609,0.8,0.02,0,0.00918854,-0.00928131,0.0217763,0.409614,0.056486,-0.575252,0.26027,-3.85186e-34,-4.44089e-19,-9.15019e-18,
297,0.96694,-33.1246,3.3951,58.8812,1.29298,-3.45675,2.63849,0.629497,-29.0261,1.56588,32.3466,0.460469,0.661397,-0.00102885,-0.125765,0.258397,0.127986,-2.14042,-0.0976098,1.45164,0.0871397,0.8,0.02,0,0.00923373,-0.00818973,0.0217782,0.408376,0.0562709,-0.571894,0.262401,-3.85186e-34,0,4.57509e-17,
298,0.966461,-33.0984,3.39451,58.8381,1.30335,-3.41352,2.66958,0.629497,-29.0261,1.56588,32.3466,0.460469,0.661397,-0.00102885,-0.125728,0.258369,0.128073,-2.13879,-0.0973843,1.44937,0.0881993,0.8,0.02,0,0.00928099,-0.0071511,0.0217891,0.407274,0.056371,-0.568315,0.264919,-4.44089e-19,0,8.23517e-17,
299,0.966441,-33.0724,3.39416,58.7956,1.32476,-3.38084,2.70911,0.629497,-29.0261,1.56588,32.3466,0.460469,0.661397,-0.00102885,-0.12569,0.258344,0.128161,-2.13716,-0.0971567,1.44711,0.0892712,0.8,0.02,0,0.0093322,-0.00617863,0.0218109,0.406263,0.0568899,-0.564607,0.267963,-3.85186e-34,0,1.18952e-16,
300,0.679037,-33.9131,3.73734,57.9401,2.40121,-4.12849,2.86046,0.612317,-28.9638,1.551,32.2578,0.469216,0.645463,-0.00105667,-0.125653,0.258323,0.128248,-2.13554,-0.0969237,1.44487,0.0903584,0.8,0.02,0,0.00940289,-0.00529577,0.0218548,0.405348,0.0582517,-0.561409,0.271802,-3.85186e-34,4.44089e-19,1.55553e-16,
301,0.691726,-33.8894,3.73097,57.9273,2.48834,-4.30169,2.82547,0.612317,-28.9638,1.551,32.2578,0.469216,0.645463,-0.00105667,-0.125618,0.258285,0.128357,-2.13394,-0.0964069,1.44246,0.0914844,0.8,0.02,0,0.00854588,-0.00946899,0.0272449,0.400386,0.12921,-0.600513,0.281515,8.88178e-19,8.88178e-19,3.66008e-17,
302,0.70872,-33.8677,3.72224,57.9154,2.60299,-4.50951,2.76652,0.612317,-28.9638,1.551,32.2578,0.469216,0.645463,-0.00105667,-0.125581,0.258239,0.128468,-2.13234,-0.0957749,1.43995,0.0926112,0.8,0.02,0,0.00924938,-0.0114887,0.0277419,0.398704,0.157986,-0.62929,0.28169,4.44089e-19,4.44089e-19,1.00652e-16,
303,0.727215,-33.8469,3.71249,57.9038,2.72502,-4.72994,2.69927,0.612317,-28.9638,1.551,32.2578,0.469216,0.645463,-0.00105667,-0.125543,0.258189,0.128579,-2.13075,-0.0950741,1.43733,0.0937191,0.8,0.02,0,0.00960637,-0.0125493,0.0277692,0.398055,0.175216,-0.653815,0.276964,8.88178e-19,4.44089e-19,-6.40513e-17,
304,0.74629,-33.8264,3.70227,57.8922,2.8485,-4.95528,2.6281,0.612317,-28.9638,1.551,32.2578,0.469216,0.645463,-0.00105667,-0.125504,0.258136,0.12869,-2.12916,-0.0943176,1.43463,0.0948014,0.8,0.02,0,0.00983414,-0.0131491,0.0277,0.397793,0.18912,-0.676812,0.270591,-3.85186e-34,4.44089e-19,-7.32015e-17,
305,0.765691,-33.8061,3.69174,57.8805,2.97157,-5.1829,2.55417,0.612317,-28.9638,1.551,32.2578,0.469216,0.645463,-0.00105667,-0.125464,0.258082,0.1288,-2.12757,-0.0935095,1.43183,0.0958558,0.8,0.02,0,0.0100249,-0.0135026,0.0276012,0.397682,0.20202,-0.699334,0.263588,-3.85186e-34,0,-5.49011e-17,
306,0.785363,-33.7858,3.68093,57.8688,3.09362,-5.4119,2.47767,0.612317,-28.9638,1.551,32.2578,0.469216,0.645463,-0.00105667,-0.125423,0.258028,0.12891,-2.12598,-0.0926512,1.42894,0.0968807,0.8,0.02,0,0.0102048,-0.013709,0.0274889,0.397626,0.214567,-0.721766,0.256241,-3.85186e-34,4.44089e-19,-3.66008e-17,
307,0.805309,-33.7656,3.66986,57.8571,3.21435,-5.64202,2.39852,0.612317,-28.9638,1.551,32.2578,0.469216,0.645463,-0.00105667,-0.125381,0.257972,0.12902,-2.12439,-0.0917435,1.42596,0.0978752,0.8,0.02,0,0.0103806,-0.0138181,0.0273671,0.397581,0.226934,-0.74425,0.24862,-3.85186e-34,4.44089e-19,-1.83004e-17,
308,0.825555,-33.7452,3.65854,57.8455,3.3337,-5.87318,2.31662,0.612317,-28.9638,1.551,32.2578,0.469216,0.645463,-0.00105667,-0.125339,0.257917,0.129129,-2.1228,-0.0907869,1.4229,0.0988381,0.8,0.02,0,0.0105536,-0.0138572,0.0272364,0.39753,0.239159,-0.766836,0.24073,4.44089e-19,0,2.74506e-17,
309,0.846147,-33.7248,3.64698,57.8339,3.45204,-6.10562,2.23222,0.612317,-28.9638,1.551,32.2578,0.469216,0.645463,-0.00105667,-0.125296,0.257861,0.129237,-2.12121,-0.0897819,1.41974,0.0997684,0.8,0.02,0,0.0107243,-0.0138425,0.0270972,0.397466,0.251247,-0.789544,0.232565,4.44089e-19,4.44089e-19,8.23517e-17,
310,-0.0118228,-35.8331,4.53704,54.5503,-0.647108,5.75771,2.48925,0.596761,-28.9079,1.53797,32.1717,0.477472,0.630996,-0.00107946,-0.125252,0.257806,0.129345,-2.11962,-0.088729,1.41649,0.100665,0.8,0.02,0,0.0108939,-0.013785,0.0269504,0.397387,0.263223,-0.812393,0.224148,4.44089e-19,4.44089e-19,1.37253e-16,
311,0.0488659,-35.8257,4.49263,54.6144,-0.222122,4.32395,2.15137,0.596761,-28.9079,1.53797,32.1717,0.477472,0.630996,-0.00107946,-0.125271,0.257822,0.129448,-2.11827,-0.088582,1.41603,0.101721,0.8,0.02,0,-0.00462294,0.00385548,0.0256787,0.337396,0.0367387,-0.115415,0.263956,4.44089e-19,2.17604e-17,-1.55553e-16,
312,0.0806187,-35.7955,4.46399,54.6049,0.00724827,3.7018,1.97834,0.596761,-28.9079,1.53797,32.1717,0.477472,0.630996,-0.00107946,-0.125299,0.257849,0.129545,-2.11694,-0.0887566,1.41626,0.102622,0.8,0.02,0,-0.00710661,0.00688475,0.0242846,0.332088,-0.0436291,0.0573473,0.225383,-8.88178e-19,1.28786e-17,9.15019e-17,
313,0.102957,-35.7582,4.44088,54.5772,0.166183,3.30976,1.85753,0.596761,-28.9079,1.53797,32.1717,0.477472,0.630996,-0.00107946,-0.125326,0.257868,0.129643,-2.1156,-0.0890114,1.41662,0.103433,0.8,0.02,0,-0.00676852,0.00473458,0.0246319,0.336452,-0.0637148,0.0898234,0.202559,-4.44089e-19,7.99361e-18,1.83004e-17,
314,0.122741,-35.7188,4.41946,54.5451,0.299802,2.98607,1.75039,0.596761,-28.9079,1.53797,32.1717,0.477472,0.630996,-0.00107946,-0.125349,0.257872,0.129745,-2.11423,-0.0892579,1.41695,0.104185,0.8,0.02,0,-0.0056653,0.00092221,0.0255166,0.341266,-0.0616198,0.0830767,0.188208,-4.44089e-19,5.32907e-18,-3.66008e-17,
315,0.14233,-35.6789,4.39835,54.512,0.423006,2.68397,1.64386,0.596761,-28.9079,1.53797,32.1717,0.477472,0.630996,-0.00107946,-0.125367,0.257859,0.129851,-2.11285,-0.0894668,1.41721,0.104892,0.8,0.02,0,-0.0044255,-0.00318531,0.0264484,0.345127,-0.0522383,0.0645245,0.176706,-8.88178e-19,3.10862e-18,9.15019e-17,
316,0.162513,-35.6395,4.37706,54.4786,0.540168,2.38925,1.53324,0.596761,-28.9079,1.53797,32.1717,0.477472,0.630996,-0.00107946,-0.12538,0.257831,0.12996,-2.11146,-0.0896301,1.41737,0.105555,0.8,0.02,0,-0.00324002,-0.00706558,0.0272822,0.348099,-0.0408113,0.0419481,0.16581,-3.85186e-34,1.77636e-18,1.09802e-16,
317,0.183549,-35.6008,4.35539,54.4446,0.651846,2.09725,1.41623,0.596761,-28.9079,1.53797,32.1717,0.477472,0.630996,-0.00107946,-0.125388,0.257789,0.130072,-2.11006,-0.0897464,1.41744,0.106174,0.8,0.02,0,-0.0021561,-0.010539,0.0279875,0.35041,-0.0290766,0.0176945,0.1547,-3.85186e-34,1.33227e-18,1.09802e-16,
318,0.205473,-35.5635,4.33315,54.4093,0.75591,1.80671,1.28995,0.596761,-28.9079,1.53797,32.1717,0.477472,0.630996,-0.00107946,-0.125393,0.257734,0.130186,-2.10865,-0.0898169,1.41741,0.106746,0.8,0.02,0,-0.00117766,-0.0135679,0.0285659,0.352238,-0.0176246,-0.0074646,0.143024,4.44089e-19,4.44089e-19,1.46403e-16,
319,0.227221,-35.5281,4.31061,54.3699,0.842186,1.53044,1.14902,0.596761,-28.9079,1.53797,32.1717,0.477472,0.630996,-0.00107946,-0.125394,0.25767,0.130303,-2.10723,-0.089844,1.41728,0.107268,0.8,0.02,0,-0.000300127,-0.0161722,0.0290235,0.353696,-0.00678612,-0.033217,0.130473,4.44089e-19,7.70372e-34,2.01304e-16,
320,-1.44536,-36.4091,3.36274,44.3755,-7.43789,4.00144,-1.62929,0.582728,-28.8581,1.52665,32.0883,0.485268,0.617923,-0.00109749,-0.125392,0.257596,0.13042,-2.10581,-0.0898332,1.41705,0.107734,0.8,0.02,0,0.000461254,-0.0183682,0.0293567,0.354809,0.0027157,-0.0586291,0.116549,8.88178e-19,4.44089e-19,9.15019e-18,
321,-1.40253,-36.3663,3.32181,44.3596,-7.11611,3.68617,-1.87069,0.582728,-28.8581,1.52665,32.0883,0.485268,0.617923,-0.00109749,-0.125471,0.257466,0.130478,-2.10456,-0.0918857,1.41742,0.107295,0.8,0.02,0,-0.0196788,-0.0326269,0.0145268,0.313711,-0.513121,0.0929461,-0.109967,8.88178e-19,-6.66134e-18,9.15019e-18,
322,-1.40532,-36.3226,3.31043,44.312,-7.06435,3.64371,-1.90666,0.582728,-28.8581,1.52665,32.0883,0.485268,0.617923,-0.00109749,-0.125572,0.257305,0.130522,-2.1034,-0.0945975,1.41797,0.106614,0.8,0.02,0,-0.0250803,-0.0402479,0.0109147,0.290378,-0.677962,0.138765,-0.170236,8.88178e-19,-3.10862e-18,-5.49011e-17,
323,-1.42221,-36.2809,3.30841,44.2523,-7.09614,3.67972,-1.8788,0.582728,-28.8581,1.52665,32.0883,0.485268,0.617923,-0.00109749,-0.125675,0.257132,0.130564,-2.10229,-0.0975417,1.41858,0.105876,0.8,0.02,0,-0.0259289,-0.0432858,0.0106296,0.277495,-0.73606,0.152462,-0.18443,4.44089e-19,-2.22045e-18,1.83004e-17,
324,-1.44355,-36.2408,3.30955,44.1882,-7.15441,3.73617,-1.8303,0.582728,-28.8581,1.52665,32.0883,0.485268,0.617923,-0.00109749,-0.125777,0.256957,0.13061,-2.10121,-0.100586,1.41921,0.105136,0.8,0.02,0,-0.0254407,-0.043777,0.0113216,0.270113,-0.760994,0.157608,-0.184865,8.88178e-19,-1.33227e-18,-3.66008e-17,
325,-1.46634,-36.2018,3.31194,44.1224,-7.22136,3.79694,-1.77445,0.582728,-28.8581,1.52665,32.0883,0.485268,0.617923,-0.00109749,-0.125875,0.256784,0.130659,-2.10014,-0.103687,1.41986,0.104412,0.8,0.02,0,-0.0246216,-0.0430155,0.012251,0.265551,-0.775259,0.161105,-0.181025,4.44089e-19,-8.88178e-19,-9.15019e-17,
326,-1.48963,-36.1637,3.31497,44.056,-7.29125,3.85811,-1.7154,0.582728,-28.8581,1.52665,32.0883,0.485268,0.617923,-0.00109749,-0.125971,0.256618,0.130711,-2.09909,-0.10683,1.42052,0.103709,0.8,0.02,0,-0.0237877,-0.0417138,0.0131826,0.26245,-0.785902,0.164713,-0.175774,4.44089e-19,3.85186e-34,-3.69779e-32,
