DMackRus/ILQR_Mujoco_Arm_Push_Clyinder/finalTrajectory.csv
Control Number,T1,T2,T3,T4,T5,T6,T7,J1,J2,J3,J4,J5,J6,J7,Cube x,Cube y,Cube w,V1,V2,V3,V4,V5,V6,V7,Cube x V,Cube y V,Cube w V,
0,-18.2618,-31.53,22.5739,42.4208,14.7357,-0.401809,-0.239263,-0.120397,0.338914,0.0645902,-2.50149,-0.00280361,1.23688,0.00782865,0.6,0.02,0,-0.000397618,-0.000828794,-0.00137505,-0.00169312,-0.0162365,0.0739159,0.0115947,7.49401e-18,-4.81482e-35,1.42255e-16,
1,39.4571,-41.041,-41.6862,51.8881,-14.1967,-0.652652,0.0406404,-0.124612,0.338035,0.0678521,-2.49715,0.0148596,1.23176,0.00466204,0.6,0.02,0,-0.204344,-0.0404622,0.196987,0.274006,1.00978,-0.349249,-0.221835,7.35523e-18,1.38778e-19,1.20917e-16,
2,-12.333,-33.2093,12.9606,48.5238,23.0987,-0.590813,0.0208749,-0.115484,0.333979,0.0619027,-2.48867,-0.00441703,1.22763,0.00500387,0.6,0.02,0,0.454518,-0.169299,-0.368109,0.426082,-1.26005,-0.175979,0.00199497,4.44089e-18,3.747e-18,1.92045e-16,
3,-1.52445,-30.4118,-2.5648,47.6971,15.4662,-0.462178,0.556907,-0.116104,0.331925,0.0658419,-2.48125,0.0139312,1.22487,0.00438254,0.6,0.02,0,-0.063686,-0.0720523,0.177346,0.376052,1.12955,-0.191141,-0.000481576,1.38778e-19,-1.249e-18,1.92045e-16,
4,-2.10373,-30.6306,-0.827116,47.5824,12.1008,-0.40965,0.532888,-0.11547,0.331016,0.0661225,-2.47387,0.0366902,1.22124,0.0054452,0.6,0.02,0,0.0158167,-0.0308189,-0.00487904,0.362934,1.15118,-0.189499,0.0545048,3.05311e-18,-1.94289e-18,3.81718e-16,
5,-2.6232,-30.8692,0.341251,47.5278,12.2374,-0.369748,0.601065,-0.115568,0.330551,0.0660846,-2.46674,0.0599082,1.21736,0.00649877,0.6,0.02,0,-0.0108561,-0.0186578,-0.00715637,0.35287,1.16436,-0.199,0.0529264,6.80012e-18,-9.71445e-19,1.5411e-16,
6,-7.7812,-31.0652,6.54278,47.6798,12.4467,-0.261786,1.35582,-0.116,0.330222,0.0660669,-2.45976,0.0832672,1.21337,0.00769552,0.6,0.02,0,-0.0232869,-0.0148212,-0.00223986,0.347831,1.16897,-0.200949,0.0600298,6.80012e-18,-1.44445e-34,4.50475e-17,
7,-9.15317,-37.2116,18.2589,54.0795,26.9605,4.08964,1.45546,-0.11753,0.32995,0.0672024,-2.45292,0.10651,1.20907,0.0101343,0.600491,0.0198286,0.00350926,-0.0763719,-0.0128134,0.0586591,0.335626,1.15574,-0.23276,0.116124,0.0606373,-0.0210363,0.414101,
8,-14.4434,-49.1458,25.4754,57.1025,-14.7738,0.528107,-4.50115,-0.119904,0.329591,0.070126,-2.44601,0.129896,1.21062,0.012632,0.603035,0.0194455,0.0215026,-0.10801,-0.0299167,0.157976,0.364965,1.16354,0.145335,0.128873,0.15814,-0.0240658,1.04401,
9,-26.3246,-50.483,33.4182,79.6035,-49.4747,-1.33424,-14.3543,-0.124029,0.327363,0.0737551,-2.4376,0.110193,1.20709,0.00436063,0.605654,0.0192655,0.0350956,-0.191661,-0.148832,0.200928,0.412751,-1.20341,-0.170936,-0.454296,0.121948,0.00491592,0.594056,
10,189.115,-53.5297,-201.292,100.224,337.159,-12.9679,-118.245,-0.129557,0.324608,0.0799087,-2.4261,0.0853915,1.19875,-0.019507,0.607953,0.0197412,0.0469453,-0.27211,-0.149644,0.31538,0.615099,-1.24045,-0.399501,-1.20743,0.119678,0.0339739,0.746788,
11,2310.76,54.8072,-2602.14,-15.0557,14.7773,143.586,-93.7543,-0.111785,0.320386,0.0633616,-2.41218,0.103015,1.17285,-0.0445598,0.611199,0.0178811,0.0508875,0.897069,-0.21337,-0.854555,0.715654,1.14153,-1.40172,-1.202,0.141704,-0.080982,0.269015,
12,-71.7424,-35.7993,83.232,35.6054,15.0713,0.648413,-0.833539,-0.0939762,0.32518,0.046516,-2.41021,0.128729,1.19923,-0.0689037,0.614171,0.0163595,0.0538143,0.884651,0.479072,-0.855776,-0.0467528,1.20157,1.44373,-1.2066,0.121894,-0.0659594,-0.384311,
13,35.6444,-24.8811,-46.4738,51.0996,18.2234,0.249075,1.57569,-0.107612,0.329507,0.0626271,-2.40818,0.151134,1.19723,-0.0708937,0.61553,0.015345,0.0376428,-0.710022,0.0948184,0.827869,0.128202,1.14529,-0.27,-0.0905776,0.0352519,-0.0364773,-0.969516,
14,23.5668,-27.2233,-25.2128,41.3261,18.8058,0.639517,1.96778,-0.0997029,0.331489,0.0545917,-2.40268,0.172528,1.19017,-0.0686604,0.617933,0.011812,0.0179267,0.396105,0.104026,-0.436213,0.32038,1.12524,-0.258579,0.145192,0.125627,-0.142169,-0.166004,
15,2.44712,-27.8621,3.88723,31.2326,13.6336,1.19233,-2.23982,-0.0949532,0.332834,0.0493345,-2.3974,0.195839,1.18711,-0.064928,0.62045,0.00986142,0.0221019,0.234691,0.0537303,-0.26062,0.25665,1.1621,-0.149228,0.188055,0.118668,-0.0815119,0.240241,
16,4.57596,-24.1253,0.391397,39.3857,70.2023,1.33951,0.327688,-0.09482,0.333479,0.0495037,-2.39368,0.219743,1.18625,-0.0693548,0.622543,0.00847573,0.0201074,0.00965449,0.0281212,0.01851,0.174432,1.18095,-0.0446573,-0.223468,0.0832085,-0.0787239,-0.47309,
17,-18.1513,-11.2654,25.4308,39.3981,63.5374,1.37902,4.89824,-0.0940237,0.334686,0.049349,-2.38908,0.242932,1.18473,-0.0689731,0.6245,0.0064976,0.010834,0.04176,0.069983,-0.00677004,0.242054,1.16619,-0.0665239,0.0232799,0.0881315,-0.0841038,-0.297092,
18,-5.98587,-12.9422,-2.99835,58.4009,-79.1509,-6.09469,6.41528,-0.09764,0.337425,0.0541967,-2.38388,0.266137,1.18408,-0.0596728,0.627002,0.00543179,0.0149499,-0.182162,0.166517,0.247419,0.265151,1.16878,-0.0195699,0.476883,0.0921122,-0.0369391,0.144761,
19,-29.0268,-34.9198,24.6909,28.0024,13.3986,0.23162,0.851723,-0.0988965,0.340876,0.0534576,-2.37515,0.24512,1.1688,-0.0465307,0.628481,0.00475153,0.0156397,-0.0641987,0.178159,-0.0407136,0.444694,-1.22408,-0.775115,0.641841,0.0413836,-0.0171438,-0.0429671,
20,-63.7353,-31.5363,73.2885,28.0749,37.981,1.29503,0.715302,-0.103873,0.341627,0.0589255,-2.37217,0.264622,1.16538,-0.0454393,0.629101,0.00451821,0.0155798,-0.259238,-0.00464397,0.267782,0.117434,1.14167,-0.19907,0.0727137,0.0350399,-0.0132036,0.102402,
21,12.314,-40.85,-25.3288,33.6987,58.0064,0.726422,-6.5339,-0.116748,0.341825,0.0730609,-2.36985,0.288069,1.1636,-0.0442518,0.630683,0.00490596,0.0246984,-0.643837,0.010996,0.718231,0.122528,1.1688,-0.076494,0.0621729,0.0781401,0.0125999,0.345533,
22,-89.3076,-12.5474,114.64,33.2844,51.913,2.92637,7.84931,-0.113619,0.341002,0.0689243,-2.36675,0.310796,1.15966,-0.0573036,0.632032,0.00451714,0.0253773,0.154973,-0.0583016,-0.233102,0.162362,1.14368,-0.169224,-0.663185,0.0655177,-0.0332779,-0.039675,
23,-27.3457,-28.3275,50.0445,14.9132,144.189,1.98218,-0.252981,-0.130466,0.34275,0.0860896,-2.36304,0.333534,1.16142,-0.0427481,0.636885,0.00516459,0.0463425,-0.858165,0.144753,0.872151,0.207947,1.169,0.154107,0.784378,0.189832,0.0390862,0.537806,
24,10.8875,-29.8346,-11.7178,57.0645,-43.4055,0.857885,0.0344811,-0.137762,0.343649,0.0945078,-2.36191,0.358348,1.16366,-0.0430114,0.639604,0.00613826,0.0474325,-0.331153,0.0250307,0.437409,0.0183221,1.2167,0.0746051,-0.0238229,0.0949652,0.057051,-0.370216,
25,1.34584,-28.6028,1.56734,61.2573,-98.9522,0.829489,-0.296092,-0.136147,0.345253,0.091636,-2.3555,0.337723,1.15851,-0.0422933,0.640613,0.00751147,0.0303255,0.0916566,0.0764909,-0.144462,0.378584,-1.21483,-0.155772,0.00466677,0.0159684,0.0788205,-1.25229,
26,5.97342,-33.543,1.57177,40.4337,56.534,1.00909,-2.89207,-0.136234,0.346699,0.091328,-2.34698,0.313296,1.15557,-0.0430099,0.640476,0.00921353,0.00122611,0.00116476,0.0610034,-0.00659791,0.438614,-1.23418,-0.154763,-0.0483274,0.00664127,0.0703113,-0.913352,
27,37.664,-28.5778,-29.6761,45.8615,57.5623,1.52289,-5.26389,-0.134599,0.346568,0.0919009,-2.34152,0.332387,1.15468,-0.0497569,0.641375,0.00991463,-0.00138401,0.0808427,-0.0182281,0.0250933,0.25107,1.14909,-0.102834,-0.307252,0.0644784,0.0181439,0.262349,
28,-14.7224,-21.7607,13.4398,56.521,10.1835,1.13939,6.117,-0.127037,0.346741,0.0860151,-2.33559,0.35558,1.15325,-0.0606601,0.642767,0.00993307,0.00403802,0.382525,0.0224571,-0.300608,0.303303,1.16182,-0.0510349,-0.543688,0.0797437,-0.00304035,0.352087,
29,-21.404,-30.9058,20.9701,48.4111,14.1985,-1.78129,5.81772,-0.128826,0.348009,0.0893316,-2.32817,0.374236,1.1497,-0.0500671,0.647782,0.00957097,0.0233671,-0.107753,0.0918761,0.161104,0.40276,0.960023,-0.107275,0.596234,0.230134,-0.0274438,0.747731,
30,-2.51309,-33.4673,-5.15664,56.2116,-12.3075,-3.51547,-3.62385,-0.132553,0.348678,0.0937591,-2.32123,0.397046,1.14342,-0.0386014,0.651339,0.00917196,0.0300747,-0.196488,0.0170806,0.215066,0.329938,1.15972,-0.367791,0.571731,0.149731,-0.0174883,0.140221,
31,38.6209,-34.5053,-41.7988,41.2249,52.6227,0.710304,-0.225337,-0.133493,0.348839,0.0922115,-2.3132,0.376967,1.132,-0.0449759,0.65314,0.00891619,0.0164486,-0.0419996,0.00186689,-0.0774188,0.40308,-1.21247,-0.527796,-0.361599,0.0462792,-0.00571553,-1.04736,
32,-91.4058,-34.4181,123.156,43.2378,32.8532,4.09251,2.1187,-0.125695,0.348292,0.0840039,-2.30774,0.396425,1.13017,-0.0461306,0.653495,0.00889875,0.000114879,0.397613,-0.0271018,-0.417399,0.2639,1.16743,-0.0911755,-0.023012,0.0072902,0.000470323,-0.433007,
33,-6.07644,-23.1434,5.07127,31.5459,15.6389,1.32064,-1.49921,-0.141873,0.348366,0.101533,-2.30282,0.41924,1.13389,-0.042123,0.65461,0.00870245,0.0052047,-0.840204,0.000300909,0.884353,0.255462,1.13786,0.181067,0.201994,0.0876062,-0.0165586,0.627174,
34,67.1171,-31.8677,-74.0836,44.6915,13.5973,0.704688,1.24584,-0.143454,0.348607,0.102519,-2.29846,0.442851,1.134,-0.0451179,0.656536,0.00858439,0.0135958,-0.0641513,0.0393613,0.0376448,0.191593,1.1727,0.000836738,-0.155258,0.092125,-0.0135173,0.207112,
35,-61.8328,-25.2345,78.1895,50.1971,184.807,-0.794969,-0.981403,-0.130389,0.34919,0.0875999,-2.29332,0.466118,1.13007,-0.0428458,0.658815,0.00762862,0.0208714,0.667585,0.0303338,-0.754809,0.267471,1.17199,-0.156993,0.120421,0.115644,-0.0514093,0.250509,
36,-9.29863,-34.1452,9.40714,43.093,21.2628,0.155287,-0.0881923,-0.143259,0.350992,0.101616,-2.28757,0.489428,1.12417,-0.0448405,0.666941,0.0105336,0.0336455,-0.649556,0.100259,0.74189,0.325847,1.19829,-0.260446,-0.0971122,0.381927,0.159531,0.27122,
37,11.077,-29.7163,-10.499,38.1702,31.5287,0.163572,-0.14458,-0.145011,0.35156,0.103721,-2.28214,0.51296,1.12011,-0.0450382,0.674199,0.0140487,0.0350498,-0.0827535,0.00902342,0.091497,0.261747,1.17591,-0.169944,-0.00881123,0.349539,0.190032,-0.293957,
38,18.3305,-34.0033,-15.7259,43.3994,65.0761,1.06333,-0.0258676,-0.142895,0.35178,0.101444,-2.27732,0.536645,1.11738,-0.0453292,0.680928,0.0182577,0.0258975,0.109446,0.0174058,-0.116811,0.233915,1.18373,-0.129575,-0.0145249,0.326848,0.228177,-0.890681,
39,25.4774,-27.1358,-12.9307,28.937,14.3441,5.18033,-0.114802,-0.139429,0.352038,0.0979309,-2.2722,0.560412,1.11567,-0.0453741,0.687295,0.0232669,0.00631003,0.177233,0.00716436,-0.173724,0.264677,1.18775,-0.0671618,-0.00223443,0.313298,0.267576,-1.5212,
40,-24.267,-24.8872,46.5049,18.8026,16.6081,11.2241,-0.767282,-0.13501,0.352417,0.0946117,-2.26884,0.584707,1.12296,-0.0455985,0.692119,0.0276438,-0.00593802,0.232832,0.0313311,-0.158467,0.150201,1.19874,0.397138,-0.0112364,0.167304,0.160804,-0.14755,
41,-0.441863,-55.0894,-13.0846,38.039,14.6612,-16.2023,-0.869624,-0.140086,0.35353,0.103263,-2.26777,0.608979,1.14216,-0.0471135,0.694416,0.0297564,-0.00017624,-0.253896,0.0641841,0.444969,0.0424376,1.19516,0.985959,-0.0766965,0.0803906,0.0662888,0.303978,
42,-26.7445,-33.8875,32.9642,47.745,13.1289,0.922357,-5.00341,-0.139007,0.351382,0.101424,-2.2639,0.631085,1.11875,-0.0488833,0.695412,0.030404,0.00470383,0.0305316,-0.164731,-0.111946,0.193382,1.16681,-1.40801,-0.0876725,0.0288431,0.0107037,0.169205,
43,-5.38519,-44.5796,-8.04746,35.608,-18.3551,-5.45505,1.95063,-0.144457,0.350867,0.107631,-2.25868,0.655558,1.11371,-0.0587367,0.695683,0.0303326,0.0057649,-0.268498,0.00359962,0.317744,0.301574,1.19323,-0.0878866,-0.499797,0.00461275,-0.0114079,0.0540266,
44,26.0376,-36.0436,-31.5193,44.772,21.7356,0.678079,-1.88348,-0.145645,0.349034,0.105826,-2.25402,0.635053,1.10036,-0.0544578,0.695667,0.030033,0.0051412,-0.0602495,-0.112634,-0.0969505,0.200893,-1.20652,-0.689572,0.195174,-0.00384785,-0.0163686,0.00585403,
45,-14.7275,-17.9706,21.2875,41.9239,7.48571,3.85541,-1.71699,-0.140247,0.34812,0.0996972,-2.24894,0.654912,1.09729,-0.0586876,0.695562,0.0297166,0.00407051,0.276217,-0.0270699,-0.311312,0.280225,1.17846,-0.102673,-0.188687,-0.00577984,-0.0148684,-0.0108475,
46,18.9006,-48.9953,50.1915,8.38984,51.9999,-7.03471,-4.77414,-0.143371,0.349548,0.103395,-2.24325,0.670681,1.10232,-0.0620195,0.695449,0.0294536,0.00304908,-0.157225,0.106313,0.194632,0.284117,0.743139,0.274371,-0.171889,-0.0053212,-0.0116838,-0.0141768,
47,53.1564,-74.4377,-130.438,52.2233,-23.6341,-38.958,7.0352,-0.144352,0.347352,0.108839,-2.24292,0.695904,1.09241,-0.071602,0.695355,0.0292543,0.00222229,0.0150995,-0.160398,0.334013,-0.0552676,1.28617,-0.707423,-0.474841,-0.00423965,-0.00863828,-0.0127483,
48,12.7295,-30.481,-16.4739,34.6038,-7.52744,1.38799,-0.694871,-0.130917,0.342697,0.0940716,-2.23858,0.6738,1.06006,-0.057243,0.695282,0.0291092,0.00159745,0.635712,-0.282554,-0.788558,0.274299,-1.26395,-1.53065,0.702929,-0.00317811,-0.00621627,-0.0101405,
49,-11.6501,-30.2182,12.7148,38.2624,14.978,0.568731,-0.124447,-0.127805,0.340541,0.0910017,-2.23426,0.658227,1.0577,-0.0585243,0.695228,0.0290056,0.00114019,0.148673,-0.0447789,-0.153175,0.219348,-0.778418,0.0225018,-0.0704549,-0.00231499,-0.00442156,-0.00763725,
50,38.5144,-33.0089,-36.302,32.9356,25.201,0.874523,-8.78402,-0.12921,0.340371,0.0940213,-2.22967,0.678054,1.05729,-0.0592867,0.695189,0.0289321,0.000810823,-0.0849495,0.00569581,0.146298,0.232589,1.16641,-0.0875869,-0.0136547,-0.00166286,-0.00313094,-0.00559696,
51,-40.1128,-17.373,44.678,48.9303,15.5257,0.915511,5.33575,-0.121682,0.340101,0.0867112,-2.22592,0.702066,1.05593,-0.0766115,0.695161,0.0288801,0.000575422,0.383942,-0.00971759,-0.372819,0.173437,1.18771,-0.046529,-0.878561,-0.00118633,-0.00221433,-0.00404305,
52,17.5533,-39.5931,-37.0088,43.2594,12.5997,-4.48521,-4.94229,-0.129008,0.342308,0.0956498,-2.21982,0.725092,1.05532,-0.0663544,0.695142,0.0288433,0.000407823,-0.383607,0.139664,0.453303,0.332058,1.17844,-0.0532166,0.532951,-0.000843662,-0.00156635,-0.0028979,
53,-8.72679,-25.1601,25.1001,40.8408,26.4387,6.48749,-7.22618,-0.124545,0.342486,0.0892136,-2.21444,0.748421,1.04324,-0.0759612,0.695128,0.0288172,0.000288709,0.212891,-0.0266242,-0.346668,0.248764,1.16951,-0.634482,-0.494758,-0.000599153,-0.00110875,-0.00206836,
54,-4.41781,-34.6337,9.39511,12.9139,119.239,4.84948,13.8946,-0.127396,0.343644,0.0929559,-2.20989,0.773298,1.05163,-0.0903221,0.695118,0.0287988,0.000204115,-0.125101,0.0790791,0.208261,0.242456,1.21284,0.530581,-0.721889,-0.000425311,-0.000785467,-0.00147295,
55,-86.9354,10.1658,102.812,92.6748,106.393,2.05987,24.3275,-0.128161,0.343163,0.094793,-2.20918,0.796186,1.06021,-0.0671037,0.695455,0.0284716,0.00261201,-0.0402313,-0.0384128,0.087453,-0.0188049,1.16298,0.375344,1.18813,0.0357558,-0.0244272,0.31826,
56,14.6224,-39.1289,-21.6029,44.7332,-46.7319,-1.43744,0.0286053,-0.14447,0.349778,0.112377,-2.19831,0.818067,1.05947,-0.0432785,0.701875,0.0295656,0.0369256,-0.833897,0.427835,0.890963,0.685673,1.17827,0.0178425,1.19953,0.314965,0.0651081,1.40627,
57,-9.90269,-4.46269,25.1518,46.9062,19.1476,3.00835,0.38306,-0.142815,0.351809,0.107257,-2.19176,0.798912,1.05301,-0.0423059,0.707448,0.0313853,0.0525217,0.106649,0.0169272,-0.263787,0.250606,-1.18065,-0.289178,0.0039574,0.24979,0.112546,0.295339,
58,-8.40406,-32.3318,10.2473,38.107,13.862,-0.235376,-0.150353,-0.145429,0.355287,0.111382,-2.18531,0.819183,1.05787,-0.0421266,0.711749,0.0341704,0.0491519,-0.120033,0.227132,0.22335,0.3391,1.20189,0.225704,0.0375202,0.18644,0.161049,-0.724033,
59,-7.39796,-30.7955,9.71068,39.8101,15.483,-0.832052,-0.0834606,-0.146708,0.357146,0.113531,-2.1809,0.842809,1.05528,-0.0424344,0.71475,0.0379016,0.0264912,-0.0718676,0.0530794,0.100845,0.195594,1.19162,-0.183204,-0.0153036,0.119046,0.206372,-1.7597,
60,-5.74539,-31.3574,4.30463,41.4051,14.3886,-2.03649,-0.116293,-0.148085,0.358149,0.115323,-2.17659,0.866704,1.05073,-0.042606,0.716111,0.0420235,-0.0116709,-0.0704124,0.0462793,0.0884307,0.220657,1.19767,-0.226686,-0.00849452,0.0308422,0.162652,-1.44875,
61,16.6713,-35.7435,-28.0068,47.532,-2.38109,-4.12719,-0.647995,-0.149009,0.358953,0.116149,-2.17187,0.890541,1.04398,-0.0428432,0.71652,0.0439683,-0.0239925,-0.0496832,0.0371373,0.0381154,0.238756,1.1963,-0.343768,-0.0119199,0.0164646,0.0551028,-0.202415,
62,-26.388,-16.5601,48.6359,45.9713,67.6964,7.12911,-2.32465,-0.145798,0.359361,0.11035,-2.16625,0.88824,1.03211,-0.0437692,0.716834,0.0444825,-0.0230647,0.163515,0.0121785,-0.294505,0.288351,-0.234691,-0.558612,-0.0645369,0.0153411,0.00840882,0.17437,
63,88.7198,-39.4351,-111.482,39.8802,-18.3644,-0.434923,0.0885965,-0.151782,0.361828,0.119026,-2.16049,0.910627,1.04319,-0.0487024,0.717128,0.0444478,-0.0188095,-0.288063,0.153062,0.453994,0.302655,1.21185,0.618084,-0.23274,0.0139824,-0.00721261,0.252569,
64,278.217,-40.5645,-341.074,110.767,-111.247,-8.25939,-15.7299,-0.135859,0.362089,0.100754,-2.15571,0.891118,1.03941,-0.0480048,0.717383,0.0442536,-0.0143712,0.825123,-0.0158773,-0.92079,0.212937,-1.17456,-0.157182,0.00963236,0.0117176,-0.0107293,0.232766,
65,-175.686,136.197,274.504,112.589,313.303,102.606,52.2676,-0.119437,0.363088,0.082111,-2.14454,0.867498,1.02039,-0.0715226,0.717779,0.0442669,-0.0100484,0.828968,0.0364929,-0.916805,0.633678,-1.17935,-1.02014,-1.19108,0.0352621,0.0211882,0.111723,
66,-1.29867,-36.3733,-11.5765,33.0174,-16.602,2.81982,-4.35607,-0.13353,0.376243,0.101588,-2.12841,0.884273,1.03911,-0.0491679,0.727155,0.0445849,0.0620549,-0.747739,0.901052,0.973929,0.865999,1.12377,1.15928,1.19501,0.412115,0.0223146,3.12245,
67,42.2843,-42.0789,-71.5703,56.2467,-82.1321,1.91532,-7.10848,-0.13371,0.382251,0.0994911,-2.12408,0.864309,1.04223,-0.0569049,0.73438,0.0453326,0.113212,-0.0108906,0.135487,-0.128684,0.0895522,-1.19799,0.0790926,-0.43477,0.323671,0.0506501,2.07342,
68,-39.9489,-1.21818,62.8738,31.5931,-17.6894,3.11591,-0.0819339,-0.124759,0.38414,0.0856257,-2.11883,0.840184,1.03996,-0.0709905,0.740038,0.0466977,0.146692,0.447068,0.054339,-0.706433,0.313692,-1.20996,-0.0498509,-0.709881,0.250523,0.0830464,1.19184,
69,89.9672,-53.0533,8.36608,1.2894,16.4191,-0.85116,0.607156,-0.134678,0.387659,0.0957467,-2.1141,0.816736,1.0477,-0.0714004,0.744283,0.0487332,0.163136,-0.481686,0.22964,0.548456,0.21209,-1.17145,0.312678,-0.00854632,0.181203,0.117259,0.348374,
70,-25.6125,-32.9872,16.1187,102.446,67.7635,-6.69132,46.5528,-0.124291,0.386661,0.0915196,-2.11633,0.839573,1.04915,-0.0707745,0.747152,0.0514617,0.161983,0.623854,-0.121235,-0.143791,-0.173025,1.31398,-0.0577732,0.0635692,0.112585,0.152152,-0.502681,
71,-2.08488,-29.9652,5.26438,34.7734,12.0239,-1.2011,0.870907,-0.124654,0.388909,0.0980949,-2.1067,0.860894,1.02941,-0.0470408,0.748649,0.0548879,0.142379,-0.0922523,0.127068,0.290954,0.618752,1.123,-1.00618,1.19913,0.0439908,0.186882,-1.36652,
72,14.5081,-31.5616,-15.0296,34.508,12.1035,-0.596323,-0.0691522,-0.123702,0.389186,0.100379,-2.10124,0.884756,1.023,-0.0450314,0.748779,0.0589942,0.103427,0.0336036,0.00817115,0.0902002,0.204308,1.16918,-0.254996,0.0855904,-0.0240616,0.219993,-2.23722,
73,7.8451,-30.7015,-5.89166,35.078,9.54267,-0.552505,-0.0591757,-0.119992,0.389459,0.0979986,-2.0975,0.90837,1.01855,-0.045158,0.747552,0.0637187,0.0442013,0.177228,0.0223303,-0.132639,0.179378,1.18224,-0.200592,-0.00772151,-0.0923158,0.248382,-3.08652,
74,-24.6661,-28.7774,30.3278,31.941,13.4608,-0.543449,-0.0467724,-0.118124,0.39018,0.0968297,-2.09389,0.927686,1.01481,-0.0452313,0.745065,0.0683522,-0.0254564,0.0882388,0.0416097,-0.0608202,0.179311,0.948373,-0.182863,-0.00638157,-0.11264,0.17185,-2.09696,
75,9.03349,-24.5615,-8.59594,30.4774,1.07348,-0.552811,-0.0740367,-0.122627,0.391225,0.102834,-2.09077,0.951001,1.01196,-0.0454092,0.743778,0.0703642,-0.0483906,-0.23541,0.0565428,0.30212,0.151377,1.19373,-0.174653,-0.00542065,-0.0314615,0.0555837,-0.33108,
76,2.42834,-29.8885,-0.278523,32.1045,20.4536,-0.706685,-0.034055,-0.121163,0.392691,0.100883,-2.08777,0.955231,1.00775,-0.0452957,0.743651,0.0708326,-0.0471341,0.0825238,0.0878685,-0.102969,0.142167,0.11191,-0.158698,-0.00770464,0.00866276,0.00424302,0.284933,
77,36.3954,-34.0494,-42.4708,36.2579,21.9177,-0.954522,0.120718,-0.120439,0.394195,0.10072,-2.08501,0.977231,1.00451,-0.0456366,0.743993,0.0706955,-0.038886,0.0319919,0.0690074,-0.00750564,0.139632,1.19698,-0.196552,-0.0039649,0.0212337,-0.0127148,0.425524,
78,-17.3893,-17.3243,18.1323,51.9372,26.7313,-1.76857,0.966978,-0.113002,0.395194,0.0923752,-2.0817,1.00127,0.999167,-0.0453898,0.744437,0.0703939,-0.0299508,0.374549,0.0425617,-0.42615,0.171184,1.19937,-0.233376,0.0119359,0.0220464,-0.0158473,0.397546,
79,67.4042,-35.1033,-88.4529,35.0571,24.9259,-5.53805,-4.98274,-0.116031,0.398234,0.0958064,-2.07536,1.02498,0.994061,-0.0434941,0.744846,0.0700908,-0.022298,-0.16491,0.174868,0.178876,0.346425,1.19875,-0.290769,0.0960666,0.018831,-0.0142358,0.32352,
80,-8.47412,-14.3388,26.0207,31.3385,20.1199,10.5101,-1.69011,-0.102502,0.39912,0.0788038,-2.07127,1.049,0.980324,-0.0533841,0.745231,0.0698181,-0.0155405,0.685182,0.0222927,-0.870678,0.167416,1.1819,-0.65817,-0.507639,0.023327,-0.0138979,0.372593,
81,18.8103,-34.0048,-23.5718,35.0565,20.5007,-1.0441,0.41015,-0.104693,0.401972,0.0830849,-2.06875,1.07337,0.995714,-0.0567496,0.750097,0.0694208,0.00793933,-0.10153,0.185718,0.238075,0.151429,1.21546,0.963804,-0.169327,0.229117,-0.0335563,0.710832,
82,-14.7185,-10.2014,24.348,48.6444,18.4817,-1.28668,4.10209,-0.100645,0.40382,0.0784737,-2.06561,1.09688,0.993361,-0.0560133,0.753944,0.0681731,0.0262058,0.195692,0.0625865,-0.238616,0.152297,1.20515,-0.227117,0.0405982,0.157445,-0.0839012,0.662022,
83,4.55314,-31.0166,0.700908,30.5316,13.9584,0.722956,-6.04222,-0.103928,0.407658,0.0826242,-2.05958,1.12102,0.989904,-0.0479314,0.756094,0.066136,0.0270619,-0.1647,0.226486,0.220145,0.326667,1.21479,-0.199079,0.409444,0.0644035,-0.112238,0.0793436,
84,-39.6087,-24.3188,52.9673,38.2608,71.9416,0.0589675,0.96713,-0.103199,0.409792,0.0825998,-2.05663,1.14563,0.988699,-0.0597462,0.756378,0.0640707,0.00934718,0.0424708,0.0776246,-0.00580984,0.114741,1.20105,-0.0268598,-0.61064,-0.00597907,-0.0761352,-0.420889,
85,12.8802,-31.4121,-23.4535,33.8622,-21.8277,-1.48532,0.295351,-0.111063,0.412217,0.0926398,-2.05314,1.16836,0.988622,-0.0586924,0.758629,0.062514,0.0251085,-0.402218,0.128929,0.512303,0.196233,1.1883,-0.0573896,0.0822086,0.131972,-0.0569786,1.07885,
86,12.1099,-33.4891,-20.2081,38.9514,20.186,-2.62856,0.247506,-0.1087,0.413807,0.0880591,-2.05002,1.14901,0.981501,-0.0574666,0.761055,0.0621205,0.0301659,0.129326,0.0707689,-0.243453,0.149609,-1.18307,-0.257863,0.0295873,0.105986,0.0113954,-0.469543,
87,4.08595,-18.7269,3.84468,36.9865,37.3002,1.27421,2.97204,-0.105663,0.41503,0.0842207,-2.04619,1.16876,0.97538,-0.0575482,0.762653,0.0630089,0.0163676,0.14246,0.0515003,-0.193657,0.199613,1.20067,-0.375387,0.0238038,0.0529094,0.0555306,-1.11654,
88,31.9271,-29.8563,-42.4767,43.5493,27.6357,-4.05272,9.74263,-0.105281,0.417354,0.0844261,-2.04192,1.19323,0.976011,-0.0516991,0.763177,0.0637097,0.00665583,0.0256247,0.140482,0.0172574,0.213549,1.21734,0.0659571,0.296286,0.0114492,0.0209737,-0.3445,
89,-3.16182,-20.6425,13.6653,20.2279,13.554,3.4642,-7.82249,-0.0985874,0.419463,0.0761176,-2.0372,1.21645,0.96696,-0.0327869,0.763955,0.0636138,0.015196,0.330923,0.0938723,-0.425763,0.238069,1.17917,-0.481499,0.959461,0.0575614,-0.0213184,0.868127,
90,2.42032,-29.0176,2.30654,25.0445,-1.60445,-0.511858,-0.0792978,-0.0995942,0.421322,0.0783243,-2.03566,1.24236,0.969783,-0.0470571,0.767928,0.0663064,0.0182182,-0.0425231,0.113264,0.120537,0.0522489,1.21949,0.285402,-0.783167,0.17681,0.124238,-1.33496,
91,4.97311,-29.5025,2.3883,21.8954,17.1954,-0.485427,-0.43495,-0.0996185,0.423307,0.0782133,-2.03446,1.24173,0.967587,-0.0471388,0.770994,0.0683146,0.0167002,0.00390659,0.0940176,-0.00275258,0.0632041,-0.134046,-0.119997,-0.00829411,0.13555,0.0796239,-0.798261,
92,-16.2178,-27.7126,37.8981,15.5577,51.5607,-0.047213,-3.38954,-0.0986816,0.424865,0.0784306,-2.03352,1.26369,0.965884,-0.0483364,0.773306,0.0693438,0.0139329,0.0474346,0.0739578,0.0134503,0.0415939,1.21564,-0.120789,-0.0445803,0.0996552,0.0274164,-0.382011,
93,37.1112,-31.3605,-28.1124,36.259,104.355,-1.44188,-3.43154,-0.102557,0.426334,0.0851224,-2.03358,1.28824,0.965456,-0.0550699,0.774922,0.0692635,0.0101492,-0.189635,0.0772051,0.346807,-0.0126819,1.22772,-0.0477122,-0.339998,0.0655957,-0.0304121,-0.0166328,
94,-100.383,-4.9458,154.509,78.573,18.8297,2.35472,1.29654,-0.0955938,0.428377,0.0792999,-2.03103,1.31306,0.960141,-0.0618939,0.775876,0.0679865,0.0054908,0.362254,0.0983907,-0.297543,0.158127,1.22856,-0.222332,-0.343322,0.0334475,-0.0915029,0.336931,
95,-3.59796,-28.6439,9.86701,25.2818,13.5418,-0.586894,0.470597,-0.110268,0.434657,0.0980176,-2.02086,1.33646,0.962778,-0.0594639,0.776222,0.0654773,0.000239761,-0.783109,0.345414,0.932742,0.586601,1.19051,0.0861672,0.128477,0.00472146,-0.15308,0.704738,
96,3.66869,-28.7186,4.8061,22.8757,13.1893,0.625378,-1.96085,-0.111752,0.436744,0.0996898,-2.01736,1.36105,0.959756,-0.0582842,0.776476,0.0622335,-0.00151018,-0.0553802,0.0687521,0.0720822,0.0832816,1.23659,-0.1166,0.0672043,0.0419077,-0.143039,0.980858,
97,1.79579,-24.9256,4.53297,28.7571,13.35,-0.149679,-1.12328,-0.111532,0.438151,0.100093,-2.01622,1.38599,0.959385,-0.061872,0.777867,0.0603303,0.00238977,0.0201584,0.0760222,0.0227228,0.0503552,1.20977,0.0309329,-0.209583,0.0644991,-0.0678502,0.494029,
98,-11.2714,-25.2819,18.2155,21.3992,13.7524,-1.71025,-3.29664,-0.111274,0.44032,0.100647,-2.01426,1.40988,0.958747,-0.0645151,0.779331,0.0592001,0.0121956,0.0126698,0.1171,0.0289443,0.106776,1.2026,-0.0479282,-0.126964,0.0721513,-0.0444237,0.650193,
99,-12.7106,-25.0338,16.6961,36.451,22.2582,-0.0726827,3.00545,-0.11354,0.442394,0.103934,-2.0132,1.43403,0.955277,-0.0711539,0.780877,0.0587999,0.0186618,-0.116426,0.106472,0.167012,0.0408449,1.20544,-0.196269,-0.341796,0.0729855,-0.0118038,0.313782,
100,29.3425,-28.0365,-36.3973,29.6147,28.0365,-0.159548,-0.0585193,-0.115781,0.445314,0.107277,-2.01039,1.45778,0.953813,-0.0657768,0.783234,0.0578602,0.0214424,-0.114255,0.148498,0.165151,0.167279,1.21104,-0.0593108,0.289321,0.129039,-0.0476591,0.547331,
101,10.1925,-27.7437,-10.8146,42.6899,44.9214,-0.267405,0.0316245,-0.109715,0.447436,0.100299,-2.00793,1.48232,0.951187,-0.065916,0.785953,0.057105,0.0242675,0.309642,0.100045,-0.361032,0.112695,1.21051,-0.0714152,-0.016481,0.145715,-0.0341092,0.351123,
102,82.6469,-39.6688,-64.6996,54.3178,13.5445,-0.255802,-0.72156,-0.10752,0.450086,0.097874,-2.00385,1.50692,0.950072,-0.0658861,0.789223,0.0569463,0.0316482,0.103932,0.1294,-0.117368,0.228997,1.23581,-0.0719605,0.00228933,0.160236,0.0216747,-0.329511,
103,-24.4558,-12.0772,33.7202,74.2473,19.777,-2.87389,4.71927,-0.093423,0.451844,0.0831302,-1.9979,1.53296,0.948866,-0.067266,0.792239,0.0582,0.0259269,0.745915,0.0608956,-0.724995,0.319806,1.27401,-0.000534369,-0.0722311,0.139687,0.0975887,-1.36088,
104,3.93048,-28.6396,-6.45928,29.7768,2.47076,-1.70879,3.59243,-0.0971787,0.456072,0.0898153,-1.98736,1.5568,0.945271,-0.0580704,0.794269,0.0603257,0.00867509,-0.222563,0.241833,0.346384,0.567682,1.22335,-0.330311,0.470136,0.0615835,0.0784086,-0.918736,
105,-1.50691,-27.488,4.36578,30.5995,16.3239,-0.254989,-0.0652484,-0.0960946,0.457591,0.0889603,-1.9831,1.56384,0.938965,-0.0506707,0.794899,0.061197,0.00227757,0.0584808,0.0580418,-0.0560427,0.142122,0.272077,-0.22248,0.357619,0.0142583,0.0210316,-0.2041,
106,-11.8981,-27.1261,15.2805,31.3033,17.6343,-0.347907,-0.190371,-0.0960048,0.459063,0.0899204,-1.98019,1.58675,0.937923,-0.0509518,0.794986,0.0613133,0.000350016,-0.00106664,0.0817358,0.0467928,0.139015,1.22723,-0.0621334,-0.00831395,-0.00105876,-0.00302738,0.0224485,
107,-9.37908,-27.9574,16.707,29.757,48.4904,-0.391772,-1.42771,-0.0980342,0.460936,0.0930091,-1.9774,1.61129,0.936758,-0.0513695,0.79491,0.061153,-0.000185777,-0.107734,0.0987928,0.153124,0.138245,1.2323,-0.0671015,-0.0206347,-0.00512133,-0.0105529,0.0804436,
108,54.1805,-37.0347,-81.3368,54.5192,53.2977,-3.20201,6.46806,-0.100057,0.462845,0.0960468,-1.97492,1.6361,0.935633,-0.0542222,0.794801,0.060927,-0.000288555,-0.0990183,0.0965052,0.153139,0.120285,1.24038,-0.0534265,-0.144335,-0.00540812,-0.0113301,0.0829121,
109,-25.2698,-8.74569,47.9447,77.8366,51.0481,2.04617,2.17163,-0.0882477,0.464898,0.0809269,-1.96935,1.66098,0.927002,-0.0414501,0.794701,0.0607156,-0.000264266,0.588878,0.0873449,-0.783032,0.319238,1.23533,-0.381029,0.646269,-0.00458064,-0.00977685,0.0695111,
110,-0.420686,-26.6821,5.94119,24.3847,0.914458,-0.899417,0.820012,-0.0941791,0.469997,0.088927,-1.95816,1.68622,0.933045,-0.0370722,0.794621,0.0605426,-0.000211209,-0.299449,0.284964,0.431282,0.601344,1.25528,0.242168,0.215291,-0.00357023,-0.00772141,0.0538667,
111,0.185723,-27.7917,2.90472,25.9399,13.5034,-0.46366,-0.00366904,-0.0948605,0.471768,0.0897621,-1.95467,1.69109,0.929937,-0.0347724,0.794932,0.060708,-0.00366612,-0.0212387,0.0697022,0.0382484,0.0943437,0.136105,-0.0975883,0.0801235,0.0128318,0.0060748,-0.13099,
112,3.8185,-28.2878,-5.1273,24.8082,16.0536,-1.35643,1.12496,-0.0945455,0.47326,0.0903704,-1.95277,1.71303,0.928843,-0.0355503,0.795937,0.0603913,0.00199764,0.0135122,0.0819893,0.0296613,0.0900639,1.20849,-0.0628251,-0.0202221,0.0525144,-0.0244255,0.530176,
113,-2.79413,-22.5191,12.5156,32.1173,14.8618,3.69615,-3.82266,-0.0934253,0.474929,0.0894932,-1.95123,1.73727,0.925762,-0.0336447,0.797154,0.0599759,0.00289657,0.0523107,0.0883771,-0.0478087,0.0733496,1.22892,-0.157892,0.104325,0.0680648,-0.00439704,-0.215487,
114,2.08031,-25.5577,-1.07539,30.4866,22.5274,-0.824641,-1.84597,-0.0941072,0.477669,0.0917404,-1.94842,1.76254,0.932174,-0.0411762,0.798391,0.0601376,-0.00486516,-0.0306631,0.147469,0.114391,0.147492,1.24677,0.369567,-0.384034,0.0432893,0.00875785,-0.254593,
115,17.8316,-29.522,-26.8586,27.0613,2.70196,-3.03391,0.701786,-0.0934765,0.480329,0.0915025,-1.94595,1.78718,0.9314,-0.0449679,0.798941,0.0602575,-0.00574881,0.0267716,0.132035,-0.0147982,0.122623,1.2457,-0.0821728,-0.186449,0.0183802,0.00391827,-0.0282754,
116,-12.6378,-20.4059,22.9447,5.57588,32.1421,4.21969,-1.53207,-0.0898284,0.482504,0.0861942,-1.94432,1.79514,0.924849,-0.043472,0.799198,0.0602988,-0.00477318,0.183878,0.10342,-0.272177,0.0819107,0.311953,-0.309216,0.0622773,0.0102195,0.000514302,0.03514,
117,-8.03623,-27.9256,6.85775,34.1543,17.6729,-0.703763,-1.57974,-0.0923665,0.484088,0.0904967,-1.94501,1.8176,0.930897,-0.0472594,0.799959,0.0595727,-0.00208056,-0.12435,0.092915,0.225915,-0.0726417,1.20794,0.373575,-0.181085,0.0378148,-0.04567,0.341854,
118,11.4285,-28.8974,-19.9676,32.544,-14.7061,-0.595394,-0.73207,-0.0934039,0.487045,0.0921212,-1.9432,1.84206,0.930688,-0.0507985,0.800989,0.0588773,0.00333225,-0.0609783,0.14759,0.0744807,0.132347,1.2239,-0.0733847,-0.178024,0.060627,-0.0335672,0.416774,
119,11.5882,-25.3259,-21.4307,38.3719,-3.41904,-0.673582,-0.285767,-0.0914204,0.489486,0.0881159,-1.94072,1.82562,0.926779,-0.0507128,0.801854,0.0595063,-0.0133186,0.109671,0.110738,-0.207173,0.138848,-1.09164,-0.113897,-0.0475792,0.042159,0.0448689,-0.853391,
120,-15.0224,-29.548,8.56501,32.2238,35.702,-0.950211,1.05667,-0.0887729,0.492043,0.0839385,-1.93682,1.81786,0.925098,-0.0517326,0.803124,0.0596484,-0.0110572,0.129774,0.12958,-0.209352,0.20363,-0.290034,-0.0932395,-0.022006,0.0518244,-0.00147756,0.106175,
121,-19.2227,-30.6505,11.0995,35.4715,-12.8763,-0.166615,0.0414746,-0.090816,0.493817,0.085982,-1.93366,1.83829,0.923309,-0.0508649,0.805675,0.0584143,0.00297264,-0.117182,0.0839277,0.104363,0.147053,1.21972,-0.108676,0.0939628,0.140174,-0.0729689,0.867618,
122,22.986,-42.2659,-58.9075,39.0975,25.6516,-0.83098,-0.714883,-0.094593,0.495743,0.0882448,-1.93063,1.82048,0.921375,-0.0498563,0.807944,0.0578118,-0.00601166,-0.186966,0.0979898,0.107136,0.165045,-1.14485,-0.0160751,0.00311349,0.0908163,-0.0175212,-0.492835,
123,-10.1548,-7.9093,28.9033,54.5242,22.0237,1.54683,0.151417,-0.0882615,0.49643,0.0780237,-1.92688,1.84094,0.918719,-0.0517829,0.809054,0.0574921,-0.00461865,0.302809,0.00999029,-0.537031,0.186819,1.2312,-0.127264,-0.0731542,0.0331093,-0.0163301,0.0522525,
124,12.4113,-22.6947,-9.61879,5.54653,-13.5946,-0.718928,0.811063,-0.0920906,0.500167,0.0817574,-1.9192,1.86621,0.924586,-0.0516073,0.809407,0.0571497,-0.00264702,-0.178883,0.23761,0.218466,0.403749,1.26167,0.233135,0.0124738,0.0084187,-0.0173469,0.153475,
125,-0.499464,-27.8073,4.35696,24.8038,18.2508,-0.686882,-0.21652,-0.0909755,0.502078,0.0789524,-1.91944,1.84735,0.921837,-0.0495007,0.809459,0.0568196,-0.00137952,0.0798334,0.095468,-0.137847,-0.0816404,-1.14487,-0.0425013,0.078978,-0.000681306,-0.0154708,0.138224,
126,4.22186,-29.5033,-6.07259,21.6944,14.1376,-2.05819,-0.455153,-0.0907965,0.504477,0.079656,-1.91857,1.86683,0.921868,-0.0512173,0.811052,0.0556524,0.00901805,0.00288295,0.120325,0.0417332,0.0611142,1.23337,-0.0512426,-0.0286017,0.0832415,-0.0546035,0.834016,
127,6.74453,-31.6585,-7.96754,18.2561,-13.9207,-1.18398,-0.363801,-0.0896276,0.506551,0.0785979,-1.91786,1.8916,0.917927,-0.0522185,0.812697,0.0550832,0.00580852,0.0552512,0.100502,-0.0568765,0.0331669,1.23851,-0.20589,-0.0540966,0.0909182,-0.011578,-0.369503,
128,6.04964,-23.6696,0.927299,33.791,25.5783,0.315645,1.00637,-0.0887632,0.508411,0.0766535,-1.91809,1.87344,0.914493,-0.0523538,0.814295,0.0552879,-0.0108876,0.0526066,0.0909036,-0.0986713,-0.00599157,-1.13889,-0.0915516,-0.0377686,0.0582856,0.011896,-0.613605,
129,5.16346,-23.4013,2.53771,31.7545,24.0133,-0.377005,3.12184,-0.0875684,0.511317,0.076527,-1.91516,1.89416,0.916911,-0.0509669,0.815043,0.0554098,-0.0133323,0.0574968,0.15216,-0.000732443,0.158946,1.24829,0.0604835,0.0981768,0.0254933,0.00171716,-0.0521935,
130,11.3115,-20.7264,-9.48309,30.5879,0.93806,-4.25037,5.51088,-0.0866583,0.514333,0.0767682,-1.91228,1.91909,0.916881,-0.0448337,0.815403,0.0553731,-0.0113949,0.0460524,0.152951,0.0139304,0.141185,1.25285,-0.0108669,0.310036,0.0135256,-0.00399841,0.0956958,
131,11.0851,-26.0905,-4.92189,15.7137,-16.393,1.88303,-6.26733,-0.0846851,0.517736,0.0745648,-1.90981,1.92394,0.90934,-0.0336694,0.81561,0.0552691,-0.00879611,0.101699,0.179446,-0.110762,0.128983,0.149283,-0.391089,0.549093,0.0082861,-0.00574724,0.116469,
132,16.9098,-25.1364,-28.0201,-21.2484,13.9464,2.01508,2.51037,-0.083022,0.520233,0.0732586,-1.90961,1.90484,0.910392,-0.0449325,0.815996,0.0553158,-0.00895465,0.094345,0.111137,-0.0631079,-0.00922152,-1.06707,0.140576,-0.579248,0.038943,0.0157051,-0.345663,
133,31.0137,-30.9835,-26.0896,32.5681,6.53295,-1.44759,-0.772108,-0.0781617,0.520612,0.0687317,-1.91477,1.92229,0.913354,-0.0422828,0.819415,0.052648,0.0107485,0.228571,0.0328495,-0.235923,-0.325651,1.21079,0.153129,0.247665,0.186925,-0.145891,1.49064,
134,40.4909,-25.4912,-36.8308,40.5675,28.8448,-0.988738,0.26439,-0.0726371,0.523933,0.0628426,-1.91445,1.93827,0.913168,-0.0436242,0.8233,0.0502398,0.022613,0.281968,0.168562,-0.290702,0.0944863,0.728035,-0.0704549,-0.0787189,0.199522,-0.0957275,0.381782,
135,-17.561,-10.2956,60.4739,78.2716,12.3014,1.46853,1.51956,-0.0649142,0.52761,0.0551288,-1.91069,1.96271,0.91239,-0.0432684,0.827398,0.049039,0.0233519,0.391343,0.176255,-0.383852,0.20625,1.26165,-0.0512402,0.024453,0.208993,-0.0293946,-0.605711,
136,5.79214,-30.9507,-4.74769,27.7832,-16.4228,-0.247021,0.064542,-0.0698726,0.534007,0.0652804,-1.90027,1.98838,0.919597,-0.040388,0.831654,0.0492532,0.0127872,-0.244987,0.333495,0.541294,0.577843,1.27872,0.255852,0.149338,0.214937,0.0447057,-1.57786,
137,1.82894,-27.7237,2.7079,29.4608,-12.832,-0.174726,0.000429108,-0.0681967,0.536613,0.0651674,-1.89721,1.96955,0.916216,-0.0396673,0.835237,0.0505231,-0.00286738,0.0885465,0.0971269,-0.0266898,0.0993883,-1.14898,-0.0359794,0.00490928,0.122103,0.0486187,-0.821731,
138,8.63487,-37.7076,-6.21051,9.78524,-19.3564,-0.312057,-0.0291562,-0.0675139,0.538841,0.0658137,-1.89488,1.94654,0.916268,-0.0397106,0.836685,0.0510362,-0.00502227,0.0291593,0.115562,0.0304217,0.118259,-1.15027,-0.000411976,-0.00205254,0.0413303,0.0101195,-0.068937,
139,-1.64631,-28.3255,8.04755,28.2365,6.07275,-0.355707,-0.0297809,-0.0656772,0.539426,0.0646253,-1.89581,1.92336,0.915307,-0.0398148,0.837098,0.0510141,-0.00418412,0.0926488,0.015905,-0.062136,-0.0757039,-1.15089,-0.0188012,-0.00506366,0.00876391,-0.00753548,0.132969,
140,2.12865,-29.5043,2.153,29.4003,16.6534,-0.331865,-0.0635847,-0.0654628,0.541258,0.0663326,-1.89401,1.93311,0.916422,-0.0403406,0.837134,0.0507965,-0.00308936,-0.000723421,0.105435,0.0870749,0.106804,0.651278,-0.0178999,-0.00549006,-0.00207097,-0.012414,0.165151,
141,-0.543406,-28.1838,7.61277,28.6457,18.3544,-0.327496,0.123961,-0.0645975,0.543329,0.0670115,-1.89167,1.95696,0.916133,-0.0406415,0.837054,0.050547,-0.00220538,0.038261,0.102942,0.0295653,0.115795,1.24805,-0.019822,-0.00861006,-0.00489639,-0.0120866,0.145803,
142,1.6814,-31.3824,6.09524,21.238,-7.15344,0.00225083,-1.04512,-0.0645892,0.545485,0.0684783,-1.8894,1.98195,0.916014,-0.0404501,0.836953,0.0503263,-0.00156142,-0.00184844,0.110774,0.0732917,0.111501,1.25264,-0.00699484,0.0101144,-0.00492245,-0.0100736,0.115406,
143,8.84461,-33.2136,-5.82608,19.5764,-20.7935,-0.408107,-0.0575039,-0.0647639,0.547335,0.0693186,-1.88873,1.97246,0.915628,-0.0421061,0.836863,0.0501497,-0.00110502,0.00029092,0.0909551,0.0419142,0.0314529,-0.652581,0.039422,-0.106365,-0.00411621,-0.00782906,0.0870347,
144,-4.07786,-31.3412,11.3508,21.9325,-6.2087,-0.38301,-0.0704412,-0.0632161,0.548938,0.0679634,-1.88851,1.95055,0.915141,-0.042169,0.836791,0.0500153,-0.00078323,0.0820077,0.0770361,-0.0694901,0.0122699,-1.14256,-0.00785038,-0.00780425,-0.00319388,-0.0058668,0.0640467,
145,-1.42544,-32.6719,6.78817,23.4851,-8.17983,-0.317968,-0.215583,-0.0639792,0.550663,0.0699709,-1.88773,1.93804,0.915687,-0.0425065,0.836736,0.0499158,-0.000556061,-0.0426093,0.0872834,0.105433,0.0400474,-0.568721,-0.00782055,-0.0093739,-0.00238832,-0.00430748,0.0465031,
146,-48.1272,-26.6279,82.7837,30.811,14.2349,0.0319027,-1.72216,-0.0642674,0.55239,0.0712407,-1.88679,1.92317,0.915401,-0.0429241,0.836696,0.0498432,-0.000395283,-0.0134823,0.084055,0.0617919,0.0505094,-0.764077,-0.00681415,-0.0235966,-0.00175056,-0.00312525,0.0335083,
147,37.3315,-26.1022,-79.9012,63.4228,-49.809,-10.1902,9.99438,-0.0742626,0.554791,0.0866347,-1.88413,1.94427,0.919152,-0.0469252,0.836666,0.0497908,-0.000281238,-0.509706,0.126689,0.795311,0.133594,1.25522,0.0611951,-0.175377,-0.00126859,-0.00225157,0.0240379,
148,0.652522,-21.8813,9.47683,37.1783,-14.5529,2.99118,-3.04576,-0.0649596,0.558987,0.0730394,-1.87737,1.92595,0.89731,-0.0265893,0.836645,0.0497531,-0.000200198,0.460178,0.215336,-0.737072,0.411248,-1.1548,-1.05017,0.99854,-0.000913465,-0.0016157,0.0172045,
149,2.66963,-26.01,6.52905,24.4693,-21.5027,-0.640523,-0.291463,-0.0656972,0.562055,0.0738249,-1.87209,1.90342,0.901623,-0.0324035,0.836629,0.0497261,-0.000142516,-0.027694,0.146717,0.0612847,0.217516,-1.14598,0.334913,-0.306943,-0.000655516,-0.00115708,0.0123021,
150,3.46663,-26.7821,3.43744,24.6999,-14.4505,-0.411948,-0.21272,-0.0658461,0.564288,0.0743868,-1.87003,1.88013,0.901874,-0.0331364,0.836619,0.0497067,-0.000101402,-0.00144106,0.115569,0.0354775,0.0820605,-1.1487,-0.0235341,-0.0316619,-0.000469594,-0.000827883,0.00879455,
151,-0.648991,-27.5389,6.04785,25.5042,3.84702,-0.142727,-0.120455,-0.0654246,0.566715,0.0747309,-1.8685,1.85714,0.901517,-0.0336059,0.836611,0.0496929,-7.20652e-05,0.0247637,0.12581,0.0188647,0.073882,-1.15138,-0.0162591,-0.0234688,-0.000336133,-0.000592156,0.00628753,
152,0.396759,-28.9644,0.969857,26.3074,-1.00366,0.189453,-0.00404242,-0.0650639,0.569136,0.0760445,-1.86676,1.86264,0.902152,-0.0342611,0.836605,0.049683,-5.11126e-05,0.0101239,0.120991,0.065705,0.0804704,0.423822,-0.00684966,-0.0145275,-0.000240526,-0.000423539,0.00449609,
153,-4.4127,-30.6634,2.65299,25.9727,-1.20516,0.58907,0.120236,-0.0646064,0.571569,0.0764508,-1.86519,1.86244,0.902184,-0.0341962,0.836601,0.0496759,-3.61383e-05,0.0198061,0.121207,0.0144715,0.0805797,-0.0554581,0.024197,-0.00235475,-0.000172101,-0.000302968,0.00321582,
154,0.713477,-32.1274,-6.60711,26.5992,-6.77177,0.552592,0.0886037,-0.064918,0.573817,0.0772513,-1.8637,1.86088,0.903289,-0.0339973,0.836598,0.0496709,-2.54343e-05,-0.0226908,0.108516,0.0354171,0.0751895,-0.0774612,0.0611646,0.00999149,-0.000123046,-0.000216575,0.00229817,
155,32.6995,-34.7612,-47.4904,24.2464,19.5639,0.331374,8.95474e-05,-0.0644494,0.575883,0.0761312,-1.86222,1.84934,0.904016,-0.0337199,0.836596,0.0496673,-1.78044e-05,0.0216089,0.0995902,-0.0626574,0.0785369,-0.630895,0.0608053,0.00698383,-8.76049e-05,-0.000154179,0.00163421,
156,33.8981,-31.0811,-45.8265,23.1392,-5.26341,0.263306,-0.0482973,-0.0573349,0.577209,0.0671784,-1.86082,1.8704,0.904461,-0.0343514,0.836865,0.0493978,0.00260739,0.356821,0.0593561,-0.457527,0.058165,1.20689,0.020348,-0.0172648,0.031142,-0.0300988,0.369048,
157,14.1716,-25.076,-12.2654,41.7868,22.6421,0.256456,-0.0261688,-0.0508074,0.578834,0.0578614,-1.85986,1.86441,0.903809,-0.0337858,0.837813,0.0491907,0.00413161,0.332172,0.0898516,-0.466407,0.0537668,-0.466405,0.0150459,0.000221843,0.0509703,-0.00386667,-0.228672,
158,71.0752,-35.809,-95.0438,27.3485,8.96039,-0.0697382,-0.193877,-0.0479595,0.581942,0.0549693,-1.85573,1.88591,0.906296,-0.0342742,0.840007,0.0480705,0.0166802,0.135664,0.164925,-0.133054,0.232752,1.24812,0.0586078,-0.00515344,0.0765439,-0.0527177,0.179093,
159,-15.011,-21.299,36.2456,64.3315,147.054,0.161352,-0.113977,-0.0341101,0.583624,0.0379014,-1.85369,1.90562,0.904293,-0.0345235,0.840993,0.0470705,0.0116966,0.71281,0.0689393,-0.868683,0.0798495,0.932676,-0.00643562,-0.0201944,0.046721,-0.0550049,-0.14513,
160,-34.4014,-28.4444,50.9715,28.0434,46.6588,0.0156232,-0.263525,-0.0373034,0.58783,0.0439098,-1.84617,1.92942,0.908927,-0.0349619,0.843772,0.0453437,0.0167498,-0.179721,0.2306,0.333396,0.434268,1.24461,0.106557,-0.0154366,0.137013,-0.079033,0.63844,
161,8.54328,-18.4909,-11.2116,38.8785,-22.2977,-0.0275431,-0.211485,-0.0439332,0.59003,0.0540462,-1.84285,1.95372,0.90921,-0.035602,0.845611,0.0440166,0.0199039,-0.337588,0.0988788,0.511068,0.118446,1.24417,0.0147569,-0.0291361,0.0557144,-0.0509375,0.120343,
162,-3.54802,-29.0413,3.67292,26.9671,4.74055,0.0481996,-0.123698,-0.0424588,0.593711,0.0522526,-1.83893,1.93575,0.907192,-0.0354236,0.846118,0.0434857,0.0087765,0.0902806,0.207281,-0.111317,0.218828,-1.147,0.00833417,-0.0227741,0.0115882,-0.011471,-0.182724,
163,-1.23696,-30.4947,-0.0853058,25.9883,-4.38064,0.00340543,-0.120185,-0.0425529,0.596365,0.0531283,-1.8366,1.94239,0.90844,-0.0363501,0.846353,0.0432863,0.00537377,-0.0152023,0.118486,0.0475434,0.0899544,0.492861,0.0271552,-0.0284974,0.0156443,-0.0123647,0.059513,
164,-2.08838,-30.4708,0.893528,27.061,-1.62733,-0.0984548,-0.108011,-0.0427069,0.598674,0.0532149,-1.83515,1.93651,0.90803,-0.0362724,0.846691,0.0432823,0.00434331,-0.0066606,0.114328,0.000640095,0.0757493,-0.380162,0.0076845,-0.0107287,0.0150967,0.00515197,-0.138582,
165,1.12949,-30.6155,-2.24821,27.7626,18.454,-0.438075,-0.216118,-0.0429455,0.600954,0.0534211,-1.83341,1.93375,0.908421,-0.0365957,0.846879,0.0434061,0.0034668,-0.0145069,0.112566,0.00956075,0.0884529,-0.112736,0.0124334,-0.0131194,0.00600496,0.00644134,-0.0986207,
166,1.76763,-33.4684,-7.67352,21.1677,43.7106,-3.71732,0.539684,-0.0423323,0.603064,0.0530988,-1.83141,1.95551,0.908919,-0.0377185,0.847622,0.0429731,0.0101943,0.0261071,0.104502,-0.0163397,0.0956377,1.22084,-0.00775926,-0.0369434,0.0487127,-0.0331001,0.51153,
167,-29.0989,-20.878,49.2374,43.485,37.7464,8.69406,3.19099,-0.0415992,0.604672,0.0517055,-1.8307,1.97966,0.903024,-0.0370396,0.848848,0.0420614,0.0136099,0.03068,0.0793178,-0.0717065,0.0291464,1.22557,-0.328145,0.0385147,0.0691503,-0.0499131,0.489201,
168,32.7233,-21.9294,-49.382,48.7821,26.5164,-4.38693,13.8904,-0.0475364,0.608246,0.061246,-1.8259,2.00502,0.918671,-0.0308151,0.851491,0.0408329,0.0273897,-0.293334,0.194007,0.485682,0.263186,1.25639,0.897797,0.316618,0.127034,-0.0271129,-0.32956,
169,-167.951,27.3081,263.435,91.8628,125.089,17.9243,2.39397,-0.0406753,0.612394,0.0520653,-1.82039,2.02985,0.912014,-0.00707589,0.853545,0.04111,0.0197009,0.346816,0.212478,-0.481849,0.291155,1.22576,-0.401925,1.18754,0.0868203,0.0274401,-0.833781,
170,-65.8883,-56.4553,73.9531,-57.802,13.0099,-1.78072,4.04031,-0.054983,0.622384,0.0710094,-1.8062,2.055,0.93223,-0.00138279,0.858647,0.0416125,0.0126606,-0.760859,0.576286,0.95031,0.752348,1.21699,1.12894,0.236881,0.21911,0.00862007,-1.91369,
171,17.353,-29.9422,-14.0783,24.3136,-19.68,0.0481994,-0.0346173,-0.06853,0.620897,0.085262,-1.81697,2.07778,0.928043,0.00647254,0.86236,0.0412671,0.00214893,-0.674939,-0.167511,0.720398,-0.730885,1.25495,-0.160773,0.400815,0.16193,-0.0391471,-0.791185,
172,4.38055,-32.3639,-1.54195,24.0132,15.4254,0.0834884,-0.0747963,-0.0672979,0.623768,0.0816499,-1.81891,2.06204,0.92893,0.00722185,0.86513,0.0399258,-0.0059875,0.109838,0.181072,-0.200732,0.0238687,-1.10554,0.118554,-0.00542277,0.120951,-0.0903595,0.0365369,
173,1.61335,-34.6996,0.763279,48.3548,14.774,-0.180665,-0.12993,-0.0664785,0.626557,0.0807826,-1.81787,2.08279,0.931874,0.00642937,0.867184,0.0375323,-0.0112427,0.0350964,0.121157,-0.031702,0.0474259,1.26407,0.0706949,-0.0107244,0.0890574,-0.143843,0.765353,
174,-9.14334,-39.0034,3.37908,35.161,12.8957,-0.314443,-0.167549,-0.0661393,0.62976,0.0807112,-1.81341,2.10858,0.933707,0.00611919,0.868712,0.034074,-0.0123233,0.0147799,0.145862,-0.00339459,0.262375,1.27738,0.0568211,-0.015661,0.0684842,-0.195773,1.55553,
175,1.78348,-24.1244,3.91656,61.4557,12.6193,-0.132273,-0.172389,-0.0672206,0.631282,0.0817176,-1.81005,2.13364,0.933659,0.00571798,0.869653,0.0309726,-0.00746578,-0.0644907,0.0565576,0.0464134,0.159038,1.26317,0.00397883,-0.0194415,0.028952,-0.101688,0.79102,
176,-4.62919,-32.2982,3.91798,33.1477,31.5702,-0.0696968,-0.0962011,-0.0674452,0.634707,0.0819351,-1.80222,2.15948,0.935549,0.00533357,0.870068,0.0298046,-0.0033998,-0.00426587,0.187381,0.0130979,0.42881,1.27197,0.0641064,-0.0202253,0.0167545,-0.0309759,0.205635,
177,-8.96729,-33.4739,10.3648,30.4635,42.9568,-0.0295411,-0.128252,-0.0681846,0.636407,0.0826786,-1.7981,2.18429,0.935383,0.00506698,0.870356,0.0295615,-0.00129924,-0.0390818,0.0739147,0.0375841,0.168599,1.2595,0.0268156,-0.0125383,0.0129379,-0.00117274,-0.0183012,
178,-18.133,-34.9195,23.0878,26.662,66.5317,-0.021024,-0.137888,-0.069901,0.637782,0.0845972,-1.79528,2.20946,0.936265,0.0047418,0.870586,0.0296655,-0.000370183,-0.0878175,0.0712723,0.0970595,0.134392,1.26386,0.0473285,-0.0157998,0.0103864,0.00857265,-0.0844065,
179,4.63028,-36.1434,-11.3198,27.8016,28.8397,-0.0342154,-0.070437,-0.0735106,0.639005,0.0889372,-1.79327,2.23463,0.937458,0.00438422,0.870769,0.0298635,-4.19626e-06,-0.183102,0.0617242,0.220709,0.0938595,1.26629,0.0555909,-0.0168612,0.00811963,0.010289,-0.0909988,
180,2.39213,-34.763,-5.21306,28.7052,31.1515,-0.180042,0.927187,-0.0723928,0.640157,0.0869739,-1.79133,2.25984,0.937784,0.00395817,0.871152,0.0297721,0.00403919,0.0622701,0.0566029,-0.109478,0.0975388,1.2367,0.0545673,-0.0332888,0.033381,-0.0218743,0.425711,
181,-9.07857,-33.6667,12.0668,30.2645,24.3458,1.05571,-4.67967,-0.071842,0.64145,0.0857463,-1.78919,2.28443,0.939164,0.00514118,0.872333,0.0288503,0.0140982,0.0266323,0.0674793,-0.0590615,0.108366,1.24184,0.0590521,0.0698943,0.0714499,-0.0534141,0.627618,
182,-41.4404,-45.0774,39.8047,7.6896,-3.10246,-1.27888,-0.393094,-0.0736311,0.64301,0.0879095,-1.78672,2.30973,0.942504,-0.00408438,0.874144,0.0277952,0.0217146,-0.0901928,0.0802516,0.11234,0.123799,1.25381,0.184007,-0.478567,0.0773101,-0.0434923,-0.100653,
183,-47.172,-39.6217,47.9443,32.4899,-6.12537,-0.472874,-0.444838,-0.0811352,0.642977,0.0960121,-1.78858,2.30687,0.941127,-0.00490724,0.875034,0.0270924,0.0156469,-0.39045,-0.0147657,0.406716,-0.108669,-0.238894,-0.0705642,-0.0421379,0.0184337,-0.0115075,-0.532487,
184,-30.0079,-41.7927,20.1413,30.819,-20.6401,-0.96528,-2.28908,-0.0901609,0.644251,0.105638,-1.78687,2.29705,0.942452,-0.00578843,0.875189,0.0270622,0.00510278,-0.457011,0.0658534,0.47778,0.121408,-0.533938,0.0379911,-0.0474655,0.00333807,0.00364087,-0.243756,
185,1.13376,-33.9442,-10.2073,40.8713,-25.4811,-0.75647,-4.74249,-0.095801,0.645114,0.10998,-1.78474,2.27591,0.941239,-0.0101876,0.875237,0.02718,0.0015885,-0.280376,0.032801,0.203593,0.113896,-1.12483,-0.031298,-0.231659,0.00226358,0.00685799,-0.128277,
186,-18.6437,-24.0541,27.9663,43.738,27.3668,-0.0340042,1.83471,-0.0961286,0.646618,0.10763,-1.78046,2.25405,0.940784,-0.0193863,0.875388,0.0273496,0.000391729,-0.00340029,0.0818897,-0.123455,0.228093,-1.10464,-0.0215792,-0.452901,0.020225,0.0127841,-0.231235,
187,-52.3851,-31.3999,80.3839,41.3058,-15.3095,9.37312,-11.4668,-0.100184,0.648861,0.112185,-1.77457,2.27277,0.944177,-0.0179145,0.878219,0.0248685,0.0198026,-0.20893,0.129581,0.249583,0.286029,1.25551,0.0714185,0.179044,0.155027,-0.121419,1.22526,
188,-4.09232,-30.3133,0.352932,42.365,-23.0874,-0.328,0.379625,-0.111409,0.651402,0.127326,-1.76982,2.2552,0.961743,-0.0399898,0.881355,0.0230546,0.0275303,-0.550486,0.121163,0.768751,0.23011,-1.11674,1.01227,-1.14916,0.15845,-0.0638831,0.113311,
189,54.2962,-19.1437,-78.4339,70.113,31.847,-1.73545,-1.76444,-0.112131,0.653796,0.12767,-1.76538,2.23263,0.963686,-0.0395497,0.884573,0.0224905,0.0234586,-0.0293744,0.126732,-0.00381417,0.238618,-1.12682,0.0315406,0.0350227,0.163062,0.0018068,-0.876894,
190,14.1199,-33.1071,-19.2291,22.7186,-97.521,-0.618191,1.15161,-0.100884,0.657927,0.112547,-1.75535,2.25439,0.961883,-0.0435203,0.887885,0.0232867,0.0077617,0.56701,0.223278,-0.779179,0.525132,1.26636,-0.122336,-0.179464,0.167234,0.0714302,-1.84772,
191,-2.08693,-36.4593,10.7337,26.4657,-14.3272,-0.125045,-0.0150652,-0.0984243,0.659606,0.107853,-1.75304,2.23528,0.960038,-0.0408856,0.890117,0.0243928,-0.00439762,0.12108,0.0697274,-0.218341,0.0652481,-1.12765,-0.0111035,0.112417,0.0674833,0.0338957,-0.531456,
192,0.391125,-38.9912,9.07705,20.6601,-37.3934,-0.099139,-0.0218608,-0.099574,0.661085,0.108933,-1.75147,2.21275,0.961989,-0.0409902,0.890878,0.0247062,-0.00593806,-0.054148,0.0711398,0.0687823,0.0795304,-1.12061,0.0747,-0.00470537,0.0206204,0.00406009,-0.0168169,
193,-66.7856,-40.6556,95.8284,13.2571,-94.433,-0.0143808,-0.048639,-0.10014,0.661966,0.110021,-1.75082,2.19025,0.963128,-0.0410942,0.891076,0.0246364,-0.00510347,-0.0203344,0.0390334,0.0593761,0.0260245,-1.12356,0.0628151,-0.00522635,0.00379497,-0.00772244,0.123168,
194,-30.1357,-24.0303,46.0157,44.9751,-71.9765,-0.215276,-0.020305,-0.112726,0.662513,0.126891,-1.75164,2.16684,0.965653,-0.0413871,0.891081,0.0244415,-0.00392055,-0.655224,0.0252664,0.86355,-0.0515563,-1.13048,0.0526615,-0.00783775,-0.00166265,-0.0105724,0.140474,
195,7.13739,-14.7181,17.8125,66.394,21.1573,-0.152855,-5.46642,-0.119179,0.665741,0.135876,-1.74711,2.14511,0.966707,-0.0414008,0.891029,0.0242346,-0.00289066,-0.308745,0.185315,0.436856,0.267559,-1.12564,0.0440931,-0.00477766,-0.00298005,-0.0098673,0.121288,
196,-47.8977,-22.1004,82.6278,38.794,52.7585,-0.255976,0.160334,-0.118974,0.670737,0.138336,-1.73748,2.1668,0.969022,-0.0527597,0.89097,0.0240562,-0.00209463,0.0280215,0.262128,0.127326,0.494031,1.27307,0.070358,-0.550361,-0.00287559,-0.00808361,0.0951453,
197,-95.6068,-29.2533,124.821,27.0333,-54.6162,-0.213688,0.0370544,-0.1284,0.674483,0.153914,-1.73227,2.19105,0.970307,-0.0527992,0.890917,0.0239152,-0.00150571,-0.486623,0.182332,0.801201,0.222907,1.26744,0.0288232,0.0124982,-0.00236836,-0.0062292,0.0714472,
198,-101.158,-1.49434,151.258,96.8692,-34.8696,-0.0607616,0.199078,-0.142907,0.677645,0.173021,-1.73073,2.17242,0.968615,-0.052212,0.890876,0.0238086,-0.00107808,-0.758399,0.154814,0.93026,0.0757018,-1.13484,-0.0306391,0.00200861,-0.00182444,-0.00464637,0.0524577,
199,2.3794,-19.9586,12.9683,71.3253,47.2624,-0.168159,1.77804,-0.158258,0.685839,0.1914,-1.71901,2.15052,0.970877,-0.0518439,0.890845,0.0237299,-0.000770303,-0.788723,0.444435,0.900495,0.664129,-1.13058,0.0316515,0.0174306,-0.00135905,-0.00340243,0.0380409,
200,-36.0767,-10.1351,67.5127,57.5128,21.3293,1.19588,3.13256,-0.159881,0.691325,0.192572,-1.70773,2.17236,0.97108,-0.0488471,0.890822,0.0236726,-0.000549767,-0.0406271,0.244396,0.0530461,0.5326,1.28563,0.084163,0.174064,-0.000993984,-0.00246477,0.0273911,
201,-18.4773,-29.9722,25.1464,56.8603,116.97,-3.44482,-0.201985,-0.168011,0.696651,0.204366,-1.69882,2.19719,0.975654,-0.0427875,0.890805,0.0236313,-0.000392115,-0.405781,0.280888,0.614954,0.423759,1.27017,0.198202,0.309403,-0.000719396,-0.00177406,0.0196408,
202,197.446,-45.0276,-291.318,-46.4676,-679.044,-5.84249,62.7079,-0.171397,0.70067,0.209206,-1.6917,2.22307,0.970588,-0.043115,0.890793,0.0236016,-0.000279565,-0.167878,0.181422,0.229579,0.360167,1.28748,-0.263225,-0.0233139,-0.000517464,-0.00127194,0.0140486,
203,-637.4,-393.26,868.287,-1439.26,12.1571,366.825,-1297,-0.157729,0.697491,0.190181,-1.70036,2.20449,0.95414,-0.0187663,0.890785,0.0235803,-0.000199264,0.758285,-0.160212,-0.96889,-0.551478,-1.13766,-0.540096,1.19657,-0.000370969,-0.00091009,0.0100379,
204,4.85402,-33.3682,-4.81713,29.8833,-2.35482,-0.406025,0.00153227,-0.170612,0.690172,0.20851,-1.71962,2.22392,0.975688,-0.0429754,0.890778,0.0235651,-0.000141945,-0.73206,-0.425117,0.943333,-1.05461,1.25869,1.16715,-1.20265,-0.000265647,-0.000650949,0.00717499,
205,1.08733,-32.4645,0.328916,29.1581,1.51316,-0.346954,0.00401009,-0.17029,0.691279,0.20731,-1.72135,2.22543,0.981984,-0.0428821,0.890774,0.0235542,-0.000100981,0.0385745,0.137013,-0.0917198,0.0830419,-0.14095,0.0931709,-0.00292403,-0.000190243,-0.000465851,0.00513383,
206,-9.10762,-31.3047,12.7777,28.0147,2.39911,-0.343858,0.00969659,-0.170174,0.693869,0.206553,-1.71937,2.22938,0.983406,-0.0430444,0.890771,0.0235465,-7.16649e-05,0.00457004,0.12302,-0.0332857,0.102411,0.233917,0.0478743,-0.00293145,-0.000136327,-0.000333685,0.00367758,
207,-6.63418,-32.4836,7.28708,25.1198,-10.2971,-0.34435,0.0163223,-0.171935,0.69635,0.208387,-1.71741,2.23548,0.984507,-0.0431353,0.890768,0.0235409,-5.06588e-05,-0.0917374,0.122115,0.0961581,0.0978497,0.319204,0.0393412,-0.00230914,-9.77519e-05,-0.000239203,0.00263663,
208,3.49297,-33.0389,-4.61485,23.4843,-14.6348,-0.327472,0.0214762,-0.173361,0.698729,0.209307,-1.71619,2.21895,0.984572,-0.0428424,0.890767,0.0235369,-3.56162e-05,-0.0667557,0.117182,0.0410917,0.0658458,-0.946659,0.0359427,-0.00125764,-6.9935e-05,-0.000171108,0.00188495,
209,-7.86906,-33.0548,10.4888,26.0855,12.6138,-0.322007,0.0219201,-0.172894,0.700821,0.20774,-1.71509,2.19698,0.984951,-0.0427976,0.890766,0.023534,-2.48983e-05,0.0289237,0.102764,-0.0815081,0.0549915,-1.12045,0.0361143,-0.000974124,-4.97504e-05,-0.000121711,0.00133872,
210,-1.10225,-34.6664,1.07705,25.9895,-7.99904,-0.342145,0.0226828,-0.174053,0.702648,0.20915,-1.71313,2.21775,0.986883,-0.0434422,0.890765,0.023532,-1.73159e-05,-0.0708711,0.0885921,0.079968,0.0876212,1.27031,0.030963,-0.00153533,-3.51499e-05,-8.59869e-05,0.000943814,
211,-0.192228,-35.7274,-0.860254,23.8218,-14.1042,-0.329505,-0.00186741,-0.174506,0.704653,0.208839,-1.71191,2.20731,0.986634,-0.0429467,0.890764,0.0235306,-1.19899e-05,-0.0141345,0.100828,-0.0233564,0.0722677,-0.714168,0.0367158,-0.00046095,-2.4668e-05,-6.03431e-05,0.000660863,
212,5.00788,-37.6704,-7.05257,20.7837,36.7685,-0.33,-0.730899,-0.174628,0.706448,0.20802,-1.71087,2.18571,0.987121,-0.0429095,0.890764,0.0235296,-8.27228e-06,-0.00424044,0.0855842,-0.0421251,0.0533937,-1.11871,0.0358164,-0.0032603,-1.72085e-05,-4.20947e-05,0.000460035,
213,-89.9795,-29.092,114.839,35.0494,-26.6803,-0.2148,0.0562756,-0.173377,0.707291,0.206044,-1.70974,2.20661,0.988289,-0.0449991,0.890764,0.0235289,-5.69115e-06,0.0564121,0.0372273,-0.0955079,0.0389696,1.26906,0.0235688,-0.0767112,-1.19442e-05,-2.92169e-05,0.000318701,
214,-89.9107,-30.1133,100.718,35.6084,-53.5703,-0.486956,1.67162e-05,-0.188294,0.710765,0.223663,-1.70761,2.18785,0.990354,-0.0445556,0.890763,0.0235284,-3.90671e-06,-0.792508,0.184128,0.889962,0.140152,-1.11929,0.0234036,0.00314724,-8.25619e-06,-2.01954e-05,0.000219945,
215,-25.9248,-3.58176,33.4607,82.3661,-103.088,-0.546835,0.00455415,-0.204513,0.714213,0.241153,-1.70461,2.16546,0.990389,-0.0446099,0.890763,0.0235281,-2.67721e-06,-0.823283,0.164073,0.864667,0.156435,-1.11981,0.000658275,-0.00280686,-5.68823e-06,-1.39139e-05,0.000151337,
216,54.6215,-17.6428,-76.44,49.2495,-17.1302,-0.576758,-0.0438059,-0.211052,0.721222,0.246806,-1.69276,2.14435,0.991409,-0.0445397,0.890763,0.0235278,-1.83229e-06,-0.295639,0.38676,0.269568,0.650021,-1.11764,0.0374479,-0.00278197,-3.90898e-06,-9.56162e-06,0.000103892,
217,65.8198,-36.0111,-94.4804,9.91996,-6.88792,-0.558714,-0.0812584,-0.201567,0.725257,0.231107,-1.6848,2.12255,0.987249,-0.0441858,0.891035,0.0235085,0.000195743,0.515247,0.198035,-0.811414,0.348327,-1.11029,-0.0708374,0.0198991,0.03939,-0.00283804,-0.22056,
218,444.179,-24.8345,-581.653,37.1179,-8.09063,-3.20726,15.7665,-0.189394,0.725973,0.212556,-1.68459,2.10907,0.985271,-0.0442441,0.891766,0.0234428,0.00071657,0.623299,0.0260863,-0.920599,-0.0504966,-0.603369,-0.0391659,0.00875352,0.0446584,-0.00276473,-0.221207,
219,-253.278,-133.082,376.436,-392.211,-1671.39,114.639,-242.294,-0.174446,0.729041,0.192751,-1.68132,2.09403,0.983387,-0.0214343,0.893385,0.0214293,0.0125969,0.773042,0.182091,-0.97176,0.197129,-0.721352,-0.192678,1.19592,0.0785906,-0.0886565,1.00733,
220,1.27302,-33.517,1.48963,28.0409,-8.40184,-0.536012,0.0185732,-0.187985,0.722883,0.210626,-1.69928,2.06978,1.00289,-0.0450009,0.895047,0.0201444,0.0142362,-0.754446,-0.404855,0.924421,-1.06001,-1.13662,1.14702,-1.20204,0.0888027,-0.0420473,-0.15056,
221,-6.4441,-32.621,9.8444,26.6842,-5.16121,-0.47898,0.00781831,-0.188652,0.723859,0.210267,-1.70081,2.05566,1.00835,-0.0453144,0.89703,0.0199206,0.0078573,-0.0116594,0.124635,-0.0401927,0.0782434,-0.751268,0.0510657,-0.00136163,0.108586,0.0148769,-1.12819,
222,2.20733,-33.1147,-3.88618,22.9898,-22.8289,-0.470386,0.00376721,-0.190081,0.726291,0.211319,-1.69916,2.04625,1.00903,-0.0454585,0.899099,0.0206065,-0.00199883,-0.0730202,0.118033,0.0585802,0.0832622,-0.436774,0.00802674,-0.00234037,0.074038,0.0305185,-0.820779,
223,10.9742,-34.1906,-16.6821,23.1052,-36.9164,-0.448971,-0.033315,-0.18987,0.728409,0.209931,-1.69813,2.02519,1.00833,-0.0453138,0.899956,0.0209347,-0.00418985,0.0173123,0.105515,-0.0746367,0.0511024,-1.12174,-0.00385415,-0.00237731,0.024117,0.00671268,-0.134529,
224,-10.3193,-31.2443,13.0764,30.621,2.19437,-0.443782,0.0115102,-0.187757,0.730328,0.206027,-1.69709,2.00283,1.00792,-0.0454142,0.900199,0.0209265,-0.00380301,0.109192,0.0949785,-0.199159,0.0519842,-1.12437,-0.005966,-0.00618571,0.00523161,-0.00464471,0.0683285,
225,9.05326,-33.0018,-12.4638,27.6454,-14.9876,-0.443986,0.0109466,-0.189375,0.732794,0.207855,-1.69462,2.00581,1.00935,-0.0458605,0.90022,0.020786,-0.00295887,-0.0956425,0.123857,0.103324,0.126061,0.290487,-0.00277991,-0.00214684,-0.00127238,-0.00817747,0.111287,
226,-6.35519,-32.3266,9.21239,28.9504,12.4753,-0.422273,0.0100798,-0.187978,0.735053,0.204836,-1.6928,1.98626,1.00797,-0.0454918,0.900171,0.0206192,-0.00218708,0.083075,0.113188,-0.161915,0.0951297,-1.11982,-0.00601059,-0.00138162,-0.0030254,-0.00815865,0.104028,
227,6.10894,-33.3907,-6.54268,28.6159,-2.2512,-0.429835,0.0101427,-0.188771,0.737117,0.205934,-1.69023,2.00695,1.00938,-0.0461748,0.900109,0.0204691,-0.00158446,-0.0547545,0.100457,0.0667607,0.117341,1.26587,-0.00607595,-0.00251897,-0.00306173,-0.00688838,0.08417,
228,2.98139,-33.558,-3.10021,28.6011,-3.20664,-0.412937,0.00901317,-0.187897,0.739244,0.20405,-1.68825,2.00683,1.00835,-0.0458241,0.900053,0.0203478,-0.00113809,0.0541476,0.108868,-0.10217,0.105135,-0.144914,-0.00162185,-0.00153609,-0.00257148,-0.00539336,0.0641408,
229,3.73179,-34.329,-4.70887,27.7423,-8.30239,-0.412744,0.00637729,-0.187341,0.741426,0.202724,-1.68619,2.0021,1.00842,-0.0458461,0.900007,0.0202551,-0.000814287,0.0274621,0.107697,-0.0647657,0.104445,-0.244039,0.00096973,-0.00200504,-0.0020008,-0.00405924,0.0474573,
230,-4.28635,-35.4454,3.82376,23.8893,-9.70538,-0.418026,-0.00178482,-0.186711,0.743533,0.201118,-1.68435,1.98802,1.00816,-0.0457599,0.899973,0.0201861,-0.000581511,0.0339422,0.103625,-0.0815175,0.0942803,-0.752418,-0.000683098,-0.00213352,-0.00149873,-0.0029881,0.0345621,
231,3.89848,-39.5413,-10.1792,15.1538,-14.6035,-0.445541,-0.0512718,-0.18745,0.745377,0.201237,-1.68314,1.97023,1.00812,-0.045803,0.899948,0.0201357,-0.000414876,-0.0404561,0.0890476,0.00805788,0.0574731,-0.896167,-0.007115,-0.00301661,-0.00109967,-0.00217136,0.0249473,
232,-0.79686,-40.7338,-6.11798,13.3065,3.84754,-0.453965,-0.0515358,-0.186625,0.746309,0.198779,-1.68347,1.94812,1.00711,-0.0458813,0.899929,0.0200992,-0.000295836,0.0441147,0.0418374,-0.128872,-0.0258113,-1.12804,-0.0197761,-0.00783293,-0.000797398,-0.00156577,0.0179142,
233,-6.74667,-37.2507,4.92051,23.8511,2.3475,-0.409765,-0.0171525,-0.186176,0.746706,0.197189,-1.68403,1.95406,1.00728,-0.0464497,0.899916,0.020073,-0.00021089,0.0114919,0.0177747,-0.0772165,-0.0390305,0.447954,-0.027014,-0.0082669,-0.00057422,-0.00112387,0.0128245,
234,-22.6221,-40.3591,25.0967,41.4901,75.879,-0.399998,0.102744,-0.187342,0.748045,0.19758,-1.68319,1.96051,1.0075,-0.0465183,0.899906,0.0200542,-0.0001503,-0.0625624,0.0723944,0.0211557,0.0556562,0.308332,-0.00751218,-0.00452292,-0.000411949,-0.000804703,0.00916826,
235,38.2944,-40.0168,-62.045,59.6396,146.28,-3.47957,35.4946,-0.191225,0.750044,0.202004,-1.67947,1.98433,1.00876,-0.0466502,0.899899,0.0200408,-0.000107055,-0.208441,0.087658,0.227632,0.206521,1.28138,0.00252779,0.00723872,-0.000295151,-0.000575878,0.00655639,
236,6.41629,-32.1759,-3.94568,30.5385,-21.0365,-0.362439,0.0320787,-0.183585,0.751801,0.189754,-1.67221,2.01061,1.00169,-0.0229051,0.899894,0.0200312,-7.61454e-05,0.398894,0.0843041,-0.641353,0.392574,1.2836,-0.310117,1.19755,-0.000211478,-0.000412332,0.00469344,
237,-0.288136,-33.465,3.14474,27.8426,13.3678,-0.381456,0.00574766,-0.183332,0.753304,0.187446,-1.66873,1.99227,1.00092,-0.0220339,0.899891,0.0200243,-5.40184e-05,0.0190183,0.0827409,-0.0983452,0.14919,-1.12448,0.0162729,0.00028319,-0.000151624,-0.000295504,0.00336388,
238,2.42756,-33.3895,0.468381,28.8965,-0.364302,-0.378163,0.00653078,-0.183378,0.754533,0.187236,-1.66588,2.0129,1.00206,-0.0227078,0.899888,0.0200193,-3.8158e-05,-0.00887736,0.0655109,0.000176293,0.121766,1.26116,-0.000242242,-0.00316734,-0.000108756,-0.000211904,0.00241239,
239,0.834558,-33.0458,2.72025,28.3994,-15.6946,-0.355289,0.00518798,-0.183327,0.756341,0.186616,-1.66366,2.01601,1.00163,-0.0224406,0.899886,0.0200158,-2.6804e-05,0.0105712,0.0986006,-0.0332622,0.115063,0.0399813,0.00724537,-0.00220951,-7.777e-05,-0.000151506,0.00172345,
240,-1.90653,-33.0124,6.64014,28.8699,-5.6702,-0.344135,0.00469226,-0.183599,0.758606,0.186351,-1.6617,1.99575,1.00149,-0.0222019,0.899885,0.0200132,-1.87221e-05,-0.00713027,0.116024,-0.0131757,0.102905,-1.12094,0.0128361,-0.00233896,-5.52742e-05,-0.000107671,0.00122274,
241,2.26493,-33.7309,1.43941,27.8149,0.115488,-0.338448,0.00383726,-0.184062,0.760845,0.186929,-1.65944,1.98467,1.00206,-0.0224209,0.899884,0.0200115,-1.30109e-05,-0.0243929,0.110848,0.0331478,0.110219,-0.494231,0.00809457,-0.00273604,-3.90133e-05,-7.59911e-05,0.000861116,
242,3.62336,-33.8884,0.172115,28.7677,-2.60771,-0.325892,0.00372763,-0.183645,0.76282,0.186619,-1.65729,1.98529,1.00221,-0.0226111,0.899884,0.0200102,-9.00343e-06,0.0214834,0.0984612,-0.0152613,0.102669,0.0826674,0.00276429,-0.00275215,-2.73531e-05,-5.32772e-05,0.000602374,
243,7.09197,-34.0459,-3.88503,30.4486,-13.0408,-0.312917,0.00476075,-0.183041,0.764907,0.186026,-1.65518,1.9821,1.00221,-0.0225925,0.899883,0.0200093,-6.20872e-06,0.0324214,0.105532,-0.0302249,0.107663,-0.186074,0.00656984,-0.00258732,-1.90657e-05,-3.71344e-05,0.000418978,
244,6.94953,-33.1284,-1.87338,33.1694,-22.8868,-0.298445,0.0727442,-0.181951,0.76723,0.184556,-1.65295,1.9615,1.002,-0.0223967,0.899883,0.0200087,-4.26979e-06,0.0607442,0.11608,-0.0759556,0.118514,-1.12106,0.011124,-0.00229966,-1.32239e-05,-2.57561e-05,0.000290066,
245,-0.228465,-34.2901,5.12365,28.1867,-2.73149,-0.287236,0.00234916,-0.18082,0.769709,0.183379,-1.6501,1.93906,1.00239,-0.0223145,0.899883,0.0200083,-2.93012e-06,0.0587765,0.122664,-0.0562962,0.147204,-1.12409,0.0120877,0.00429238,-9.13559e-06,-1.77931e-05,0.000200078,
246,1.86842,-33.9805,3.04799,29.6637,-12.8643,-0.290266,0.00269394,-0.180598,0.771662,0.183837,-1.64778,1.93309,1.00285,-0.0226178,0.899882,0.020008,-2.00751e-06,0.00438848,0.0945196,0.0271723,0.105767,-0.206214,-0.00243715,-0.00290739,-6.29129e-06,-1.22533e-05,0.000137611,
247,2.22384,-34.8608,1.84564,28.5498,-0.378212,-0.28132,0.00102307,-0.1804,0.773848,0.18385,-1.64563,1.91234,1.00248,-0.0224309,0.899882,0.0200078,-1.3737e-06,0.0139753,0.111448,-0.00238559,0.113643,-1.12529,0.00179475,-0.00239,-4.32189e-06,-8.41751e-06,9.44394e-05,
248,4.68887,-34.5511,-0.0145905,30.5318,-6.58846,-0.27816,0.00125918,-0.179721,0.775704,0.183703,-1.64332,1.91076,1.00284,-0.0227789,0.899882,0.0200077,-9.39131e-07,0.0294809,0.0904798,-0.0054767,0.10871,0.0283216,-0.00458419,-0.00301413,-2.96337e-06,-5.7716e-06,6.47034e-05,
249,1.7814,-35.1521,2.84854,28.6359,4.1903,-0.268875,0.000128185,-0.178931,0.777775,0.183092,-1.64096,1.90024,1.00258,-0.0226719,0.899882,0.0200076,-6.41597e-07,0.0427878,0.105332,-0.0325601,0.122764,-0.585407,0.00142071,-0.00259922,-2.02898e-06,-3.95173e-06,4.42749e-05,
250,4.43777,-35.3773,-0.342089,29.5631,-0.381853,-0.267849,0.000157502,-0.178294,0.779547,0.18314,-1.63861,1.90789,1.00298,-0.023009,0.899882,0.0200075,-4.38106e-07,0.0259439,0.0868485,0.00528134,0.110208,0.484572,-0.0046855,-0.00311591,-1.38771e-06,-2.70276e-06,3.02678e-05,
251,4.34974,-35.4625,-0.318589,29.9427,-6.67664,-0.258096,0.000253198,-0.177442,0.781419,0.182546,-1.63638,1.90944,1.00269,-0.0229442,0.899882,0.0200075,-2.99047e-07,0.0446805,0.0950654,-0.0323874,0.114329,0.0339402,-0.000204454,-0.00275349,-9.48328e-07,-1.847e-06,2.06769e-05,
252,4.87899,-35.3809,-0.600942,30.8851,-12.6603,-0.253267,4.53537e-05,-0.176702,0.783442,0.181857,-1.63416,1.89875,1.00252,-0.0228413,0.899882,0.0200074,-2.04079e-07,0.0394976,0.100941,-0.0356683,0.114898,-0.59352,0.00392338,-0.00271535,-6.47676e-07,-1.26144e-06,1.4118e-05,
253,3.29098,-36.8339,-0.390913,27.2564,1.55231,-0.256163,-0.00312058,-0.175942,0.785569,0.181039,-1.63179,1.87726,1.00243,-0.022762,0.899882,0.0200074,-1.39257e-07,0.0412204,0.105141,-0.0413328,0.122874,-1.12552,0.00503329,-0.00272715,-4.42078e-07,-8.61006e-07,9.63425e-06,
254,3.41147,-38.088,-1.85166,24.3487,-12.4126,-0.272266,-0.010909,-0.174954,0.78708,0.180473,-1.62967,1.87909,1.00282,-0.0231717,0.899882,0.0200074,-1.19513e-07,0.0430152,0.07178,-0.0256042,0.0960597,0.218925,-0.00798862,-0.00344136,-3.12072e-07,-6.07803e-07,6.87569e-06,
255,5.6006,-41.3162,-7.70463,16.8583,-4.56078,-0.298939,-0.0605185,-0.17438,0.788551,0.179586,-1.62853,1.85902,1.00201,-0.0229052,0.899882,0.0200074,-1.19513e-07,0.0323914,0.0742208,-0.0488546,0.0596216,-1.12718,-0.00708856,-0.00356747,-2.60849e-07,-5.08039e-07,5.97845e-06,
256,-3.14391,-40.1905,3.95462,19.7126,0.788971,-0.289745,-0.0402452,-0.172987,0.789199,0.177653,-1.62845,1.84977,1.00168,-0.0232624,0.899882,0.0200074,-1.19513e-07,0.0664873,0.0279813,-0.0979216,-0.00810902,-0.392732,-0.0186611,-0.00895401,-2.42485e-07,-4.72271e-07,5.71185e-06,
257,-50.4252,-36.2724,68.5667,42.452,31.0402,-0.257914,0.0802674,-0.173193,0.790025,0.177981,-1.6281,1.85153,1.00193,-0.0235554,0.899882,0.0200074,-1.19513e-07,-0.018959,0.0430168,0.0195794,0.0176812,0.142583,-0.0160975,-0.00693587,-2.35957e-07,-4.59557e-07,5.63023e-06,
258,46.7095,-55.1683,-73.6009,72.5731,-14.106,-0.443228,19.0825,-0.182135,0.792644,0.190953,-1.62423,1.87442,1.00442,-0.0238538,0.899882,0.0200074,-1.19513e-07,-0.477749,0.12874,0.669037,0.218416,1.27036,-0.00231471,0.00466604,-2.3365e-07,-4.55064e-07,5.60456e-06,
259,0.793655,-35.6773,5.06074,29.9807,1.52975,-0.265553,-0.00273955,-0.173254,0.794331,0.176887,-1.61605,1.85835,0.999637,0.00062983,0.899882,0.0200073,-1.19513e-07,0.486429,0.0506482,-0.759841,0.46415,-1.09372,-0.0274752,1.1988,-2.32838e-07,-4.53484e-07,5.5963e-06,
260,3.74277,-36.6033,1.45098,30.7892,6.65127,-0.335585,0.00132267,-0.173281,0.794296,0.17637,-1.61173,1.85928,1.00168,0.000425806,0.899882,0.0200073,-1.19513e-07,-0.019561,0.00847718,0.00735984,0.165418,0.204395,0.00705061,-0.00427402,-2.32554e-07,-4.5293e-07,5.59359e-06,
261,6.86092,-36.4014,-2.17082,31.736,-5.61871,-0.324277,0.0018767,-0.172886,0.794777,0.175906,-1.60851,1.87276,1.00175,0.000182232,0.899908,0.0199908,0.000238797,0.0242616,0.0379233,-0.0207909,0.147912,0.708274,0.00302311,-0.0149531,0.00651857,-0.00434595,0.0638952,
262,4.90338,-35.8062,0.65322,32.5574,-13.4508,-0.31413,-0.00378072,-0.172098,0.796066,0.174728,-1.60574,1.86552,1.00077,0.000778413,0.900185,0.0201225,-0.00117061,0.0492396,0.0741427,-0.060212,0.141685,-0.474695,-0.022038,0.0121701,0.0172464,0.00981813,-0.202263,
263,0.658593,-36.5131,4.65611,29.6302,9.67369,-0.322841,-0.00895705,-0.171544,0.797859,0.174085,-1.60293,1.84455,1.0001,0.00129018,0.900727,0.0203995,-0.00412625,0.0331523,0.0933312,-0.0303532,0.143045,-1.10937,-0.0249813,0.0143072,0.0327019,0.0146404,-0.326019,
264,2.65023,-36.164,3.15998,30.2814,3.74831,-0.319538,0.0232296,-0.170899,0.799222,0.174575,-1.60029,1.86075,1.00061,0.000610903,0.902525,0.0197607,0.0105621,0.0222476,0.0683081,0.0298998,0.12312,1.0257,-0.0191412,-0.004324,0.062773,-0.0472984,0.731743,
265,2.08368,-36.2491,3.61553,30.0358,5.44629,-0.315164,0.0153702,-0.170381,0.800849,0.17473,-1.59786,1.87072,1.00005,0.000751218,0.903177,0.0191883,0.0142613,0.027657,0.0856107,0.00477374,0.123098,0.444287,-0.0114109,-0.00048897,0.0151242,-0.0156878,0.139798,
266,2.27753,-36.1898,3.36712,30.2704,4.9608,-0.314167,0.0112204,-0.169877,0.802549,0.174933,-1.59543,1.88264,0.999937,0.000666149,0.903281,0.0190619,0.0128977,0.0238616,0.085752,0.0103362,0.118655,0.605765,-0.00538707,-0.00778381,0.00129664,-0.00171255,-0.0418345,
267,-1.08963,-35.8287,7.51697,30.1466,-2.61427,-0.310091,0.0144763,-0.16937,0.804321,0.17507,-1.59308,1.8937,1.00002,0.000414295,0.903414,0.0189427,0.0120913,0.0256687,0.0902106,0.00622497,0.116418,0.54591,0.00982067,-0.0144422,0.0119771,-0.0103936,0.10064,
268,2.90226,-36.4621,1.47674,29.0451,-5.55352,-0.31421,0.00614292,-0.169665,0.806344,0.175984,-1.59088,1.89137,0.99966,0.000703281,0.9036,0.0189466,0.0106818,-0.0133269,0.102058,0.0453859,0.113655,-0.186729,-0.00672899,0.000174773,0.00843581,0.00505852,-0.118828,
269,2.93036,-36.3061,1.80615,30.3005,5.99057,-0.319168,0.00299414,-0.169212,0.808264,0.175736,-1.58881,1.8825,0.999051,0.000935827,0.903737,0.0191309,0.00817815,0.0262132,0.0946775,-0.0144974,0.104129,-0.473216,-0.0175825,0.00693112,0.00654333,0.0113673,-0.191311,
270,1.745,-36.1236,3.55942,30.0831,6.18172,-0.332141,0.0243554,-0.168334,0.810028,0.175606,-1.58645,1.89317,0.99951,0.000332404,0.904795,0.0186864,0.0150192,0.0397249,0.0888266,-0.00436391,0.117998,0.650577,0.00247846,-0.00979594,0.0477354,-0.0234631,0.382842,
271,2.43952,-36.1479,2.33673,30.3579,7.90736,-0.379345,0.0342959,-0.167804,0.81186,0.175839,-1.58414,1.90651,0.999564,0.000122264,0.905741,0.0183595,0.0140058,0.0251748,0.0933496,0.0115957,0.114567,0.667973,0.0030463,-0.0132325,0.0504512,-0.0124843,0.10826,
272,5.99922,-36.3493,-3.27002,31.0773,14.2157,-0.54448,0.157345,-0.167118,0.813727,0.17584,-1.58179,1.9229,0.999702,-0.000270145,0.907067,0.0179496,0.0115504,0.0330431,0.0940083,-0.000837485,0.117786,0.837082,0.00755158,-0.0177621,0.0754881,-0.024341,0.127029,
273,8.09815,-36.9431,-5.57921,29.5498,15.2771,-0.325874,-0.493418,-0.165675,0.815531,0.174769,-1.57925,1.94711,0.99959,-0.000425214,0.90906,0.0171825,0.0170861,0.0691853,0.0908206,-0.0550675,0.12792,1.26815,-0.0214288,0.0121544,0.10518,-0.0251042,-0.0698225,
274,10.5292,-36.8468,-9.46035,30.3608,12.234,-0.167747,-0.139558,-0.163991,0.817216,0.173179,-1.57693,1.97259,0.99942,-0.00145126,0.911177,0.0173467,0.0105487,0.0840815,0.0840057,-0.0811665,0.114299,1.27298,0.0011483,-0.0525199,0.0973055,0.031028,-1.0406,
275,-1.17852,-33.5714,10.8317,33.3522,18.5565,0.426215,0.381769,-0.161827,0.818931,0.170827,-1.57451,1.9981,0.99967,-0.00179621,0.912312,0.0177939,0.00452554,0.108312,0.0864381,-0.119597,0.121792,1.27414,0.0205529,-0.0171827,0.0323855,0.015381,-0.318293,
276,-2.25667,-36.0946,6.84597,29.5857,18.1062,-0.561497,0.407522,-0.162096,0.8212,0.172215,-1.57152,2.02325,1.002,-0.00133712,0.912751,0.0179128,0.00373721,-0.0162052,0.116585,0.0764148,0.149662,1.2487,0.109215,0.0120768,0.0247429,-0.0060216,0.134394,
277,7.38036,-37.4348,-8.47947,28.6159,8.6263,-0.948481,0.289238,-0.162298,0.823161,0.173162,-1.56927,2.04817,1.00226,-0.00100089,0.913389,0.0174165,0.0126986,-0.0133606,0.096269,0.0457922,0.108823,1.25425,0.00441108,0.0217177,0.0331652,-0.036194,0.637047,
278,5.77865,-35.9639,-3.16376,30.0703,8.20791,-0.287021,-0.00357125,-0.160758,0.82491,0.171145,-1.56734,2.06739,1.00103,-0.000605969,0.913994,0.0167216,0.0197206,0.0810825,0.0869213,-0.107261,0.0974394,0.920936,-0.0406053,0.0131838,0.030718,-0.0332904,0.408849,
279,2.39096,-35.1106,2.20454,31.7452,18.1337,-0.111163,0.19203,-0.159616,0.826867,0.169929,-1.56509,2.08506,1.00161,-0.000922833,0.914786,0.01617,0.0190973,0.0585089,0.0994134,-0.0589518,0.113755,0.875117,0.0372927,-0.0210403,0.0469204,-0.0255079,0.169455,
280,6.77276,-38.1741,-9.08144,26.2087,-5.74251,-0.734023,-0.276305,-0.158994,0.82897,0.169808,-1.56247,2.10921,1.00306,-0.00121627,0.916217,0.0153633,0.0210118,0.0287508,0.106181,-0.00319579,0.132164,1.25003,0.0614864,-0.00664041,0.0807637,-0.0452762,0.44725,
281,6.1665,-36.3727,-4.89246,29.8856,-5.74541,-0.168067,-0.367981,-0.157677,0.830885,0.167715,-1.56116,2.1027,1.00172,-0.00135967,0.917949,0.0150465,0.0154258,0.0724813,0.0934735,-0.114615,0.0705445,-0.494371,-0.0195662,-0.0323858,0.0917741,0.00630621,-0.789523,
282,2.97944,-35.2707,0.723861,31.7139,5.98912,-0.0316128,-0.0699565,-0.156541,0.833007,0.166108,-1.55903,2.09288,1.00261,-0.00216837,0.919398,0.0154747,0.0055473,0.0574202,0.104745,-0.0786329,0.111452,-0.493455,0.0417024,-0.040387,0.0455225,0.0192661,-0.525075,
283,9.37325,-38.6117,-14.0978,27.0243,4.2449,-0.94766,0.105401,-0.155813,0.835031,0.165632,-1.5562,2.10412,1.00424,-0.00270074,0.919919,0.0157407,0.00223361,0.0309841,0.100245,-0.0179532,0.137886,0.67388,0.0502264,-0.0108612,0.0147668,0.00898158,-0.164296,
284,14.231,-38.2167,-19.7506,29.4706,7.35894,-0.582296,-0.193674,-0.153713,0.836528,0.162605,-1.55437,2.11452,1.00294,-0.00249737,0.920075,0.0158479,0.00111145,0.10522,0.072882,-0.158119,0.0879107,0.502089,-0.0501939,0.00715433,0.00375978,0.00301794,-0.0414291,
285,8.60214,-34.6886,-8.31676,33.8942,7.83173,-0.0902381,0.113302,-0.150739,0.838034,0.158296,-1.55214,2.13023,1.00271,-0.0030805,0.920133,0.0158488,0.000971687,0.148947,0.0752414,-0.217337,0.110268,0.798349,-0.00215633,-0.0346472,0.0062959,-0.0050208,0.0594307,
286,7.9893,-34.8404,-8.47504,35.606,14.8396,-0.183769,0.266335,-0.149006,0.840097,0.15604,-1.54911,2.14692,1.00413,-0.00326395,0.920501,0.0155164,0.00531276,0.0850225,0.107781,-0.108329,0.155158,0.843096,0.0596226,-0.00547021,0.0242098,-0.0241055,0.327803,
287,22.0262,-27.3043,-22.2261,57.7376,12.3256,1.99463,3.02146,-0.14723,0.842288,0.153927,-1.54573,2.17115,1.00541,-0.00329555,0.92143,0.0146646,0.0148378,0.0868684,0.110621,-0.104483,0.169752,1.25467,0.0523727,0.00441112,0.051216,-0.0460281,0.630731,
288,25.9027,-35.0948,-34.5213,30.6663,14.4172,6.68195,-1.64285,-0.143007,0.846093,0.149109,-1.53853,2.19648,1.01069,0.00203692,0.923584,0.0129485,0.0302271,0.21912,0.198667,-0.246331,0.386006,1.26647,0.27081,0.284452,0.119247,-0.0815586,0.948943,
289,2.98998,-35.9231,-0.247997,31.091,30.1429,1.40689,0.974423,-0.137416,0.847914,0.14236,-1.53503,2.22203,1.02205,-0.00100411,0.92639,0.0116864,0.0249702,0.282682,0.0817263,-0.347735,0.141775,1.27069,0.693165,-0.168149,0.136119,-0.036345,-0.966344,
290,5.80133,-38.108,-8.9416,24.6255,-15.0742,-1.20455,5.14395,-0.136511,0.849895,0.141575,-1.5326,2.24697,1.02839,0.000680271,0.928505,0.0116897,0.00398763,0.0291454,0.10398,-0.0244342,0.126605,1.28226,0.212367,0.0932385,0.0678422,0.0194004,-1.31815,
291,2.42607,-36.4797,-0.0793943,28.6235,-3.29141,-0.0536472,-0.179936,-0.135571,0.851996,0.139519,-1.5318,2.22917,1.02689,0.0113936,0.929156,0.0118042,-0.0150772,0.0545798,0.104968,-0.112504,0.0515989,-1.1068,-0.0526901,0.510986,0.017596,-0.00158927,-0.186618,
292,4.11157,-36.6644,-3.84442,29.5336,3.5321,-0.218225,0.32381,-0.135176,0.85413,0.138874,-1.52976,2.2228,1.02843,0.0108785,0.929382,0.0116749,-0.0172532,0.0177852,0.103079,-0.0257292,0.101403,-0.245172,0.0616835,-0.0220754,0.0082973,-0.00935591,0.103022,
293,2.25171,-37.5044,-1.95841,28.7525,7.34459,-0.328935,-0.0475087,-0.134283,0.856036,0.137705,-1.52744,2.23024,1.02945,0.0112622,0.92952,0.0114589,-0.0147223,0.0426908,0.0938502,-0.057163,0.114363,0.434986,0.0373664,0.0284206,0.00607549,-0.0113477,0.161367,
294,1.75792,-37.1795,-1.18579,30.0468,9.94408,-0.251915,-0.531852,-0.133693,0.857747,0.136944,-1.52524,2.24581,1.03012,0.0109961,0.929629,0.0112391,-0.0114342,0.0262947,0.0845674,-0.0364578,0.107173,0.816414,0.0252004,-0.0086591,0.00496391,-0.0104426,0.149404,
295,-0.593533,-39.2798,-0.52255,24.2069,3.7257,-0.929946,-1.03618,-0.133241,0.85949,0.136351,-1.52282,2.26687,1.03092,0.00980072,0.929717,0.0110504,-0.00852621,0.0204958,0.087742,-0.02912,0.120351,1.07702,0.0350101,-0.0571001,0.00396981,-0.00855613,0.120337,
296,10.2692,-38.8686,-18.2722,25.8867,4.00883,-2.01006,-0.994041,-0.133254,0.860951,0.135978,-1.5216,2.27709,1.03005,0.00782224,0.929786,0.010901,-0.00623112,-0.00104607,0.0720781,-0.0209608,0.0594169,0.457703,-0.03277,-0.107349,0.00306054,-0.00660733,0.0914703,
297,7.92113,-36.5274,-10.7165,30.544,8.6117,-0.0239448,-1.20306,-0.131127,0.862436,0.132173,-1.52014,2.28693,1.02724,0.00578418,0.929839,0.0107878,-0.0045052,0.108662,0.0755343,-0.197151,0.0764063,0.484946,-0.139022,-0.103227,0.00229384,-0.00493757,0.0675775,
298,-3.75719,-38.2498,4.6406,24.1221,-1.7449,-0.512548,-1.34514,-0.129528,0.864244,0.129593,-1.51763,2.30469,1.02848,0.0029187,0.930095,0.0104765,-1.62412e-05,0.0794886,0.0914741,-0.125159,0.124173,0.926233,0.0692205,-0.13875,0.0199665,-0.0228407,0.295928,
299,2.51326,-36.8738,-3.50161,30.427,2.00459,-0.288003,-0.378193,-0.130262,0.865956,0.13012,-1.51651,2.30478,1.02865,0.000681891,0.930477,0.0103298,0.00254084,-0.0383671,0.0858974,0.0290548,0.0564292,-0.079991,0.00860095,-0.129823,0.0147933,-0.000936357,-0.0350368,
300,3.39749,-36.3974,-5.47226,31.5706,5.54704,-0.685859,-0.929719,-0.129757,0.867955,0.129112,-1.51428,2.30963,1.02971,-0.000541763,0.930994,0.0099357,0.0074052,0.0269914,0.100486,-0.0523622,0.11793,0.275863,0.0468771,-0.0499399,0.0199696,-0.0162875,0.173418,
301,7.01171,-27.7496,-3.11691,53.3503,25.4515,2.68842,1.93991,-0.128953,0.869971,0.127713,-1.51168,2.3215,1.03009,-0.00273046,0.931587,0.00959098,0.0106576,0.0390798,0.101175,-0.0698122,0.130662,0.621821,0.0109479,-0.11155,0.0254504,-0.0170862,0.124201,
302,0.375252,-36.726,1.98479,25.8386,-9.88263,-1.23176,0.124174,-0.127636,0.873555,0.12665,-1.50507,2.3454,1.03736,7.88425e-05,0.933113,0.00825797,0.0236854,0.0679341,0.187362,-0.0513492,0.348494,1.26301,0.354785,0.170488,0.085502,-0.0662366,0.89586,
303,1.36432,-36.8668,1.00884,28.0173,0.325303,-0.0783805,0.272577,-0.127766,0.875801,0.126678,-1.50344,2.33111,1.03596,0.000905362,0.935156,0.00778328,0.0208669,-0.00255675,0.10735,-0.00148269,0.0726859,-0.897508,-0.0531439,0.00875694,0.0985429,0.00585287,-0.763705,
304,0.568093,-36.6099,2.76571,29.3928,22.7876,-0.123212,0.877801,-0.127454,0.877745,0.126468,-1.50134,2.33158,1.03724,0.00110569,0.93686,0.00846455,0.00364777,0.0135282,0.0938225,-0.00723195,0.100416,0.115641,0.0593443,0.0230378,0.0598122,0.035557,-0.87055,
305,-3.37882,-38.6252,5.6134,22.7961,11.2502,-0.589301,0.104419,-0.127232,0.87948,0.126582,-1.49885,2.35493,1.0388,0.00244939,0.937537,0.00889033,-0.003078,0.00601584,0.0869838,0.0108316,0.119029,1.2804,0.053757,0.0834656,0.0189765,0.0116667,-0.20333,
306,3.95851,-37.247,-4.36518,29.451,7.46057,-0.456742,0.013401,-0.127735,0.880832,0.127443,-1.49766,2.37908,1.0388,0.00260982,0.937738,0.00898017,-0.00416963,-0.0281146,0.0682926,0.0432184,0.0526584,1.20761,0.00356561,0.00645054,0.00495126,0.000116576,0.0115477,
307,0.486907,-37.0647,1.91798,27.6215,8.9188,-0.16514,-0.550116,-0.126985,0.882733,0.126375,-1.49561,2.39669,1.03916,0.00268313,0.937777,0.00892801,-0.00369284,0.0413279,0.0978918,-0.0596362,0.110865,0.833854,0.0279961,-0.00267792,0.000282933,-0.00408955,0.0692857,
308,-1.69825,-39.79,2.52051,20.9258,0.571413,-0.402667,-0.10676,-0.126895,0.884574,0.126331,-1.4936,2.41588,1.04032,0.00146571,0.937765,0.00883392,-0.00290662,0.00282678,0.0915448,0.000841009,0.0974643,0.976442,0.0569846,-0.0592341,-0.00107507,-0.00489642,0.0739451,
309,-3.85923,-33.9111,9.83685,33.6426,6.41364,0.116749,-0.0643934,-0.127192,0.886061,0.12661,-1.49304,2.42025,1.04052,0.00137221,0.93774,0.00874035,-0.00217999,-0.0133752,0.0723471,0.0106955,0.0265518,0.14515,0.0318796,-0.0146534,-0.00128366,-0.00439756,0.0628106,
310,3.09422,-34.6339,-1.21577,37.0423,53.8904,-0.376419,0.216498,-0.12803,0.888472,0.128046,-1.4901,2.43373,1.04303,0.000952421,0.937722,0.00865692,-0.00152311,-0.0438912,0.125346,0.0769247,0.15472,0.717933,0.098217,-0.0224329,0.00113479,-0.00518456,0.0717105,
311,-0.771514,-36.8834,3.45925,27.1424,5.76475,0.0182101,-0.0399939,-0.127407,0.890956,0.127469,-1.48647,2.45798,1.04455,0.000608576,0.938393,0.0080499,0.00774351,0.0319156,0.123619,-0.030659,0.184465,1.26527,0.0609325,-0.00339097,0.0360844,-0.040287,0.605973,
312,-0.378464,-37.5238,2.85339,26.1742,1.48395,-0.0400632,-0.208205,-0.127545,0.892894,0.127845,-1.48449,2.47207,1.04568,0.000421067,0.938916,0.00758366,0.0132406,-0.00568605,0.0947494,0.0181814,0.0913923,0.646365,0.0859787,-0.026163,0.0208554,-0.0152917,0.171543,
313,-3.83197,-38.977,7.54362,22.4579,-6.09639,-0.24444,-1.11706,-0.127629,0.894796,0.128112,-1.48295,2.47743,1.04712,-0.000142248,0.939226,0.00754074,0.00991585,-0.00256358,0.0948553,0.0113734,0.0787784,0.22739,0.0800893,-0.0353564,0.0108405,0.00122839,-0.0660826,
314,-1.82184,-36.9839,4.5862,27.5213,4.29558,-0.365984,0.505722,-0.128415,0.896566,0.129313,-1.48221,2.46858,1.048,-0.00197723,0.939474,0.00784682,0.00496725,-0.0376952,0.0870008,0.0582393,0.0392246,-0.518632,0.0553355,-0.115683,0.00878873,0.015243,-0.249078,
315,3.97935,-35.2244,-3.60269,32.8439,16.6565,-0.21421,1.05723,-0.128686,0.898429,0.129824,-1.48028,2.47692,1.04938,-0.00137125,0.939573,0.00806658,0.00234654,-0.0171952,0.0934134,0.0286114,0.0967137,0.513076,0.0423597,0.0460192,0.00272494,0.00801247,-0.107146,
316,-2.99225,-36.5154,7.83904,27.1541,-5.65867,-0.468562,0.139165,-0.127839,0.90051,0.128751,-1.4773,2.50074,1.05109,-0.000180839,0.939987,0.00787075,0.00611762,0.0421964,0.106665,-0.0543834,0.149497,1.25378,0.0770389,0.069093,0.0313816,-0.0210814,0.391312,
317,-0.716853,-37.6276,3.76645,27.1669,6.96396,-0.0413337,-0.0192041,-0.128608,0.902753,0.129957,-1.4757,2.49455,1.05147,0.00072888,0.94064,0.00797055,0.00614913,-0.0340488,0.113729,0.0579167,0.0857383,-0.473476,0.0366757,0.0099827,0.0214395,0.0090608,-0.149235,
318,6.13186,-38.1312,-6.03522,29.3148,5.88176,0.0798325,0.00855717,-0.128689,0.904573,0.130274,-1.47367,2.50781,1.05318,0.000283462,0.940873,0.00812833,0.00438076,-0.00745476,0.0868496,0.0195455,0.0944494,0.779442,0.0743873,-0.00653598,0.00578174,0.00683437,-0.0951696,
319,5.93164,-35.8996,-3.19335,34.4473,17.5764,0.554172,0.162321,-0.127551,0.906376,0.12879,-1.47149,2.52166,1.0548,0.000215739,0.940924,0.00822892,0.00290458,0.060837,0.0895355,-0.0785632,0.110818,0.667196,0.0936726,-0.0146126,0.00245153,0.00200947,-0.0244158,
320,15.4641,-39.8747,-20.3574,25.6825,-20.7101,-1.084,-2.30623,-0.126432,0.908442,0.127629,-1.46824,2.54574,1.05821,-0.000240349,0.941281,0.00783857,0.00723783,0.0550056,0.105244,-0.0544236,0.163844,1.25935,0.157989,-0.016762,0.021893,-0.0278171,0.415721,
321,0.0582342,-39.1854,1.28225,26.1263,-24.5071,-0.117709,-0.0265315,-0.12357,0.91033,0.123602,-1.46716,2.52879,1.05698,-0.00360462,0.941979,0.00843205,-0.00541653,0.156342,0.0940316,-0.218994,0.0644553,-1.10176,-0.0229814,-0.234294,0.0287013,0.0305155,-0.50979,
322,-6.42287,-38.6635,10.9399,25.2221,-15.9332,-0.132847,-0.0554634,-0.123277,0.912221,0.123445,-1.46569,2.50628,1.05859,-0.00386577,0.942521,0.00856792,-0.00413256,0.00647479,0.0899916,-0.00022893,0.0741827,-1.1106,0.071637,-0.00715798,0.0211015,-0.00305307,0.264358,
323,-1.84887,-38.4427,7.70922,34.7885,-20.2296,0.584181,-0.0614738,-0.12442,0.913988,0.125271,-1.4643,2.48389,1.06008,-0.00408804,0.942779,0.00850643,-0.00129943,-0.0611331,0.0869042,0.0945025,0.0696371,-1.11234,0.0650959,-0.00993379,0.00807265,-0.0025107,0.0836623,
324,19.1894,-40.6921,-27.7619,31.0825,-40.3738,-0.691256,-0.737056,-0.124957,0.916169,0.126415,-1.46136,2.46195,1.06305,-0.00428869,0.94288,0.00847375,-0.000242835,-0.023618,0.105952,0.0558695,0.156712,-1.10718,0.145966,-0.0106089,0.00325516,-0.000993429,0.0219206,
325,25.0191,-37.9946,-30.5813,39.5459,-24.9257,-0.0231539,0.0110862,-0.121197,0.917715,0.120869,-1.45886,2.4402,1.06275,-0.0057474,0.942922,0.00846449,0.000113462,0.195723,0.0731447,-0.291218,0.125508,-1.10919,0.00336552,-0.0778816,0.00140611,-0.00012634,0.00186575,
326,-0.383259,-39.2463,2.39917,25.7215,13.2404,-0.0143676,-0.0387181,-0.116533,0.919744,0.114285,-1.45484,2.4182,1.06438,-0.00582163,0.942941,0.00846647,0.000202311,0.237619,0.10197,-0.329207,0.208947,-1.10895,0.0790877,-0.00328403,0.000653077,0.000227423,-0.00391479,
327,3.32189,-39.1149,-1.15664,28.1166,6.49808,-0.119816,-0.184306,-0.116085,0.9205,0.114071,-1.45231,2.43841,1.0665,-0.006712,0.94295,0.00847229,0.000196025,0.000843901,0.0359962,0.0133401,0.098501,1.27196,0.052885,-0.00858395,0.000327262,0.000317711,-0.00486287,
328,0.164985,-39.3773,2.65704,26.0567,2.80694,-0.655231,-0.230235,-0.11556,0.921681,0.113605,-1.4502,2.45421,1.06737,-0.00700247,0.942954,0.00847854,0.000161931,0.030251,0.0662473,-0.0271324,0.107587,0.735464,0.0543925,-0.0224804,0.000177003,0.000298844,-0.00430799,
329,2.38832,-38.2029,-1.03003,29.1851,3.60134,-0.603844,0.280402,-0.115533,0.923059,0.113848,-1.44854,2.46216,1.06748,-0.00745933,0.942957,0.00848396,0.000124962,0.00128513,0.0716393,0.0123557,0.0827875,0.367813,0.004811,-0.0272189,0.000102799,0.000245725,-0.00341943,
330,4.70746,-37.7712,-4.41567,30.1998,9.81796,-0.581071,0.425808,-0.115034,0.924737,0.113402,-1.44634,2.47094,1.06782,-0.00712784,0.942989,0.00846483,0.000459504,0.0257327,0.0858956,-0.0239478,0.111337,0.436646,0.0198962,0.0106578,0.00420867,-0.00327262,0.0470795,
331,-0.133487,-39.0934,3.15071,25.986,0.803399,-0.610243,-0.575208,-0.114013,0.926414,0.112214,-1.44384,2.49064,1.06865,-0.0070792,0.943468,0.00806221,0.00599271,0.0495092,0.0854273,-0.05867,0.123037,1.04231,0.032595,0.0103906,0.0280333,-0.0252726,0.381558,
332,6.26863,-37.6089,-6.67522,31.7372,10.4101,-0.0456664,1.23809,-0.11409,0.928085,0.112577,-1.44233,2.49573,1.06875,-0.00786643,0.943944,0.00794507,0.00787803,-0.00221851,0.0844013,0.017267,0.0770157,0.170609,0.0150007,-0.0639373,0.0157206,0.000773137,-0.0423657,
333,1.28142,-38.6057,1.00529,26.7432,0.689669,-0.574271,1.42757,-0.112745,0.929899,0.110974,-1.4396,2.51604,1.07072,-0.00637471,0.944903,0.00737833,0.0147813,0.0646939,0.0917272,-0.0796919,0.138229,1.1247,0.0751345,0.118899,0.0459725,-0.0151338,0.0576708,
334,2.35765,-38.7509,-0.794478,27.484,6.87077,-0.352486,-0.0195208,-0.112518,0.931683,0.110922,-1.43793,2.52088,1.07092,-0.00337342,0.945687,0.00761093,0.00471547,0.0126639,0.0898291,-0.0035381,0.0850854,0.159188,0.0198675,0.138521,0.0290991,0.0212367,-0.600072,
335,2.98301,-38.7856,-1.93069,27.8085,8.15396,-0.208403,0.0267108,-0.112006,0.933331,0.110456,-1.43595,2.53525,1.07186,-0.00361814,0.946026,0.00789684,-0.00096316,0.023654,0.0810754,-0.021453,0.0964321,0.773083,0.0412016,-0.0064937,0.0100626,0.00926668,-0.176972,
336,1.30182,-38.8347,0.431038,25.9784,-3.47132,-0.656121,0.92733,-0.111395,0.934946,0.109809,-1.43394,2.55307,1.07296,-0.003686,0.946146,0.0079995,-0.00222342,0.0301177,0.0810993,-0.0324396,0.0996466,0.902016,0.0559258,-0.00178102,0.00371006,0.00249243,-0.0334507,
337,5.44839,-37.8042,-6.20639,30.548,16.083,-0.254441,1.02225,-0.111174,0.936768,0.109735,-1.43254,2.55008,1.07299,-0.00164131,0.946192,0.0080126,-0.00215687,0.0144321,0.092374,-0.00809278,0.075265,-0.255582,0.0149084,0.0884781,0.00147103,-0.000430888,0.0117916,
338,0.549452,-38.5594,1.1379,24.3154,-14.6606,-0.845384,2.81282,-0.109981,0.938504,0.10815,-1.42986,2.57292,1.07449,-0.000150904,0.946219,0.00798337,-0.00163017,0.0552023,0.0852393,-0.0753941,0.128823,1.27175,0.0580163,0.0788186,0.0034618,-0.00432857,0.0696765,
339,0.759328,-39.4579,-0.0618729,23.6919,-6.27979,-0.589243,-0.33672,-0.109976,0.940461,0.108257,-1.42893,2.55492,1.07414,0.005655,0.946741,0.00779809,0.00721655,0.00583923,0.101201,-0.00143576,0.0555619,-1.10563,-0.00114234,0.277156,0.0154733,-0.00436158,0.178086,
340,-4.30852,-40.9569,6.78459,19.4797,-14.2804,-0.698074,-2.30777,-0.109735,0.942169,0.107975,-1.42777,2.54314,1.07461,0.00483633,0.946902,0.00780021,0.00826472,0.00963414,0.0814515,-0.0124667,0.0553104,-0.540211,0.0196094,-0.0382838,0.00359019,0.00298818,-0.0309504,
341,2.68956,-38.1097,-4.28613,29.1717,26.8432,-0.692189,-2.09811,-0.110515,0.9436,0.109123,-1.42753,2.52194,1.07456,0.000328029,0.946918,0.00789549,0.0067947,-0.0397631,0.0697485,0.0567804,0.0115021,-1.10964,0.00661017,-0.235123,-0.00076365,0.00562924,-0.0813335,
342,-2.61592,-39.1448,5.63503,25.7311,2.37919,0.0853446,0.250797,-0.1098,0.945098,0.107892,-1.42506,2.54322,1.07559,-0.0045879,0.946887,0.00800845,0.00494042,0.0281163,0.0758969,-0.0553092,0.119537,1.27992,0.00511748,-0.214743,-0.0018696,0.00539002,-0.0750346,
343,5.12039,-36.4974,-3.65666,32.0714,17.7313,-0.143044,0.203139,-0.11042,0.946675,0.108737,-1.42348,2.55135,1.07676,-0.00400588,0.94685,0.00810328,0.00341884,-0.028644,0.080177,0.0419552,0.0787628,0.326438,0.0833368,0.0208278,-0.00176075,0.00416368,-0.0555511,
344,-3.44236,-37.1567,9.51818,27.2922,22.2202,0.0645302,0.285338,-0.109609,0.948573,0.107584,-1.42057,2.5754,1.0785,-0.00392563,0.946819,0.00817276,0.00232762,0.0415378,0.0980882,-0.0558992,0.146267,1.28302,0.0655692,0.0155795,-0.00135557,0.00294408,-0.0381521,
345,1.86459,-39.3939,-1.86671,26.5859,1.00988,0.0404032,0.730031,-0.110381,0.950326,0.108992,-1.41846,2.60054,1.08027,-0.00387358,0.946861,0.00813375,0.00289305,-0.0401117,0.0890314,0.075797,0.0985938,1.25684,0.0982241,-0.0108416,0.00820008,-0.00955773,0.187956,
346,1.63854,-39.5601,-1.11014,27.1097,-2.1982,-0.200232,-0.0353445,-0.10999,0.952178,0.108632,-1.41698,2.60645,1.08161,-0.00238287,0.947172,0.00798326,0.00635582,0.0248265,0.0920764,-0.0278167,0.0799009,0.193377,0.0862891,0.0686715,0.00936921,-0.00217663,0.0585104,
347,0.320722,-40.8112,0.0941841,22.1755,-4.65199,-0.326593,-0.229924,-0.109604,0.954047,0.10822,-1.41536,2.60452,1.08292,-0.00243871,0.947275,0.00801614,0.0060476,0.0195548,0.0910625,-0.02241,0.0848243,-0.12882,0.0652498,-0.00813475,0.00269631,0.00387956,-0.0612334,
348,1.90229,-37.4749,0.188841,32.1734,-4.44017,0.405318,-0.203367,-0.109456,0.955517,0.108048,-1.41452,2.5974,1.08367,-0.00292023,0.947299,0.00811493,0.00469888,0.00690401,0.0705527,-0.00967069,0.04006,-0.376273,0.046281,-0.0275065,0.000325998,0.00531384,-0.0790569,
349,-1.87193,-40.989,3.85055,22.2959,-0.646552,-0.371136,-1.1781,-0.109141,0.957644,0.107797,-1.41194,2.59042,1.08636,-0.00342368,0.947296,0.00821565,0.00336609,0.0168423,0.107913,-0.012786,0.137566,-0.354423,0.125772,-0.0250077,-0.000377671,0.00464832,-0.0650087,
350,3.02443,-40.2711,-2.67436,24.8991,1.95847,-0.180517,-0.0311251,-0.109423,0.95893,0.108243,-1.41083,2.58994,1.08717,-0.00595827,0.947287,0.00829596,0.00233446,-0.0177117,0.0600892,0.0262453,0.0461518,0.0209958,0.0377524,-0.122426,-0.000484956,0.00348981,-0.0468146,
351,0.955416,-41.8065,-1.25697,17.7735,12.1139,-0.546068,-0.144843,-0.10889,0.960256,0.10745,-1.4094,2.59518,1.08836,-0.00619902,0.947278,0.00835401,0.00160189,0.0281134,0.0674946,-0.0409134,0.0719452,0.28192,0.0589461,-0.00768954,-0.000415151,0.00245888,-0.0321693,
352,0.00244299,-35.7936,3.99734,32.2521,15.4844,0.412362,0.21948,-0.108613,0.960932,0.106818,-1.40894,2.61872,1.08882,-0.00685336,0.947271,0.0083943,0.00109768,0.00848418,0.0340327,-0.0256025,0.010411,1.27951,0.0139741,-0.0191052,-0.000314867,0.00168948,-0.0218107,
353,-0.188588,-38.008,3.33962,26.4232,3.96952,-0.0333312,-0.0275998,-0.108798,0.962918,0.10721,-1.40619,2.64451,1.0916,-0.0065271,0.947265,0.00842184,0.000753547,-0.00819352,0.108381,0.0217693,0.147298,1.28389,0.123169,0.0172928,-0.000227407,0.00115246,-0.0147909,
354,0.686574,-38.3249,2.17088,24.9369,4.47889,-0.105637,-0.0811692,-0.108941,0.964853,0.10768,-1.40448,2.65567,1.09277,-0.00644625,0.947261,0.00844064,0.000518433,-0.00321508,0.096381,0.0197767,0.0848301,0.484883,0.0762137,-0.00719876,-0.000160804,0.000786882,-0.0100827,
355,-0.0573791,-39.3791,2.92508,20.5855,7.52305,-0.342874,-0.370862,-0.108849,0.966655,0.107832,-1.40302,2.66625,1.09412,-0.00670966,0.947259,0.0084535,0.000357099,0.00513454,0.0896097,0.00761613,0.0718006,0.533228,0.069598,-0.012763,-0.000112712,0.000539509,-0.00691646,
356,0.829135,-35.2462,3.31104,31.4145,11.2688,0.364721,0.327499,-0.108878,0.968092,0.108086,-1.40226,2.6823,1.09498,-0.00761988,0.947257,0.00846233,0.000245908,-0.00274625,0.0716771,0.0149407,0.0324067,0.834777,0.0426012,-0.0417364,-7.86587e-05,0.000371263,-0.00476427,
357,0.711674,-37.1338,2.47558,26.6608,8.88302,0.0257058,-0.0229208,-0.108817,0.970339,0.108367,-1.39962,2.70589,1.09771,-0.00718265,0.947256,0.00846841,0.000169152,0.00273073,0.117348,0.0161496,0.138031,1.20945,0.120446,0.0279445,-5.46918e-05,0.000255838,-0.00328505,
358,1.0033,-36.8262,2.57536,27.305,0.830071,0.0251632,-0.023249,-0.108721,0.972385,0.10861,-1.39777,2.72575,1.09919,-0.00724441,0.947255,0.00847261,0.000116191,0.00606252,0.101511,0.0108734,0.0898387,0.972339,0.0830436,-0.00690768,-3.78983e-05,0.000176267,-0.00226359,
359,3.45647,-37.8917,-2.96173,24.9854,8.49394,0.0229297,-0.0234723,-0.108559,0.974655,0.108965,-1.39604,2.73072,1.10072,-0.00716338,0.947254,0.0084755,7.97001e-05,0.0116023,0.11405,0.0133401,0.0913078,0.170311,0.0875224,-0.00691147,-2.61807e-05,0.000121319,-0.00155758,
360,-1.21264,-36.1106,7.27727,27.4223,17.7356,0.0284941,-0.0216647,-0.107777,0.97651,0.1081,-1.39443,2.74793,1.10244,-0.00750105,0.947254,0.00847748,5.46013e-05,0.036146,0.0904368,-0.0419038,0.0751304,0.930569,0.0818844,-0.00716763,-1.80374e-05,8.33842e-05,-0.0010701,
361,-6.98764,-36.3724,14.9727,23.5341,18.3125,0.0297521,-0.0229057,-0.108156,0.978563,0.109024,-1.3924,2.7727,1.10448,-0.00776206,0.947253,0.00847884,3.73669e-05,-0.0212849,0.105608,0.0532933,0.100905,1.27863,0.0860256,-0.00702926,-1.23989e-05,5.72294e-05,-0.000734085,
362,4.31048,-38.7214,-5.08526,22.156,-15.9465,0.0235287,-0.0341267,-0.109582,0.980529,0.111626,-1.39103,2.79809,1.10604,-0.00792086,0.947253,0.00847978,2.55505e-05,-0.0731659,0.100143,0.133728,0.0640774,1.27819,0.0810048,-0.00696437,-8.50712e-06,3.92267e-05,-0.000502921,
363,-3.15051,-36.0046,10.2052,26.6533,24.9022,0.0250258,-0.0277961,-0.108615,0.982776,0.111042,-1.3906,2.78088,1.10676,-0.00736723,0.947253,0.00848042,1.74589e-05,0.0610857,0.111092,-0.0532063,0.0323629,-1.10586,0.0881604,-0.00763661,-5.82824e-06,2.68566e-05,-0.000344176,
364,-29.0677,-39.1854,31.1151,9.81535,-45.6405,0.0231132,-0.105727,-0.109215,0.984847,0.112228,-1.38855,2.80156,1.10963,-0.00822451,0.947253,0.00848086,1.19235e-05,-0.0433733,0.102545,0.0795599,0.0956749,1.27223,0.0880006,-0.00821701,-3.9883e-06,1.83702e-05,-0.000235333,
365,10.0516,-40.5843,-13.0558,16.1262,-48.6611,0.011685,0.0431599,-0.113707,0.986468,0.119083,-1.39004,2.78337,1.10985,-0.00792089,0.947253,0.00848116,8.13992e-06,-0.236191,0.0816538,0.331601,-0.0786957,-1.10853,0.065354,-0.0144505,-2.72676e-06,1.2556e-05,-0.0001608,
366,2.55743,-37.7572,1.81301,22.6329,-14.3372,0.0195833,-0.0114321,-0.112252,0.988133,0.116429,-1.39058,2.76197,1.11123,-0.00780378,0.947253,0.00848136,5.55528e-06,0.0906054,0.0811245,-0.152441,-0.0208714,-1.11516,0.0886491,-0.000463189,-1.86299e-06,8.57697e-06,-0.000109816,
367,1.23712,-37.895,3.23285,22.3854,-13.4542,0.0174257,-0.0110583,-0.112009,0.990296,0.116126,-1.38984,2.73948,1.11358,-0.00796622,0.947253,0.0084815,3.79048e-06,0.0116177,0.108532,-0.00654414,0.0439545,-1.11661,0.0940508,-0.00622936,-1.27219e-06,5.85628e-06,-7.49672e-05,
368,0.13663,-37.7441,4.69452,23.5945,-16.2151,0.013494,-0.0107735,-0.111927,0.992398,0.116338,-1.38898,2.71713,1.11536,-0.00809134,0.947253,0.0084816,2.58591e-06,0.0053797,0.103021,0.0125384,0.0441188,-1.11561,0.0853329,-0.00597341,-8.68402e-07,3.99721e-06,-5.11614e-05,
369,0.0605692,-38.2368,4.42852,23.1477,-20.2477,0.0120107,-0.0108915,-0.111978,0.994504,0.1169,-1.38789,2.69482,1.1171,-0.00821458,0.947253,0.00848167,1.76394e-06,-0.00220289,0.10408,0.0293527,0.0563562,-1.11454,0.0825444,-0.00589005,-5.92599e-07,2.72756e-06,-3.49068e-05,
370,-2.46573,-38.1883,8.35042,23.571,-14.2064,0.0103456,-0.0114273,-0.111999,0.996494,0.11746,-1.38684,2.67254,1.11869,-0.00833132,0.947253,0.00848171,1.20315e-06,-0.000828072,0.0978844,0.0281127,0.052702,-1.11385,0.0788513,-0.00582623,-4.04321e-07,1.86091e-06,-2.38137e-05,
371,-2.40289,-38.7329,7.62124,23.8451,-13.55,0.00668682,-0.0122772,-0.112491,0.99847,0.118773,-1.38571,2.65021,1.12033,-0.00845984,0.947253,0.00848174,8.20605e-07,-0.0256795,0.0979114,0.0673802,0.057129,-1.11336,0.0773544,-0.00586674,-2.75798e-07,1.26934e-06,-1.62422e-05,
372,-2.82616,-39.1052,7.96635,24.4845,-9.63849,0.0031411,-0.0135522,-0.112948,1.00038,0.120006,-1.38454,2.62798,1.12184,-0.00857722,0.947253,0.00848176,5.5971e-07,-0.0231043,0.0939812,0.0611281,0.0591778,-1.11201,0.0749971,-0.00589645,-1.88118e-07,8.6579e-07,-1.10781e-05,
373,-2.75287,-39.4587,7.58411,25.5094,-5.9109,-0.00169899,-0.0149665,-0.113473,1.00218,0.121262,-1.38321,2.61,1.12342,-0.00876528,0.947253,0.00848177,5.18474e-07,-0.0277557,0.0886095,0.0640735,0.0665025,-0.876234,0.0730342,-0.00605632,-1.3647e-07,6.28081e-07,-8.18693e-06,
374,-1.3711,-39.786,5.52587,27.318,-0.473655,-0.00775206,-0.016856,-0.113993,1.00387,0.122419,-1.38164,2.59922,1.125,-0.00899211,0.947253,0.00848179,5.18474e-07,-0.0276652,0.0832074,0.0596599,0.0778483,-0.503904,0.0709902,-0.00620351,-1.17267e-07,5.39698e-07,-7.31451e-06,
375,-5.14179,-39.6986,10.9496,28.3125,0.426908,-0.0134649,-0.0193676,-0.114276,1.00546,0.12313,-1.37968,2.59901,1.12659,-0.00926596,0.947253,0.0084818,5.18474e-07,-0.0155975,0.0781996,0.0378136,0.097008,0.039076,0.0699509,-0.00642802,-1.10395e-07,5.08069e-07,-7.05359e-06,
376,-6.16693,-39.8961,11.6851,29.949,13.2187,-0.0267664,-0.022069,-0.115261,1.00709,0.124932,-1.37757,2.60136,1.12814,-0.00943877,0.947253,0.00848181,5.18474e-07,-0.051399,0.0811217,0.0929437,0.105868,0.13038,0.0694265,-0.00660582,-1.07955e-07,4.96838e-07,-6.97318e-06,
377,-7.51785,-39.9569,13.3592,31.9256,24.4503,-0.0459561,-0.0276811,-0.116418,1.0085,0.126771,-1.37492,2.62479,1.12989,-0.00990364,0.947253,0.00848182,5.18474e-07,-0.0637049,0.0696594,0.0985394,0.127258,1.28275,0.0667039,-0.00711517,-1.07093e-07,4.92871e-07,-6.94773e-06,
378,-8.4265,-40.3054,13.6396,33.4179,28.2952,-0.0856803,-0.0466105,-0.11791,1.01004,0.129081,-1.3721,2.65051,1.13133,-0.0100592,0.947253,0.00848183,5.18474e-07,-0.0753867,0.0779463,0.115926,0.142539,1.28652,0.0681154,-0.00746598,-1.06789e-07,4.91474e-07,-6.93949e-06,
379,-9.33531,-40.773,13.8636,34.4082,37.2611,-0.177285,-0.166597,-0.119514,1.01165,0.131491,-1.36904,2.67627,1.13273,-0.0102497,0.947253,0.00848184,5.18474e-07,-0.0814423,0.0795983,0.11989,0.154869,1.2874,0.067042,-0.00942324,-1.06683e-07,4.90984e-07,-6.93676e-06,
380,-8.76155,-42.1442,11.582,33.7347,46.4108,-0.419539,-1.03511,-0.121253,1.01324,0.133961,-1.36581,2.70203,1.13398,-0.0106783,0.947253,0.00848185,5.18474e-07,-0.0886973,0.0773916,0.122591,0.163555,1.28734,0.0600302,-0.0214735,-1.06645e-07,4.90812e-07,-6.93585e-06,
381,-11.1929,-43.1058,15.1121,36.8494,54.9675,0.0663503,-1.652,-0.122863,1.0146,0.136002,-1.3627,2.72783,1.13472,-0.0128151,0.947253,0.00848186,5.18474e-07,-0.0818152,0.0651935,0.0999389,0.156188,1.28697,0.0372266,-0.108343,-1.06632e-07,4.90752e-07,-6.93555e-06,
