DMackRus/ILQR_Mujoco_Arm_Push_Clyinder/finalTrajectory.csv
Control Number,T1,T2,T3,T4,T5,T6,T7,J1,J2,J3,J4,J5,J6,J7,Cube x,Cube y,Cube w,V1,V2,V3,V4,V5,V6,V7,Cube x V,Cube y V,Cube w V,
0,0.891455,-32.6665,2.63688,29.2935,0.275361,1.91359,-0.214272,
1,0.879609,-32.6682,2.64927,29.2898,0.290392,1.91745,-0.228373,
2,0.866747,-32.6697,2.66276,29.2862,0.306395,1.92116,-0.243347,
3,0.853636,-32.6711,2.67661,29.2831,0.322445,1.92401,-0.258283,
4,0.841993,-32.6724,2.68909,29.2808,0.33642,1.92502,-0.271113,
5,0.83496,-32.6736,2.6971,29.2801,0.344447,1.92258,-0.278039,
6,0.840039,-32.6746,2.69317,29.2822,0.337972,1.91354,-0.270686,
7,0.873279,-32.6754,2.66134,29.2896,0.301409,1.89254,-0.233614,
8,0.965852,-32.676,2.57096,29.306,0.214137,1.852,-0.145496,
9,1.1767,-32.6774,2.36531,29.3344,0.0664127,1.7844,0.00803387,
10,1.28979,-32.7178,2.29082,29.3423,0.0775722,1.81741,-0.00563835,
11,1.28996,-32.7173,2.29023,29.3407,0.0861921,1.81809,-0.0132276,
12,1.29013,-32.7167,2.28969,29.3392,0.0951718,1.8189,-0.0211385,
13,1.2903,-32.7162,2.28921,29.3377,0.104485,1.81982,-0.0293379,
14,1.29047,-32.7156,2.28879,29.3361,0.114086,1.82084,-0.0377731,
15,1.29064,-32.7151,2.28842,29.3346,0.123878,1.82193,-0.0463428,
16,1.29085,-32.7145,2.28808,29.333,0.133673,1.82304,-0.0548644,
17,1.29117,-32.7139,2.28767,29.3316,0.143127,1.82409,-0.0630119,
18,1.29209,-32.7133,2.28662,29.3302,0.151521,1.82489,-0.0701322,
19,1.29642,-32.7126,2.28181,29.3292,0.156829,1.82491,-0.0744338,
20,1.27178,-32.7186,2.3323,29.3305,0.265944,1.86987,-0.173317,
21,1.2722,-32.7178,2.33186,29.3294,0.271034,1.86981,-0.177044,
22,1.27271,-32.717,2.33119,29.3285,0.272909,1.86915,-0.177796,
23,1.2733,-32.7161,2.33021,29.3281,0.270809,1.86765,-0.174915,
24,1.27398,-32.7152,2.32889,29.328,0.264561,1.86525,-0.168273,
25,1.27476,-32.7143,2.32715,29.3283,0.253941,1.86178,-0.157705,
26,1.27573,-32.7133,2.32488,29.3292,0.238575,1.85699,-0.142906,
27,1.27741,-32.7122,2.32137,29.3308,0.217181,1.85038,-0.122808,
28,1.28287,-32.711,2.31315,29.3337,0.18589,1.84078,-0.0940106,
29,1.31065,-32.7097,2.27953,29.3395,0.128784,1.82398,-0.0426132,
30,1.32771,-32.7068,2.27363,29.3518,0.12399,1.85708,-0.193494,
31,1.32724,-32.7065,2.27297,29.3506,0.122655,1.8568,-0.187332,
32,1.32678,-32.7066,2.27223,29.3492,0.120406,1.85556,-0.176799,
33,1.32635,-32.7066,2.27145,29.3479,0.118139,1.85423,-0.166207,
34,1.32595,-32.7067,2.27062,29.3468,0.115658,1.85256,-0.154765,
35,1.3256,-32.7067,2.26972,29.3457,0.112757,1.85026,-0.141836,
36,1.32533,-32.7067,2.26869,29.3449,0.10908,1.84697,-0.126592,
37,1.32529,-32.7068,2.26732,29.3445,0.103765,1.84206,-0.10713,
38,1.32649,-32.7068,2.26435,29.345,0.0936633,1.83429,-0.0742688,
39,1.3363,-32.7064,2.25093,29.3481,0.0614751,1.82021,0.0372028,
40,1.345,-32.7037,2.25307,29.3637,0.0610999,1.85059,0.0548816,
41,1.344,-32.7041,2.25305,29.3614,0.0623515,1.85132,0.054451,
42,1.343,-32.7044,2.25303,29.3591,0.063607,1.85206,0.0540202,
43,1.342,-32.7048,2.25301,29.3569,0.0648684,1.85281,0.0535806,
44,1.341,-32.7052,2.253,29.3546,0.066138,1.85357,0.0531312,
45,1.33999,-32.7055,2.25299,29.3523,0.0674204,1.85432,0.0526726,
46,1.33899,-32.7059,2.25298,29.35,0.0687254,1.85508,0.0522057,
47,1.33798,-32.7063,2.25297,29.3477,0.0700743,1.85584,0.0517301,
48,1.337,-32.7066,2.25294,29.3454,0.0715169,1.85662,0.0512187,
49,1.33614,-32.707,2.25279,29.343,0.0731874,1.85744,0.0503904,
50,1.34484,-32.7043,2.25356,29.3643,0.0601559,1.84311,0.0623332,
51,1.34383,-32.7046,2.25355,29.362,0.0614357,1.8439,0.0618594,
52,1.34281,-32.705,2.25355,29.3597,0.0627187,1.84469,0.0613792,
53,1.34179,-32.7054,2.25354,29.3574,0.0640078,1.84548,0.0608876,
54,1.34077,-32.7058,2.25354,29.3551,0.0653055,1.84628,0.0603843,
55,1.33975,-32.7061,2.25354,29.3527,0.0666165,1.84709,0.0598694,
56,1.33872,-32.7065,2.25355,29.3504,0.0679501,1.84789,0.0593441,
57,1.3377,-32.7069,2.25355,29.3481,0.0693271,1.8487,0.0588077,
58,1.33669,-32.7072,2.25355,29.3457,0.0707951,1.84952,0.0582343,
59,1.33583,-32.7076,2.2534,29.3434,0.0724799,1.85038,0.0573583,
60,1.34504,-32.7043,2.25354,29.3645,0.0597949,1.84449,0.0661964,
61,1.344,-32.7046,2.25354,29.3622,0.0611032,1.84532,0.0656714,
62,1.34297,-32.705,2.25355,29.3598,0.0624154,1.84615,0.0651368,
63,1.34193,-32.7054,2.25356,29.3575,0.0637343,1.84698,0.0645881,
64,1.34089,-32.7058,2.25358,29.3552,0.0650623,1.84782,0.0640251,
65,1.33985,-32.7061,2.25359,29.3528,0.0664039,1.84867,0.0634479,
66,1.3388,-32.7065,2.25361,29.3504,0.0677686,1.84951,0.0628575,
67,1.33776,-32.7069,2.25363,29.3481,0.0691769,1.85037,0.062253,
68,1.33673,-32.7073,2.25364,29.3457,0.0706761,1.85123,0.0616086,
69,1.33584,-32.7077,2.25351,29.3433,0.0723901,1.85214,0.0606607,
70,1.34528,-32.7043,2.25348,29.3647,0.0593548,1.8459,0.0706623,
71,1.34423,-32.7046,2.2535,29.3623,0.0606943,1.84677,0.0700746,
72,1.34317,-32.705,2.25352,29.36,0.0620381,1.84764,0.0694753,
73,1.34211,-32.7054,2.25355,29.3576,0.063389,1.84852,0.0688589,
74,1.34105,-32.7058,2.25358,29.3552,0.0647496,1.8494,0.0682248,
75,1.33998,-32.7061,2.25361,29.3528,0.0661244,1.85029,0.0675732,
76,1.33892,-32.7065,2.25364,29.3504,0.0675228,1.85119,0.0669047,
77,1.33785,-32.7069,2.25368,29.348,0.0689655,1.85208,0.0662183,
78,1.3368,-32.7073,2.2537,29.3456,0.0704997,1.853,0.0654879,
79,1.33589,-32.7077,2.25358,29.3432,0.0722497,1.85395,0.0644475,
80,1.3456,-32.7042,2.25336,29.3649,0.0587936,1.84733,0.0759062,
81,1.34452,-32.7046,2.2534,29.3625,0.0601665,1.84825,0.0752443,
82,1.34344,-32.705,2.25343,29.3601,0.0615442,1.84917,0.0745682,
83,1.34236,-32.7054,2.25348,29.3577,0.0629295,1.85009,0.0738711,
84,1.34128,-32.7058,2.25352,29.3553,0.0643252,1.85103,0.0731519,
85,1.34019,-32.7061,2.25357,29.3529,0.0657358,1.85197,0.0724105,
86,1.33909,-32.7065,2.25362,29.3505,0.0671708,1.85291,0.0716474,
87,1.338,-32.7069,2.25368,29.348,0.0686509,1.85386,0.0708613,
88,1.33692,-32.7073,2.25371,29.3455,0.0702237,1.85483,0.0700254,
89,1.33599,-32.7077,2.25361,29.3431,0.0720144,1.85584,0.0688699,
90,1.34603,-32.7042,2.25314,29.3652,0.0580606,1.84878,0.0821815,
91,1.34493,-32.7046,2.2532,29.3627,0.0594693,1.84974,0.0814315,
92,1.34383,-32.705,2.25325,29.3603,0.0608832,1.85071,0.080664,
93,1.34272,-32.7054,2.25331,29.3579,0.0623055,1.85169,0.0798699,
94,1.34161,-32.7057,2.25337,29.3554,0.063739,1.85268,0.0790478,
95,1.34049,-32.7061,2.25344,29.3529,0.0651882,1.85367,0.0781973,
96,1.33937,-32.7065,2.25351,29.3505,0.0666629,1.85467,0.0773182,
97,1.33825,-32.7069,2.25359,29.348,0.0681836,1.85568,0.0764091,
98,1.33715,-32.7073,2.25365,29.3455,0.0697986,1.85671,0.075442,
99,1.33619,-32.7077,2.25357,29.343,0.0716342,1.85779,0.0741428,
100,1.34667,-32.7042,2.25275,29.3655,0.0570896,1.8502,0.0898614,
101,1.34554,-32.7046,2.25282,29.363,0.0585363,1.85122,0.0890069,
102,1.34442,-32.705,2.2529,29.3605,0.0599887,1.85225,0.0881303,
103,1.34328,-32.7053,2.25298,29.358,0.0614504,1.85328,0.0872196,
104,1.34214,-32.7057,2.25306,29.3555,0.0629243,1.85433,0.0862724,
105,1.341,-32.7061,2.25315,29.353,0.0644152,1.85538,0.0852878,
106,1.33985,-32.7065,2.25325,29.3505,0.0659325,1.85645,0.084265,
107,1.3387,-32.7069,2.25335,29.348,0.0674974,1.85752,0.0832018,
108,1.33756,-32.7073,2.25344,29.3454,0.0691582,1.85862,0.0820692,
109,1.33657,-32.7077,2.25338,29.3429,0.0710428,1.85976,0.0805877,
110,1.34482,-32.7019,2.25043,29.3651,0.0616198,1.84689,0.0992798,
111,1.34367,-32.7023,2.25053,29.3626,0.0631038,1.84798,0.0982943,
112,1.34251,-32.7027,2.25063,29.3601,0.0645945,1.84907,0.0972804,
113,1.34135,-32.7031,2.25074,29.3575,0.0660959,1.85018,0.0962214,
114,1.34018,-32.7035,2.25085,29.355,0.0676109,1.8513,0.0951136,
115,1.33901,-32.7039,2.25097,29.3525,0.0691443,1.85243,0.0939548,
116,1.33783,-32.7042,2.2511,29.3499,0.0707058,1.85357,0.092743,
117,1.33665,-32.7046,2.25123,29.3473,0.0723166,1.85472,0.0914749,
118,1.33549,-32.705,2.25136,29.3447,0.0740257,1.8559,0.0901194,
119,1.33447,-32.7054,2.25134,29.3421,0.0759629,1.85713,0.0883905,
120,1.34567,-32.7018,2.25,29.3655,0.0601146,1.84819,0.11156,
121,1.3445,-32.7022,2.25013,29.3629,0.0616395,1.84934,0.110428,
122,1.34332,-32.7026,2.25026,29.3603,0.0631711,1.8505,0.109259,
123,1.34213,-32.703,2.2504,29.3578,0.0647143,1.85168,0.108027,
124,1.34094,-32.7034,2.25055,29.3552,0.0662725,1.85287,0.106727,
125,1.33974,-32.7038,2.25071,29.3526,0.0678505,1.85408,0.105355,
126,1.33853,-32.7042,2.25088,29.35,0.0694584,1.8553,0.103907,
127,1.33732,-32.7045,2.25106,29.3473,0.0711178,1.85653,0.102376,
128,1.33613,-32.7049,2.25124,29.3447,0.0728786,1.85779,0.100728,
129,1.33508,-32.7053,2.25127,29.342,0.074873,1.85912,0.0986684,
130,1.34697,-32.7017,2.24938,29.3659,0.0579459,1.84915,0.128445,
131,1.34578,-32.7021,2.24955,29.3633,0.0595015,1.85037,0.127166,
132,1.34459,-32.7025,2.24973,29.3606,0.0610627,1.8516,0.125839,
133,1.34339,-32.7029,2.24992,29.358,0.0626361,1.85284,0.124423,
134,1.34219,-32.7032,2.25013,29.3554,0.0642249,1.85409,0.122909,
135,1.34097,-32.7036,2.25035,29.3527,0.0658341,1.85536,0.121287,
136,1.33976,-32.704,2.25059,29.35,0.067474,1.85663,0.119549,
137,1.33854,-32.7044,2.25084,29.3473,0.069167,1.85792,0.117684,
138,1.33733,-32.7049,2.25109,29.3446,0.070965,1.85921,0.11565,
139,1.33628,-32.7053,2.25121,29.3418,0.0730061,1.86055,0.113136,
140,1.34917,-32.7016,2.24844,29.3663,0.0544916,1.84896,0.1539,
141,1.34801,-32.702,2.24867,29.3636,0.0560514,1.85006,0.152597,
142,1.34684,-32.7025,2.24892,29.3608,0.0576374,1.85106,0.151247,
143,1.34568,-32.703,2.24919,29.358,0.0592884,1.85192,0.149782,
144,1.34451,-32.7036,2.24948,29.3551,0.0610637,1.85251,0.148186,
145,1.34353,-32.7044,2.24985,29.3524,0.0629184,1.85277,0.147225,
146,1.34274,-32.7054,2.25006,29.3497,0.065177,1.85213,0.145854,
147,1.34344,-32.7065,2.2487,29.347,0.0678882,1.84969,0.143699,
148,1.35588,-32.7081,2.23459,29.3448,0.0687355,1.84296,0.140962,
149,1.46181,-32.7116,2.11749,29.3474,0.0298955,1.81981,0.232275,
150,1.45283,-32.7062,2.14387,29.3725,0.00839552,1.81453,0.230549,
151,1.45252,-32.707,2.14328,29.3702,0.00605138,1.81445,0.245341,
152,1.45236,-32.7079,2.14254,29.3678,0.00387541,1.81433,0.258289,
153,1.45067,-32.7102,2.14417,29.3673,-0.00714399,1.8085,0.307719,
154,1.45128,-32.7115,2.14316,29.3653,-0.00207753,1.81076,0.280083,
155,1.45287,-32.7123,2.14127,29.3629,0.0125847,1.81817,0.208692,
156,1.45473,-32.7126,2.13891,29.3598,0.0295762,1.82848,0.133197,
157,1.45626,-32.7126,2.13632,29.3564,0.0385238,1.83709,0.103448,
158,1.4584,-32.7125,2.13218,29.3529,0.0328121,1.83962,0.143736,
159,1.47128,-32.7125,2.11564,29.3495,0.0142245,1.83436,0.223835,
160,1.46404,-32.7079,2.13439,29.3733,0.0167379,1.82609,0.171375,
161,1.46495,-32.7083,2.13227,29.3704,0.0160466,1.82735,0.174695,
162,1.46589,-32.7088,2.13014,29.3676,0.0153049,1.82866,0.178093,
163,1.46712,-32.7093,2.12774,29.3647,0.014696,1.83004,0.180508,
164,1.46832,-32.7098,2.12539,29.3619,0.0138453,1.83141,0.184129,
165,1.46951,-32.7103,2.12309,29.359,0.0126639,1.83275,0.189479,
166,1.47085,-32.7109,2.12069,29.3562,0.0112265,1.83401,0.196187,
167,1.47216,-32.7115,2.11837,29.3533,0.00962348,1.83514,0.204275,
168,1.47338,-32.7122,2.11634,29.3503,0.00995825,1.8366,0.204565,
169,1.47457,-32.7128,2.11497,29.3467,0.022591,1.84146,0.151309,
170,1.46199,-32.7076,2.13792,29.3705,0.0255408,1.83215,0.138044,
171,1.46298,-32.7082,2.13608,29.3678,0.0262605,1.83275,0.136276,
172,1.4638,-32.7089,2.13451,29.3652,0.027888,1.83377,0.130543,
173,1.46433,-32.7096,2.1333,29.3625,0.0295406,1.83477,0.125068,
174,1.46457,-32.7103,2.13243,29.3598,0.0313704,1.83584,0.119134,
175,1.4647,-32.711,2.13175,29.3571,0.0339547,1.83723,0.110105,
176,1.46461,-32.7118,2.13137,29.3543,0.0373813,1.83907,0.098421,
177,1.46455,-32.7126,2.13106,29.3513,0.0422593,1.84186,0.0830553,
178,1.46566,-32.7135,2.12958,29.348,0.0483637,1.84624,0.0688093,
179,1.4748,-32.7146,2.11932,29.3446,0.0485077,1.8515,0.0916279,
180,1.47228,-32.708,2.12952,29.3676,0.0352868,1.83923,0.134968,
181,1.47236,-32.7088,2.12879,29.365,0.0365652,1.84038,0.130107,
182,1.47217,-32.7096,2.12838,29.3624,0.0379719,1.84139,0.125873,
183,1.47185,-32.7104,2.12814,29.3598,0.0398163,1.8425,0.120392,
184,1.47123,-32.7112,2.12823,29.3571,0.0417989,1.84358,0.115555,
185,1.4704,-32.7119,2.12858,29.3544,0.0441176,1.8448,0.110245,
186,1.46929,-32.7127,2.12921,29.3516,0.0466976,1.84625,0.105007,
187,1.46787,-32.7133,2.13018,29.3487,0.0493321,1.84795,0.101058,
188,1.46603,-32.714,2.13156,29.3457,0.0514327,1.84978,0.101604,
189,1.46402,-32.7146,2.13307,29.3426,0.05208,1.85152,0.110608,
190,1.48234,-32.7102,2.11954,29.3729,0.0611161,1.82279,-0.0857582,
191,1.48174,-32.7109,2.11947,29.3702,0.0618474,1.82372,-0.08265,
192,1.4808,-32.7116,2.11976,29.3674,0.062601,1.82454,-0.0790525,
193,1.48014,-32.7124,2.11973,29.3647,0.0629365,1.82522,-0.0749827,
194,1.47978,-32.7132,2.11934,29.3622,0.0627635,1.82565,-0.0698906,
195,1.47964,-32.7141,2.11867,29.3598,0.06195,1.82568,-0.0626965,
196,1.47998,-32.715,2.11746,29.3576,0.0605673,1.82534,-0.0546078,
197,1.48087,-32.7159,2.1156,29.3555,0.0586226,1.82458,-0.0461676,
198,1.4822,-32.7169,2.11328,29.3536,0.0567597,1.82357,-0.0407549,
199,1.4849,-32.718,2.10967,29.3517,0.0594583,1.82386,-0.0621689,
200,1.47903,-32.71,2.12256,29.3708,0.0272236,1.83625,0.123164,
201,1.47899,-32.7109,2.1218,29.3684,0.0269994,1.8366,0.125861,
202,1.47897,-32.7117,2.12103,29.366,0.0268119,1.83699,0.128529,
203,1.47899,-32.7126,2.12021,29.3637,0.0265967,1.83738,0.131318,
204,1.47904,-32.7135,2.11936,29.3613,0.026331,1.83776,0.134276,
205,1.47915,-32.7143,2.11844,29.359,0.0260081,1.83809,0.137404,
206,1.47931,-32.7152,2.11747,29.3567,0.0256312,1.83838,0.14065,
207,1.47954,-32.7161,2.11641,29.3544,0.0252029,1.83859,0.143937,
208,1.47993,-32.7169,2.11518,29.3522,0.0246785,1.83868,0.147274,
209,1.48103,-32.7178,2.11317,29.35,0.0238781,1.83851,0.150528,
210,1.47748,-32.6707,2.11033,29.3697,0.023796,1.82468,0.148948,
211,1.47781,-32.6716,2.10917,29.3674,0.0233218,1.82498,0.15229,
212,1.4782,-32.6725,2.10795,29.3651,0.022815,1.82526,0.155677,
213,1.47864,-32.6733,2.10667,29.3629,0.0222836,1.82552,0.159068,
214,1.47914,-32.6742,2.10532,29.3606,0.0217394,1.82575,0.162395,
215,1.47972,-32.675,2.1039,29.3584,0.0212032,1.82597,0.165534,
216,1.48037,-32.6759,2.1024,29.3562,0.0207055,1.82616,0.168307,
217,1.4811,-32.6767,2.10082,29.3539,0.0202737,1.82634,0.170554,
218,1.48185,-32.6776,2.09923,29.3517,0.0199045,1.8265,0.172374,
219,1.48199,-32.6784,2.09833,29.3494,0.0197809,1.82675,0.173836,
220,1.48473,-32.6712,2.10169,29.3738,0.010022,1.8197,0.183379,
221,1.48531,-32.6721,2.10031,29.3714,0.0100258,1.8201,0.184394,
222,1.48589,-32.6729,2.09895,29.369,0.0101558,1.82054,0.184934,
223,1.48646,-32.6737,2.0976,29.3666,0.0104189,1.82104,0.184983,
224,1.48703,-32.6745,2.09628,29.3641,0.0108234,1.82158,0.184517,
225,1.48759,-32.6752,2.09497,29.3616,0.0113779,1.82218,0.1835,
226,1.48814,-32.676,2.09369,29.3591,0.0120931,1.82283,0.181868,
227,1.48867,-32.6768,2.09245,29.3565,0.0130027,1.82354,0.17944,
228,1.48908,-32.6775,2.09136,29.3538,0.0143275,1.82439,0.175273,
229,1.48856,-32.6782,2.09137,29.351,0.017557,1.82591,0.163525,
230,1.49107,-32.671,2.09507,29.3758,0.00889787,1.81888,0.1647,
231,1.49113,-32.6717,2.09437,29.373,0.0105301,1.81999,0.160351,
232,1.49111,-32.6725,2.09376,29.3701,0.0123202,1.82119,0.155599,
233,1.491,-32.6732,2.09325,29.3673,0.0142566,1.82248,0.150519,
234,1.49082,-32.6739,2.09285,29.3643,0.0163213,1.82385,0.145217,
235,1.49054,-32.6746,2.09254,29.3614,0.0184852,1.82531,0.139852,
236,1.49018,-32.6753,2.09233,29.3584,0.0207041,1.82681,0.134628,
237,1.48973,-32.676,2.09222,29.3553,0.0229401,1.82832,0.129637,
238,1.48776,-32.6767,2.09372,29.3519,0.0241829,1.82959,0.133969,
239,1.48632,-32.6773,2.09467,29.3485,0.0261928,1.83079,0.132773,
240,1.4818,-32.6697,2.10664,29.3724,0.0320935,1.82982,0.0705665,
241,1.47989,-32.6704,2.10804,29.3691,0.0327719,1.83103,0.0773008,
242,1.47797,-32.671,2.1094,29.3657,0.0327216,1.83188,0.0873271,
243,1.47605,-32.6717,2.11071,29.3625,0.0315672,1.83216,0.102322,
244,1.47506,-32.6724,2.11106,29.3594,0.0315387,1.83271,0.108908,
245,1.47403,-32.6732,2.1114,29.3564,0.0303025,1.83244,0.120572,
246,1.47309,-32.6739,2.11157,29.3535,0.0276373,1.83093,0.136846,
247,1.47259,-32.6747,2.11126,29.3506,0.0250347,1.8284,0.148419,
248,1.47294,-32.6755,2.11019,29.3478,0.0264102,1.82714,0.137841,
249,1.47424,-32.6763,2.10822,29.345,0.0300912,1.82871,0.120723,
250,1.48752,-32.6693,2.10041,29.3714,0.0291622,1.82243,0.0696101,
251,1.48694,-32.67,2.10042,29.3684,0.0314378,1.82456,0.0660916,
252,1.48629,-32.6707,2.10049,29.3653,0.0333646,1.82653,0.0643842,
253,1.48558,-32.6714,2.10061,29.3623,0.0350078,1.82838,0.0642402,
254,1.48482,-32.6721,2.10077,29.3592,0.0363847,1.83009,0.0654656,
255,1.4841,-32.6729,2.10072,29.3562,0.0339847,1.82883,0.0805629,
256,1.48362,-32.6737,2.1004,29.3534,0.0317745,1.82728,0.0929122,
257,1.48341,-32.6745,2.0998,29.3505,0.0300267,1.82558,0.101382,
258,1.4835,-32.6753,2.09909,29.3476,0.0322977,1.82661,0.0932282,
259,1.48423,-32.676,2.09764,29.3447,0.0338143,1.82768,0.0890815,
260,1.47871,-32.6687,2.11056,29.3697,0.028283,1.82337,0.0806161,
261,1.4784,-32.6694,2.11028,29.3667,0.0304635,1.82511,0.0757501,
262,1.478,-32.6701,2.11008,29.3636,0.0325981,1.82695,0.0716809,
263,1.47752,-32.6708,2.10996,29.3605,0.0346528,1.82885,0.0685622,
264,1.47696,-32.6715,2.10992,29.3574,0.0365579,1.83077,0.066682,
265,1.47633,-32.6723,2.10995,29.3543,0.0382195,1.83263,0.0663882,
266,1.47565,-32.673,2.11003,29.3512,0.0395467,1.83433,0.0679449,
267,1.47501,-32.6738,2.10987,29.3482,0.0368723,1.83288,0.0844162,
268,1.47476,-32.6746,2.10927,29.3453,0.0340163,1.83089,0.0996053,
269,1.4758,-32.6754,2.10726,29.3425,0.0309401,1.8283,0.112453,
270,1.48085,-32.6684,2.10824,29.3691,0.0247536,1.8193,0.0898162,
271,1.48095,-32.6692,2.10742,29.3662,0.0255722,1.81962,0.087825,
272,1.48114,-32.6699,2.10655,29.3633,0.0270454,1.82031,0.0826545,
273,1.48137,-32.6707,2.10568,29.3603,0.0296081,1.82182,0.0730882,
274,1.48154,-32.6714,2.10491,29.3572,0.0332103,1.82437,0.0603756,
275,1.48155,-32.6721,2.10435,29.3541,0.0371085,1.82782,0.0488617,
276,1.48125,-32.6727,2.10408,29.3509,0.0398516,1.83154,0.0456623,
277,1.48032,-32.6734,2.10436,29.3477,0.0397908,1.83451,0.0579513,
278,1.47694,-32.674,2.10723,29.3442,0.0381895,1.83646,0.0791778,
279,1.45805,-32.6742,2.12773,29.3393,0.056531,1.84456,0.0197758,
280,1.47014,-32.6675,2.12021,29.3668,0.0435742,1.82972,0.0225844,
281,1.46965,-32.6683,2.11994,29.3637,0.0419935,1.82938,0.0347399,
282,1.46925,-32.6692,2.11955,29.3607,0.0398704,1.82847,0.0483799,
283,1.46892,-32.67,2.11918,29.3576,0.0400253,1.82897,0.0525486,
284,1.46862,-32.6708,2.11876,29.3545,0.0397163,1.82888,0.0579673,
285,1.46843,-32.6716,2.11825,29.3514,0.0400588,1.8286,0.05909,
286,1.46841,-32.6725,2.11764,29.3483,0.0427108,1.82892,0.0483901,
287,1.46884,-32.6733,2.11671,29.3451,0.0490707,1.83071,0.0201333,
288,1.47181,-32.6741,2.11313,29.3421,0.0567222,1.83356,-0.014882,
289,1.49245,-32.6753,2.08962,29.3409,0.0438228,1.82939,0.027751,
290,1.49243,-32.6678,2.09856,29.3673,0.0519727,1.835,-0.0576886,
291,1.49213,-32.6685,2.09845,29.3639,0.0577027,1.83982,-0.0740574,
292,1.49189,-32.6691,2.09836,29.3605,0.0650365,1.84585,-0.0960871,
293,1.49115,-32.6697,2.09875,29.3569,0.0707219,1.85129,-0.107946,
294,1.48965,-32.6703,2.09996,29.353,0.075271,1.85715,-0.108679,
295,1.48715,-32.671,2.10186,29.3492,0.0708977,1.85782,-0.0676348,
296,1.48536,-32.6719,2.10248,29.346,0.057225,1.84981,0.000406019,
297,1.4854,-32.6729,2.10124,29.3433,0.048174,1.84191,0.0347394,
298,1.48681,-32.6738,2.09886,29.3405,0.0467866,1.83824,0.0318581,
299,1.48872,-32.6747,2.09603,29.3376,0.0459222,1.83841,0.0381537,
300,1.48481,-32.6674,2.10774,29.3632,0.0471857,1.83465,-0.0054673,
301,1.48558,-32.6683,2.10611,29.3603,0.0460704,1.83464,0.00154103,
302,1.48643,-32.6693,2.10442,29.3575,0.0452061,1.83465,0.00716845,
303,1.48731,-32.6702,2.10272,29.3546,0.044891,1.83471,0.00999239,
304,1.48819,-32.6712,2.10111,29.3518,0.0455924,1.83485,0.00770185,
305,1.48905,-32.6722,2.09962,29.3488,0.048494,1.83524,-0.00546409,
306,1.48986,-32.6733,2.09839,29.3459,0.0553873,1.83619,-0.0378049,
307,1.49066,-32.6743,2.09746,29.3428,0.0680185,1.83778,-0.0965678,
308,1.49093,-32.6755,2.09714,29.3404,0.0804077,1.83688,-0.150757,
309,1.48316,-32.6766,2.10277,29.3434,0.0284069,1.80928,0.108818,
310,1.44828,-32.6226,2.11003,29.3608,0.0438372,1.80608,0.0642269,
311,1.44955,-32.6236,2.10793,29.358,0.0432051,1.80595,0.0663812,
312,1.45084,-32.6246,2.10585,29.3553,0.043019,1.80582,0.065872,
313,1.45212,-32.6256,2.10381,29.3526,0.0435789,1.80572,0.0609419,
314,1.45338,-32.6266,2.10186,29.3499,0.0454472,1.80573,0.0484556,
315,1.4546,-32.6277,2.10007,29.3472,0.0495849,1.80604,0.023256,
316,1.45581,-32.6287,2.09843,29.3444,0.0573809,1.80698,-0.0218029,
317,1.45743,-32.6298,2.09656,29.3415,0.0695918,1.8088,-0.0904308,
318,1.46101,-32.631,2.09251,29.3392,0.0781944,1.80913,-0.143596,
319,1.4708,-32.6324,2.0793,29.3419,0.0223717,1.78915,0.108624,
320,1.45869,-32.6243,2.09733,29.3652,0.0174046,1.78404,0.0911874,
321,1.46025,-32.6252,2.09504,29.3626,0.0173236,1.78419,0.0893424,
322,1.46182,-32.6262,2.09274,29.3599,0.0172865,1.7844,0.0874459,
323,1.46338,-32.6271,2.09046,29.3573,0.0172317,1.7847,0.0860105,
324,1.46493,-32.6281,2.08821,29.3546,0.0169753,1.78504,0.0862074,
325,1.46646,-32.6291,2.08596,29.3519,0.0161408,1.78533,0.0901637,
326,1.46799,-32.6301,2.08368,29.3492,0.0140438,1.78533,0.101336,
327,1.46954,-32.6311,2.08132,29.3466,0.0098393,1.78464,0.123282,
328,1.47072,-32.6321,2.07938,29.344,0.00598649,1.78373,0.141971,
329,1.46954,-32.6333,2.08126,29.3389,0.0351074,1.79206,-0.00641255,
330,1.45831,-32.6236,2.09717,29.3652,0.0162466,1.77566,0.0790612,
331,1.45945,-32.6245,2.09547,29.3627,0.0170727,1.77588,0.0731267,
332,1.46044,-32.6254,2.09394,29.36,0.0182873,1.77629,0.0657036,
333,1.46127,-32.6264,2.09263,29.3573,0.0199482,1.77701,0.0566902,
334,1.46186,-32.6274,2.09159,29.3544,0.0221368,1.77816,0.0460851,
335,1.46215,-32.6284,2.09092,29.3512,0.0249127,1.77996,0.0343269,
336,1.46199,-32.6295,2.09075,29.3478,0.0282272,1.78261,0.0229493,
337,1.46148,-32.6306,2.09099,29.3441,0.0318457,1.78624,0.0137186,
338,1.45992,-32.6317,2.09235,29.3401,0.0348176,1.79068,0.0154151,
339,1.45619,-32.6327,2.09602,29.3359,0.0363003,1.7952,0.0344078,
340,1.45307,-32.6211,2.10194,29.3677,-0.0141177,1.76908,0.257833,
341,1.45275,-32.6226,2.10199,29.3626,-0.00814535,1.77532,0.241983,
342,1.45216,-32.6239,2.10229,29.3579,-0.00330916,1.78086,0.231841,
343,1.45153,-32.6251,2.10259,29.3535,0.000317236,1.78569,0.226576,
344,1.45096,-32.6263,2.10281,29.3495,0.00279104,1.78983,0.225467,
345,1.45051,-32.6274,2.10287,29.3458,0.00422762,1.79329,0.227435,
346,1.44936,-32.6283,2.10366,29.3423,0.00437199,1.7961,0.236946,
347,1.44853,-32.6292,2.10405,29.3392,0.00327815,1.79786,0.246826,
348,1.44771,-32.63,2.1044,29.3365,0.00147661,1.79851,0.249929,
349,1.44456,-32.6308,2.10738,29.3343,0.00364198,1.79871,0.212466,
350,1.45049,-32.6223,2.10372,29.3639,0.0058154,1.77671,0.141434,
351,1.45052,-32.6231,2.10329,29.3613,0.00673745,1.77775,0.138711,
352,1.45053,-32.6239,2.1029,29.3587,0.00778112,1.77884,0.135355,
353,1.4505,-32.6247,2.10255,29.3561,0.00901878,1.77997,0.131185,
354,1.45042,-32.6255,2.10227,29.3534,0.0105418,1.78116,0.126017,
355,1.45096,-32.6263,2.10136,29.3508,0.0121525,1.78254,0.118166,
356,1.45135,-32.6272,2.10065,29.3481,0.0144136,1.78411,0.109284,
357,1.45161,-32.628,2.10014,29.3453,0.0175761,1.78599,0.100528,
358,1.45204,-32.6289,2.0995,29.3424,0.0208324,1.78807,0.100963,
359,1.45525,-32.6298,2.09552,29.3402,0.0130633,1.7871,0.172907,
360,1.46506,-32.622,2.08759,29.3658,0.000914547,1.75437,0.0948872,
361,1.46655,-32.6229,2.08553,29.3633,-0.000744856,1.75518,0.0996624,
362,1.46802,-32.6237,2.08349,29.3609,-0.00261508,1.75596,0.105579,
363,1.46774,-32.6244,2.08334,29.3581,-0.0032369,1.75697,0.111913,
364,1.46762,-32.6251,2.083,29.3554,-0.00428826,1.75785,0.119987,
365,1.46765,-32.6259,2.08248,29.3527,-0.00592918,1.75853,0.130401,
366,1.46937,-32.6267,2.08009,29.3503,-0.00990354,1.75868,0.145592,
367,1.47081,-32.6275,2.07797,29.3478,-0.0148231,1.75838,0.164163,
368,1.47147,-32.6283,2.07673,29.3453,-0.0191924,1.7578,0.175002,
369,1.46577,-32.629,2.08301,29.3416,-0.00586567,1.76158,0.0904516,
370,1.47122,-32.6216,2.07901,29.3659,-0.0050739,1.73079,0.0597042,
371,1.47255,-32.6225,2.07712,29.3634,-0.00519741,1.72958,0.0580052,
372,1.47413,-32.6234,2.07494,29.361,-0.00533629,1.72805,0.0555118,
373,1.47659,-32.6243,2.07181,29.3586,-0.00616219,1.72639,0.0529305,
374,1.47934,-32.6252,2.06837,29.3564,-0.00690736,1.72426,0.0492032,
375,1.48241,-32.6262,2.06459,29.3542,-0.0074419,1.72157,0.0437875,
376,1.48579,-32.6272,2.0605,29.352,-0.00754786,1.71832,0.0362265,
377,1.48964,-32.6282,2.05593,29.3501,-0.00698347,1.71418,0.0258549,
378,1.4943,-32.6293,2.05054,29.3484,-0.00615636,1.70857,0.0159702,
379,1.50204,-32.6304,2.04162,29.3477,-0.0121878,1.69866,0.0409109,
380,1.50121,-32.622,2.04631,29.3719,-0.0115204,1.68345,-0.0066881,
381,1.50182,-32.6229,2.04538,29.3694,-0.0109346,1.68395,-0.00963105,
382,1.50193,-32.6238,2.04504,29.3667,-0.0101075,1.68506,-0.0117102,
383,1.50146,-32.6247,2.04537,29.364,-0.00907002,1.68689,-0.0122574,
384,1.50048,-32.6256,2.0463,29.3611,-0.00796996,1.6896,-0.0105384,
385,1.49872,-32.6265,2.04813,29.3581,-0.00677061,1.6933,-0.00544225,
386,1.49606,-32.6273,2.05096,29.3549,-0.00555654,1.69815,0.0042059,
387,1.49227,-32.6282,2.05506,29.3514,-0.00424315,1.70432,0.0189721,
388,1.48585,-32.629,2.06211,29.3475,-0.00134003,1.71223,0.0335889,
389,1.46634,-32.6297,2.08387,29.3421,0.0142048,1.72446,0.0030237,
390,1.4448,-32.6223,2.10989,29.3635,0.024079,1.7005,-0.0199554,
391,1.4455,-32.6231,2.10893,29.3604,0.0222927,1.70701,-0.00860646,
392,1.44661,-32.6239,2.10743,29.3574,0.0201326,1.71262,0.00241637,
393,1.44823,-32.6247,2.10529,29.3546,0.0176147,1.71709,0.0123862,
394,1.45045,-32.6255,2.1024,29.352,0.0147865,1.72018,0.0203613,
395,1.45336,-32.6262,2.09869,29.3497,0.0117369,1.72173,0.0252606,
396,1.45702,-32.627,2.0941,29.3477,0.00858658,1.72167,0.0260676,
397,1.46147,-32.6278,2.08861,29.3459,0.00536007,1.72009,0.0227527,
398,1.46697,-32.6286,2.08191,29.3445,0.00107038,1.71717,0.0213222,
399,1.47614,-32.6294,2.07086,29.3438,-0.0116553,1.71167,0.06,
400,1.47646,-32.6217,2.07302,29.3696,-0.0214695,1.67961,0.0633562,
401,1.47424,-32.6226,2.07515,29.3664,-0.0189082,1.6817,0.0601927,
402,1.47201,-32.6234,2.07723,29.3632,-0.0166231,1.68333,0.0582338,
403,1.47151,-32.6243,2.07733,29.3602,-0.0161402,1.68539,0.0597347,
404,1.47077,-32.6251,2.07766,29.3572,-0.0156421,1.68724,0.0621026,
405,1.46971,-32.626,2.0783,29.3541,-0.0150771,1.68893,0.0655106,
406,1.46823,-32.6268,2.07937,29.351,-0.0143554,1.69054,0.0701767,
407,1.46635,-32.6275,2.08086,29.3478,-0.0133541,1.69212,0.075946,
408,1.46299,-32.6282,2.08398,29.3444,-0.01147,1.69394,0.0830064,
409,1.4529,-32.6289,2.0945,29.3404,-0.00688222,1.69649,0.0898622,
410,1.4272,-32.5666,2.07474,29.347,0.0135153,1.6573,0.0100258,
411,1.42793,-32.5674,2.0734,29.3439,0.0124152,1.66069,0.0153432,
412,1.42867,-32.5683,2.07205,29.3408,0.011358,1.66351,0.0201881,
413,1.42729,-32.5691,2.0729,29.3378,0.0114438,1.66355,0.0238913,
414,1.42606,-32.5698,2.07358,29.3347,0.011524,1.66324,0.0273187,
415,1.42498,-32.5706,2.07411,29.3317,0.0116391,1.66242,0.0302714,
416,1.42403,-32.5715,2.07453,29.3288,0.0117684,1.66078,0.0324849,
417,1.42492,-32.5724,2.07309,29.326,0.0108921,1.66003,0.034802,
418,1.4248,-32.5732,2.07273,29.3238,0.00935408,1.65654,0.0362294,
419,1.41683,-32.5738,2.08076,29.3226,0.00614185,1.64731,0.0365574,
420,1.39226,-32.5669,2.11361,29.3419,0.0298709,1.68159,0.00508021,
421,1.39219,-32.5676,2.11337,29.3388,0.029785,1.68497,0.0082244,
422,1.39189,-32.5684,2.11342,29.3355,0.0299113,1.68922,0.0115397,
423,1.38975,-32.569,2.11534,29.3325,0.030278,1.69135,0.0156467,
424,1.38755,-32.5696,2.11738,29.3293,0.0308956,1.69451,0.0194723,
425,1.3871,-32.5704,2.11778,29.3259,0.0317572,1.70127,0.0215049,
426,1.38663,-32.5712,2.11823,29.3223,0.032872,1.70841,0.0226019,
427,1.38652,-32.5719,2.11834,29.3188,0.0343132,1.7159,0.0218484,
428,1.38725,-32.5727,2.11754,29.3153,0.0355581,1.72348,0.0223968,
429,1.39146,-32.5736,2.11277,29.3123,0.0309587,1.72981,0.0542736,
430,1.36722,-32.5661,2.14344,29.3346,0.0358826,1.72797,0.0672606,
431,1.36838,-32.5669,2.14198,29.3313,0.0354267,1.73339,0.0717565,
432,1.36978,-32.5676,2.14025,29.3281,0.0349282,1.73866,0.0754171,
433,1.37169,-32.5684,2.13797,29.3249,0.0344005,1.7438,0.0773641,
434,1.37389,-32.5691,2.13539,29.3217,0.0338614,1.7487,0.0776767,
435,1.37386,-32.5698,2.13504,29.3186,0.0334312,1.75159,0.0797588,
436,1.37426,-32.5704,2.13423,29.3156,0.0329822,1.75458,0.0795043,
437,1.37756,-32.5712,2.13046,29.3125,0.0325545,1.75948,0.0718353,
438,1.38173,-32.572,2.12572,29.3095,0.0318297,1.76491,0.0627551,
439,1.38939,-32.5728,2.11704,29.3066,0.0268133,1.77117,0.0749614,
440,1.3786,-32.5665,2.13201,29.331,0.0422156,1.75514,0.0497957,
441,1.37965,-32.5673,2.13053,29.3281,0.0421345,1.75661,0.0465079,
442,1.38052,-32.5681,2.12925,29.3253,0.0422281,1.7581,0.0424853,
443,1.3795,-32.5688,2.12983,29.3225,0.0423651,1.75708,0.0397101,
444,1.37817,-32.5695,2.13077,29.3197,0.0430729,1.75642,0.0345154,
445,1.378,-32.5702,2.13069,29.3167,0.0445504,1.759,0.0268376,
446,1.37722,-32.5709,2.13133,29.3135,0.0467617,1.76267,0.0201419,
447,1.37557,-32.5717,2.13301,29.3099,0.0496311,1.76788,0.0195185,
448,1.37203,-32.5724,2.13678,29.306,0.0502484,1.77444,0.0497632,
449,1.35797,-32.5729,2.1515,29.3023,0.0368685,1.77802,0.193004,
450,1.36613,-32.5663,2.1447,29.3325,0.022288,1.74681,0.158863,
451,1.36563,-32.5671,2.14513,29.3291,0.0223771,1.75026,0.165143,
452,1.36493,-32.568,2.14585,29.3257,0.0226772,1.75429,0.1717,
453,1.36412,-32.5689,2.14673,29.3223,0.0231547,1.75884,0.17843,
454,1.36336,-32.5698,2.14761,29.3188,0.0237374,1.76374,0.185253,
455,1.35794,-32.5708,2.15335,29.315,0.0238373,1.76704,0.206324,
456,1.35223,-32.5717,2.15947,29.3111,0.0237418,1.7704,0.230476,
457,1.35102,-32.5729,2.16091,29.3078,0.0235277,1.77385,0.241797,
458,1.34971,-32.5741,2.1625,29.305,0.0238349,1.77444,0.240218,
459,1.35001,-32.5753,2.16305,29.302,0.0429174,1.77543,0.105325,
460,1.35316,-32.567,2.16213,29.3268,0.0502239,1.80026,0.0872077,
461,1.35392,-32.5677,2.16124,29.3235,0.0515866,1.80597,0.0833712,
462,1.35495,-32.5685,2.16007,29.3202,0.0532803,1.8118,0.077314,
463,1.35631,-32.5692,2.15855,29.3169,0.0555101,1.81781,0.0681545,
464,1.35146,-32.5698,2.1636,29.3132,0.0555793,1.82306,0.0831668,
465,1.34606,-32.5703,2.16914,29.3095,0.0540809,1.82784,0.10468,
466,1.34649,-32.5709,2.16854,29.3062,0.0552964,1.83358,0.0995419,
467,1.3473,-32.5715,2.16749,29.3029,0.0566166,1.83946,0.0913957,
468,1.34984,-32.572,2.16452,29.2997,0.0571361,1.84555,0.0825426,
469,1.35812,-32.5726,2.15493,29.2971,0.0480791,1.85105,0.123399,
470,1.36921,-32.5675,2.14395,29.3283,0.0350919,1.78535,0.0922103,
471,1.3678,-32.5682,2.14529,29.3248,0.0356036,1.79057,0.0998163,
472,1.36548,-32.5688,2.14739,29.3213,0.0312572,1.79211,0.120793,
473,1.36459,-32.5695,2.14792,29.3179,0.0266108,1.79286,0.137122,
474,1.36497,-32.5702,2.14708,29.3146,0.0219325,1.79302,0.14898,
475,1.36743,-32.5709,2.14421,29.3115,0.0213145,1.7954,0.145282,
476,1.3698,-32.5716,2.14147,29.3083,0.0208016,1.79748,0.142858,
477,1.37204,-32.5723,2.13888,29.3052,0.0205003,1.79925,0.141496,
478,1.37394,-32.5729,2.13671,29.302,0.0205711,1.80077,0.141424,
479,1.37433,-32.5736,2.13622,29.2988,0.0213335,1.8022,0.143683,
480,1.38412,-32.5658,2.1274,29.3324,0.0249211,1.77193,0.0737243,
481,1.38268,-32.5664,2.1288,29.3289,0.0247365,1.77483,0.0857262,
482,1.38082,-32.567,2.13062,29.3254,0.0235226,1.77675,0.102107,
483,1.37817,-32.5677,2.13304,29.3221,0.0173542,1.77476,0.132175,
484,1.37697,-32.5684,2.13386,29.3189,0.0101151,1.77111,0.159562,
485,1.37771,-32.5692,2.13257,29.3159,0.00187358,1.7656,0.182274,
486,1.38186,-32.57,2.12775,29.3133,-0.00328244,1.761,0.185628,
487,1.38843,-32.5707,2.12036,29.311,-0.00774104,1.75575,0.179566,
488,1.39664,-32.5714,2.11132,29.3089,-0.00999269,1.75046,0.163099,
489,1.40092,-32.572,2.10703,29.307,-0.00227102,1.7469,0.104142,
490,1.39666,-32.5642,2.11336,29.3379,0.0153647,1.74485,0.0268581,
491,1.39875,-32.5648,2.1111,29.3347,0.0173583,1.74765,0.0221497,
492,1.39752,-32.5653,2.11241,29.331,0.0187427,1.75088,0.0314797,
493,1.38409,-32.5652,2.12629,29.3261,0.0089689,1.74807,0.10915,
494,1.36775,-32.5644,2.14215,29.3212,-0.0255135,1.72437,0.252116,
495,1.39163,-32.5641,2.11436,29.3205,-0.0706719,1.67938,0.276857,
496,1.45111,-32.5653,2.05086,29.3219,-0.0652336,1.66983,0.0790964,
497,1.49391,-32.5662,2.00686,29.3197,-0.0310039,1.69503,-0.100082,
498,1.50131,-32.5656,2.00122,29.3122,0.00399046,1.74284,-0.121809,
499,1.46299,-32.5629,2.04256,29.3008,-0.0152555,1.79903,0.257396,
500,1.40016,-32.5614,2.10829,29.3363,-0.0105628,1.7062,0.137868,
501,1.40604,-32.5619,2.10175,29.333,-0.0154057,1.70218,0.149824,
502,1.41229,-32.5624,2.09482,29.3298,-0.0204459,1.69744,0.161376,
503,1.42678,-32.5629,2.07896,29.3268,-0.0284921,1.68784,0.168278,
504,1.442,-32.5633,2.06234,29.3241,-0.0366953,1.67668,0.172614,
505,1.44912,-32.5639,2.05456,29.3213,-0.0420281,1.66858,0.17997,
506,1.45655,-32.5645,2.04647,29.3187,-0.0472654,1.6595,0.184636,
507,1.46427,-32.5652,2.03812,29.3163,-0.0521146,1.64962,0.185389,
508,1.47163,-32.5658,2.03021,29.3139,-0.056075,1.63952,0.182492,
509,1.47848,-32.5665,2.02295,29.3113,-0.057985,1.63007,0.173024,
510,1.45132,-32.4982,1.99288,29.3129,0.00378073,1.68801,-0.0610463,
511,1.45966,-32.4988,1.9838,29.3101,-0.00182946,1.67717,-0.0532322,
512,1.46626,-32.4995,1.97662,29.3073,-0.00742309,1.66558,-0.0420329,
513,1.47072,-32.5001,1.97172,29.3044,-0.013654,1.65258,-0.0232655,
514,1.47234,-32.5008,1.96983,29.3016,-0.0218106,1.63685,0.00953178,
515,1.47072,-32.5015,1.97127,29.2988,-0.0345874,1.61531,0.0655517,
516,1.46787,-32.5023,1.97365,29.2965,-0.056295,1.58143,0.148761,
517,1.47382,-32.5033,1.96609,29.2962,-0.0866813,1.52752,0.218992,
518,1.49806,-32.5045,1.93885,29.2992,-0.112214,1.45547,0.198293,
519,1.48795,-32.5046,1.95054,29.3051,-0.112479,1.39044,0.172465,
520,1.39287,-32.4979,2.05148,29.3423,-0.107123,1.42458,0.222159,
521,1.4243,-32.4986,2.01759,29.3451,-0.108816,1.39687,0.1337,
522,1.46442,-32.4991,1.97507,29.3501,-0.101879,1.36392,0.00645109,
523,1.51012,-32.4992,1.92758,29.3581,-0.0878754,1.31425,-0.139179,
524,1.52852,-32.4988,1.90982,29.3651,-0.0771618,1.25331,-0.178981,
525,1.49948,-32.4981,1.94172,29.3672,-0.0884994,1.19276,-0.0388942,
526,1.44697,-32.4978,1.99642,29.3645,-0.123189,1.15091,0.172872,
527,1.41065,-32.4981,2.03264,29.3608,-0.15922,1.12683,0.296472,
528,1.39925,-32.499,2.04247,29.3548,-0.173983,1.13912,0.303064,
529,1.38244,-32.4997,2.05907,29.3437,-0.180711,1.20015,0.455608,
530,1.27737,-32.4949,2.18151,29.3312,-0.0150719,1.50983,0.40243,
531,1.27673,-32.4949,2.18115,29.3299,-0.0212221,1.49316,0.412266,
532,1.27616,-32.495,2.18065,29.3269,-0.0235648,1.49141,0.415196,
533,1.27439,-32.4951,2.18145,29.3231,-0.0244797,1.49511,0.418053,
534,1.27333,-32.4952,2.18153,29.3183,-0.0232256,1.50761,0.415831,
535,1.27182,-32.4953,2.18224,29.3125,-0.0200034,1.52749,0.412318,
536,1.26418,-32.4952,2.18965,29.3069,-0.0179367,1.53986,0.424405,
537,1.25504,-32.4952,2.19897,29.3,-0.0128017,1.56178,0.440421,
538,1.24411,-32.4953,2.21054,29.2919,-0.00601832,1.59076,0.47539,
539,1.22995,-32.4952,2.22531,29.2847,-0.015627,1.61181,0.630446,
540,1.19115,-32.4932,2.26996,29.301,0.0269638,1.69085,0.455773,
541,1.19096,-32.4938,2.27004,29.2958,0.0274195,1.70409,0.463181,
542,1.19111,-32.4944,2.26977,29.2904,0.0279721,1.7195,0.470125,
543,1.1958,-32.4951,2.26459,29.2849,0.028286,1.73717,0.468074,
544,1.20774,-32.4961,2.25161,29.2796,0.0286829,1.75696,0.45061,
545,1.20936,-32.4968,2.24964,29.2737,0.0284316,1.77399,0.458339,
546,1.21915,-32.4978,2.23894,29.2677,0.0298432,1.79503,0.447359,
547,1.24587,-32.4994,2.21067,29.2603,0.04425,1.83182,0.388964,
548,1.24299,-32.5001,2.21455,29.2492,0.0640126,1.8755,0.416216,
549,1.24133,-32.4999,2.21525,29.2399,0.0595153,1.8968,0.507914,
550,1.43395,-32.4975,2.01086,29.3179,-0.00229973,1.80205,-0.0499443,
551,1.40337,-32.4971,2.04408,29.3079,0.0104431,1.82004,0.0232529,
552,1.361,-32.496,2.08923,29.2976,0.014392,1.82908,0.131258,
553,1.32436,-32.4948,2.1272,29.2897,0.00520349,1.82333,0.229499,
554,1.31928,-32.4945,2.1306,29.2873,-0.0120395,1.806,0.240548,
555,1.35027,-32.4964,2.09707,29.2894,-0.00861514,1.80455,0.135195,
556,1.37233,-32.4984,2.07417,29.2895,0.0078089,1.81501,0.0444814,
557,1.38058,-32.4998,2.06618,29.2873,0.0278292,1.82842,-0.0118772,
558,1.37758,-32.5005,2.06978,29.2821,0.049982,1.84497,-0.0412227,
559,1.3277,-32.4994,2.12307,29.2725,0.0590913,1.8701,0.115946,
560,1.28502,-32.4953,2.17151,29.2973,0.0523395,1.80805,0.114134,
561,1.284,-32.496,2.17201,29.294,0.0508359,1.80911,0.123324,
562,1.28307,-32.4967,2.17239,29.2907,0.0491844,1.81011,0.133275,
563,1.28361,-32.4973,2.17067,29.2866,0.044912,1.81005,0.146464,
564,1.28424,-32.498,2.16882,29.2825,0.0403603,1.80974,0.160958,
565,1.28503,-32.4987,2.16677,29.2783,0.0354889,1.80904,0.176785,
566,1.28605,-32.4994,2.16443,29.2742,0.0302479,1.80773,0.193906,
567,1.28604,-32.5004,2.16374,29.2709,0.0274324,1.80665,0.208344,
568,1.28664,-32.5015,2.16237,29.2677,0.0243084,1.80454,0.222603,
569,1.28835,-32.5027,2.1598,29.2648,0.0212673,1.80116,0.233844,
570,1.47544,-32.5001,1.95938,29.3295,-0.0509175,1.7161,-0.178735,
571,1.47744,-32.501,1.95594,29.3258,-0.057147,1.71295,-0.157948,
572,1.48044,-32.502,1.9515,29.3226,-0.0638608,1.70808,-0.139782,
573,1.48456,-32.5032,1.94581,29.3199,-0.0716682,1.70111,-0.122356,
574,1.4904,-32.5045,1.93822,29.3179,-0.0811123,1.69143,-0.107026,
575,1.49695,-32.506,1.93034,29.3175,-0.08957,1.68085,-0.101011,
576,1.50714,-32.5075,1.91836,29.3184,-0.101658,1.66669,-0.103181,
577,1.52379,-32.509,1.89909,29.3213,-0.120242,1.6475,-0.119597,
578,1.56054,-32.5105,1.85698,29.3277,-0.153989,1.61664,-0.16966,
579,1.68088,-32.513,1.72349,29.3406,-0.1971,1.57308,-0.39963,
580,1.40775,-32.4988,2.03735,29.308,0.0104737,1.82866,-0.0454457,
581,1.42444,-32.5002,2.01811,29.309,0.000164038,1.81679,-0.0873588,
582,1.43452,-32.5013,2.00666,29.3093,-0.00501207,1.81027,-0.121209,
583,1.44177,-32.5024,1.99846,29.3092,-0.00783289,1.8063,-0.154193,
584,1.44904,-32.5034,1.99006,29.3088,-0.0103566,1.80317,-0.194548,
585,1.45151,-32.5042,1.98703,29.3073,-0.00940668,1.80375,-0.233156,
586,1.445,-32.5048,1.99411,29.3042,-0.00216334,1.81013,-0.260279,
587,1.4228,-32.5051,2.01902,29.2984,0.0163004,1.82486,-0.256887,
588,1.3837,-32.5052,2.06288,29.2902,0.0468553,1.84607,-0.238836,
589,1.2966,-32.5047,2.16013,29.278,0.102432,1.87616,-0.222257,
590,1.08718,-32.4897,2.38,29.2859,0.0638537,1.76094,0.384928,
591,1.08651,-32.4906,2.38032,29.2839,0.0634864,1.75999,0.352837,
592,1.08063,-32.4914,2.38661,29.2813,0.0669427,1.76024,0.326163,
593,1.06684,-32.4919,2.4018,29.2774,0.076452,1.76479,0.312854,
594,1.04443,-32.492,2.42683,29.2722,0.0930022,1.77484,0.335749,
595,1.02027,-32.492,2.45405,29.267,0.111888,1.78663,0.403166,
596,1.00483,-32.492,2.47166,29.2634,0.125731,1.79517,0.500029,
597,1.00587,-32.4924,2.47079,29.2628,0.127802,1.79393,0.594441,
598,1.02456,-32.4933,2.45003,29.2653,0.117282,1.78145,0.654184,
599,1.05184,-32.4945,2.41946,29.2696,0.100377,1.76107,0.659305,
600,1.36314,-32.4922,2.08463,29.3292,0.030056,1.74645,0.100438,
601,1.36186,-32.493,2.08571,29.3275,0.0311665,1.74398,0.106773,
602,1.36283,-32.4938,2.08432,29.3263,0.0314536,1.74156,0.106886,
603,1.36486,-32.4946,2.08171,29.3254,0.0308473,1.73763,0.105633,
604,1.36803,-32.4953,2.07781,29.3248,0.0294216,1.73244,0.10258,
605,1.37287,-32.496,2.07182,29.3251,0.0258059,1.72071,0.0994883,
606,1.37962,-32.4966,2.06361,29.3258,0.0214965,1.70747,0.0911731,
607,1.38788,-32.497,2.05366,29.3265,0.0177591,1.69465,0.0766034,
608,1.39555,-32.4972,2.04429,29.3263,0.016767,1.68652,0.0626052,
609,1.39261,-32.4973,2.04642,29.3237,0.0121034,1.69209,0.129109,
610,1.39006,-32.4235,1.98288,29.3245,-0.0645015,1.60173,0.0537248,
611,1.39441,-32.4244,1.97764,29.3243,-0.0669436,1.59381,0.0539162,
612,1.39743,-32.4253,1.97387,29.324,-0.0690903,1.58566,0.0562092,
613,1.3991,-32.4261,1.97095,29.3245,-0.0744654,1.56672,0.0645005,
614,1.39938,-32.4269,1.96956,29.3249,-0.0793726,1.54817,0.073764,
615,1.3977,-32.4276,1.97035,29.325,-0.0834538,1.53055,0.0844107,
616,1.3934,-32.4284,1.97407,29.3246,-0.0862967,1.51448,0.0969856,
617,1.38578,-32.4291,1.98154,29.3236,-0.087494,1.50059,0.112228,
618,1.37505,-32.4299,1.99332,29.321,-0.0824475,1.50067,0.126477,
619,1.36079,-32.4308,2.00924,29.3176,-0.0748215,1.50431,0.144376,
620,1.24701,-32.4223,2.13793,29.318,-0.0247267,1.55681,0.300606,
621,1.24628,-32.4233,2.13884,29.3161,-0.0228308,1.5579,0.298944,
622,1.24467,-32.4243,2.14085,29.3139,-0.0195327,1.56146,0.297116,
623,1.24316,-32.4254,2.1429,29.3114,-0.0149617,1.56781,0.29341,
624,1.24086,-32.4264,2.14596,29.3086,-0.00901284,1.57686,0.2898,
625,1.23339,-32.4272,2.15373,29.3062,-0.00710759,1.5736,0.294901,
626,1.22426,-32.428,2.16351,29.3031,-0.00305094,1.5744,0.301482,
627,1.21356,-32.4287,2.17517,29.2995,0.0031153,1.57865,0.310749,
628,1.2014,-32.4293,2.18857,29.2957,0.0111953,1.58473,0.32333,
629,1.18818,-32.4299,2.20328,29.2923,0.0216321,1.58913,0.328608,
630,1.26334,-32.4237,2.12494,29.3097,-0.0180545,1.6519,0.312683,
631,1.25833,-32.4245,2.13078,29.3076,-0.0128634,1.65708,0.316419,
632,1.25425,-32.4253,2.13576,29.3054,-0.00703157,1.66438,0.318486,
633,1.25184,-32.4262,2.13904,29.3034,-0.000916788,1.67334,0.318214,
634,1.25209,-32.4272,2.13952,29.3015,0.00502109,1.68338,0.314687,
635,1.25628,-32.4283,2.13578,29.3001,0.0102341,1.69387,0.306534,
636,1.25249,-32.4291,2.14022,29.2983,0.0140804,1.69812,0.308264,
637,1.25361,-32.4301,2.13941,29.2969,0.0171248,1.70314,0.304055,
638,1.26178,-32.4314,2.131,29.2962,0.0190727,1.70843,0.290775,
639,1.27997,-32.433,2.11179,29.2964,0.0200611,1.71371,0.263952,
640,1.26006,-32.4257,2.13384,29.3043,0.0073336,1.71899,0.216149,
641,1.27483,-32.4272,2.11852,29.3038,0.010954,1.7281,0.190687,
642,1.29362,-32.4288,2.09873,29.304,0.0133959,1.7352,0.158511,
643,1.31751,-32.4304,2.07337,29.305,0.0153292,1.74089,0.116411,
644,1.32089,-32.4314,2.07006,29.3036,0.0208767,1.74617,0.103118,
645,1.32206,-32.4323,2.06917,29.3017,0.0278371,1.75177,0.0936016,
646,1.34221,-32.4337,2.04812,29.3017,0.038626,1.7613,0.0449405,
647,1.34416,-32.4345,2.04714,29.2988,0.0590165,1.77626,0.0193372,
648,1.31602,-32.4349,2.07899,29.2925,0.0875518,1.79342,0.0395597,
649,1.23532,-32.4345,2.16733,29.2842,0.110341,1.79387,0.131248,
650,1.1884,-32.4281,2.21552,29.2899,0.0756567,1.7925,0.112003,
651,1.19364,-32.4292,2.20943,29.2902,0.0695271,1.78283,0.117347,
652,1.20485,-32.4302,2.1974,29.2905,0.071081,1.7815,0.0989125,
653,1.21838,-32.431,2.18299,29.2909,0.0749461,1.78294,0.0713469,
654,1.23153,-32.4317,2.16918,29.2906,0.0826824,1.78928,0.0355073,
655,1.23978,-32.4322,2.16083,29.2889,0.094739,1.80168,-0.00444974,
656,1.24008,-32.4329,2.1608,29.2862,0.103892,1.81223,-0.0313777,
657,1.22838,-32.4335,2.17387,29.2815,0.117001,1.82711,-0.0470624,
658,1.20282,-32.4342,2.20173,29.2755,0.128784,1.83905,-0.0283343,
659,1.19006,-32.4352,2.21525,29.2699,0.134287,1.84357,0.00958552,
660,1.16336,-32.4281,2.2495,29.2768,0.173936,1.87305,0.0563314,
661,1.14824,-32.4284,2.26596,29.2743,0.177969,1.87208,0.114017,
662,1.16145,-32.4293,2.25099,29.2763,0.166859,1.85651,0.15429,
663,1.2093,-32.4313,2.19829,29.2813,0.152752,1.83641,0.12858,
664,1.27329,-32.4347,2.12869,29.2834,0.162373,1.82812,0.01156,
665,1.24498,-32.4365,2.15976,29.2714,0.205879,1.84036,-0.00419702,
666,1.14119,-32.4359,2.27144,29.2544,0.232585,1.841,0.151165,
667,1.06437,-32.4347,2.35238,29.2454,0.219015,1.81737,0.323088,
668,1.05265,-32.4344,2.36292,29.2438,0.194121,1.79365,0.391434,
669,1.03123,-32.4343,2.38708,29.2388,0.208743,1.81394,0.420622,
670,1.20525,-32.4296,2.20205,29.2802,0.149305,1.83649,0.191113,
671,1.16985,-32.4296,2.24041,29.2728,0.162097,1.84446,0.240425,
672,1.12943,-32.4294,2.28429,29.265,0.174914,1.85412,0.302982,
673,1.1046,-32.4294,2.31128,29.2603,0.181008,1.86029,0.352671,
674,1.08093,-32.4294,2.33681,29.2562,0.182488,1.86228,0.411735,
675,1.06337,-32.4297,2.35537,29.2538,0.175847,1.85649,0.476646,
676,1.06589,-32.4304,2.35173,29.2549,0.158128,1.83994,0.525586,
677,1.11631,-32.4322,2.29662,29.2619,0.14035,1.82231,0.491491,
678,1.17182,-32.4343,2.23754,29.2677,0.147938,1.82342,0.421228,
679,1.1845,-32.4357,2.22431,29.2702,0.155303,1.8111,0.374998,
680,1.21297,-32.4298,2.19433,29.2803,0.158183,1.84674,0.188902,
681,1.20823,-32.4312,2.19907,29.2791,0.154513,1.83539,0.228998,
682,1.21478,-32.4329,2.19114,29.28,0.142932,1.81541,0.257403,
683,1.2381,-32.4346,2.16478,29.2836,0.124941,1.79007,0.254896,
684,1.26955,-32.4353,2.13079,29.2865,0.124481,1.79165,0.181427,
685,1.2935,-32.4354,2.10572,29.2872,0.137423,1.8105,0.0974457,
686,1.29652,-32.4352,2.10384,29.2842,0.161646,1.84201,0.0467756,
687,1.27708,-32.435,2.12632,29.2778,0.188291,1.87707,0.0521233,
688,1.24609,-32.4354,2.16007,29.2705,0.196614,1.89851,0.116815,
689,1.26439,-32.437,2.1387,29.2656,0.180122,1.90426,0.191651,
690,1.2166,-32.4291,2.19359,29.2667,0.205133,1.93347,0.213963,
691,1.18855,-32.4291,2.22386,29.2618,0.209865,1.93555,0.267279,
692,1.17048,-32.4293,2.24292,29.259,0.206948,1.93018,0.303718,
693,1.18889,-32.4304,2.2218,29.2621,0.193319,1.91247,0.273918,
694,1.22734,-32.432,2.17945,29.2665,0.19255,1.90355,0.202641,
695,1.22052,-32.4323,2.18725,29.2626,0.215569,1.91611,0.208901,
696,1.17106,-32.4314,2.24116,29.2535,0.237182,1.92756,0.288995,
697,1.13664,-32.4307,2.27795,29.2485,0.240868,1.92062,0.330447,
698,1.13227,-32.4311,2.28257,29.248,0.248479,1.91107,0.2886,
699,1.07421,-32.4314,2.34793,29.2447,0.289138,1.92327,0.262989,
700,1.25736,-32.4293,2.14236,29.2826,0.163879,1.86031,0.0478708,
701,1.24577,-32.4299,2.15486,29.2796,0.169549,1.86406,0.0714179,
702,1.24859,-32.4305,2.15174,29.279,0.171261,1.86504,0.072071,
703,1.25375,-32.4311,2.14603,29.2789,0.172065,1.86526,0.06831,
704,1.2624,-32.4317,2.13652,29.2795,0.172047,1.86494,0.0565924,
705,1.27499,-32.4321,2.12273,29.2808,0.171965,1.86504,0.032682,
706,1.28943,-32.4324,2.10702,29.2822,0.173934,1.8678,-0.00575009,
707,1.29819,-32.4324,2.09765,29.2824,0.181184,1.87643,-0.050859,
708,1.28501,-32.4328,2.11176,29.279,0.186869,1.88344,-0.0324574,
709,1.29512,-32.4337,2.10011,29.2766,0.185476,1.88578,-0.0171327,
710,1.11886,-32.3548,2.23652,29.2355,0.298215,1.92116,0.0958641,
711,1.09492,-32.355,2.26326,29.2299,0.318083,1.94143,0.0585883,
712,1.04945,-32.3549,2.3131,29.2218,0.337151,1.95974,0.0719283,
713,0.994961,-32.3548,2.372,29.2134,0.345855,1.96595,0.152282,
714,0.949977,-32.355,2.41973,29.2077,0.339194,1.95697,0.262871,
715,0.938559,-32.3559,2.42972,29.2085,0.305594,1.92284,0.387421,
716,0.9791,-32.3575,2.38245,29.2177,0.249929,1.8694,0.458773,
717,1.06602,-32.3597,2.28502,29.2332,0.191912,1.81318,0.438448,
718,1.16809,-32.362,2.17246,29.2493,0.154847,1.77347,0.338235,
719,1.25504,-32.364,2.07736,29.2619,0.137747,1.75017,0.217665,
720,1.26987,-32.3577,2.06362,29.2659,0.169713,1.79163,0.154702,
721,1.28827,-32.3585,2.0437,29.2678,0.174405,1.78834,0.131453,
722,1.29933,-32.3591,2.03186,29.2687,0.183104,1.78656,0.120957,
723,1.29297,-32.3594,2.03908,29.2671,0.197962,1.78813,0.138385,
724,1.26619,-32.3594,2.06847,29.2629,0.217248,1.79096,0.190793,
725,1.21803,-32.3591,2.1205,29.2565,0.229157,1.78894,0.279384,
726,1.17475,-32.359,2.16638,29.2518,0.22531,1.77419,0.364267,
727,1.1544,-32.3595,2.18678,29.251,0.208095,1.74584,0.41342,
728,1.15926,-32.3604,2.18005,29.2537,0.190733,1.71188,0.405061,
729,1.13699,-32.3612,2.20483,29.2549,0.202517,1.69219,0.36049,
730,1.13971,-32.3553,2.20149,29.2576,0.193502,1.73112,0.33813,
731,1.14107,-32.3559,2.19967,29.2585,0.190747,1.72129,0.340006,
732,1.1417,-32.3565,2.19865,29.2594,0.188363,1.71129,0.341671,
733,1.1412,-32.357,2.19888,29.2602,0.186593,1.70158,0.342999,
734,1.13975,-32.3576,2.20037,29.2604,0.187081,1.6969,0.340135,
735,1.13621,-32.3581,2.20423,29.2601,0.188913,1.69482,0.336568,
736,1.13035,-32.3585,2.21072,29.2591,0.192326,1.69664,0.33227,
737,1.12239,-32.359,2.2196,29.2569,0.197275,1.70398,0.329059,
738,1.11318,-32.3594,2.22964,29.2539,0.20121,1.71301,0.342201,
739,1.11801,-32.3602,2.22402,29.2497,0.195699,1.72771,0.43094,
740,1.10402,-32.3524,2.24174,29.2519,0.21474,1.73044,0.433056,
741,1.10277,-32.3531,2.24333,29.2509,0.216068,1.72968,0.437486,
742,1.10419,-32.3538,2.24224,29.2498,0.218336,1.73479,0.434249,
743,1.10615,-32.3546,2.24055,29.2487,0.220429,1.74012,0.43037,
744,1.10962,-32.3554,2.23719,29.2478,0.222078,1.74577,0.424535,
745,1.11395,-32.3562,2.23285,29.2469,0.223312,1.7515,0.417641,
746,1.11554,-32.3569,2.2312,29.2464,0.223352,1.74994,0.420826,
747,1.11821,-32.3576,2.22832,29.2459,0.22314,1.74858,0.422827,
748,1.12169,-32.3583,2.22452,29.2455,0.222947,1.74771,0.423163,
749,1.12298,-32.359,2.22308,29.2449,0.223396,1.74796,0.423018,
750,1.10787,-32.3523,2.24034,29.2454,0.229792,1.78034,0.43438,
751,1.10635,-32.353,2.24208,29.2443,0.231651,1.78498,0.432829,
752,1.10476,-32.3537,2.24392,29.2431,0.233608,1.79017,0.430815,
753,1.10318,-32.3545,2.24576,29.2419,0.235614,1.79589,0.428238,
754,1.10177,-32.3552,2.24742,29.2406,0.237605,1.8021,0.424874,
755,1.10074,-32.356,2.24869,29.2394,0.239497,1.80872,0.420532,
756,1.08966,-32.3564,2.26073,29.2372,0.243451,1.8106,0.43523,
757,1.07664,-32.3569,2.27491,29.2346,0.248282,1.81422,0.451429,
758,1.06127,-32.3573,2.29169,29.2315,0.254132,1.81962,0.470013,
759,1.04282,-32.3577,2.31185,29.2277,0.261266,1.82697,0.493715,
760,1.12899,-32.3521,2.21677,29.2481,0.190792,1.7906,0.422596,
761,1.1208,-32.3529,2.22569,29.246,0.191274,1.7968,0.432739,
762,1.11286,-32.3537,2.23423,29.2441,0.189583,1.80057,0.445713,
763,1.10683,-32.3546,2.24054,29.2429,0.184603,1.80094,0.459575,
764,1.0783,-32.3551,2.27083,29.2393,0.177989,1.7949,0.515345,
765,1.05652,-32.3558,2.29333,29.2377,0.160594,1.77978,0.568407,
766,1.06038,-32.3571,2.28757,29.2408,0.129106,1.75346,0.586157,
767,1.1281,-32.3594,2.21336,29.2517,0.0981591,1.73124,0.48883,
768,1.20925,-32.3617,2.12584,29.2627,0.0877192,1.72353,0.346994,
769,1.25577,-32.3632,2.07736,29.2691,0.105916,1.7327,0.214873,
770,1.14767,-32.3542,2.19905,29.2509,0.199229,1.81586,0.337503,
771,1.14755,-32.355,2.19892,29.2504,0.195984,1.81234,0.338425,
772,1.14924,-32.3558,2.19694,29.2501,0.194442,1.81064,0.333743,
773,1.15122,-32.3565,2.1947,29.2497,0.19386,1.80999,0.327755,
774,1.15198,-32.3569,2.19426,29.2484,0.201659,1.81854,0.319417,
775,1.14685,-32.3574,2.20016,29.2462,0.209828,1.82747,0.324244,
776,1.13687,-32.3579,2.21125,29.2433,0.217426,1.83568,0.340207,
777,1.12376,-32.3585,2.22561,29.2402,0.223756,1.84227,0.363486,
778,1.11079,-32.3594,2.23924,29.238,0.219886,1.83757,0.393474,
779,1.10462,-32.3603,2.24547,29.2369,0.213915,1.83094,0.414417,
780,1.32557,-32.3588,2.00085,29.2895,0.0626881,1.6845,0.0980904,
781,1.32425,-32.3596,2.00215,29.2886,0.0611499,1.68294,0.101454,
782,1.32467,-32.3602,2.00189,29.2874,0.065465,1.68779,0.0964941,
783,1.32413,-32.3609,2.00264,29.2862,0.06919,1.69223,0.0943926,
784,1.32383,-32.3614,2.00316,29.2849,0.0735584,1.6977,0.0913681,
785,1.323,-32.3619,2.00437,29.2833,0.0801481,1.70618,0.0878716,
786,1.32022,-32.3624,2.00737,29.282,0.0810091,1.70967,0.0945169,
787,1.31601,-32.3629,2.01188,29.2803,0.0812,1.71455,0.107889,
788,1.31243,-32.3635,2.01534,29.2787,0.0756592,1.7165,0.135645,
789,1.33651,-32.3647,1.98827,29.2788,0.0640589,1.71101,0.132435,
790,1.2478,-32.3555,2.08988,29.2626,0.160574,1.79045,0.268218,
791,1.24594,-32.3561,2.0918,29.2616,0.160632,1.79083,0.270555,
792,1.24627,-32.3568,2.0914,29.2609,0.161291,1.79183,0.268077,
793,1.24851,-32.3576,2.08911,29.2601,0.164557,1.7953,0.259977,
794,1.24847,-32.3583,2.08951,29.2586,0.17212,1.80252,0.252959,
795,1.24142,-32.3589,2.09727,29.2565,0.176807,1.80583,0.260119,
796,1.23107,-32.3596,2.10855,29.2541,0.181439,1.80763,0.273456,
797,1.22336,-32.3604,2.11681,29.2526,0.18306,1.80419,0.282921,
798,1.22395,-32.3613,2.11682,29.2517,0.194987,1.80752,0.263647,
799,1.18567,-32.3615,2.16028,29.2479,0.223856,1.8224,0.270592,
800,1.17748,-32.3556,2.16699,29.25,0.205144,1.82845,0.259929,
801,1.15813,-32.3563,2.18803,29.2461,0.209333,1.83359,0.303548,
802,1.12759,-32.3575,2.22053,29.2416,0.202157,1.82689,0.385697,
803,1.11121,-32.3596,2.23662,29.2414,0.171115,1.79435,0.45716,
804,1.14716,-32.3615,2.19629,29.2497,0.135916,1.7562,0.409441,
805,1.21114,-32.3626,2.12707,29.2603,0.123053,1.7417,0.278787,
806,1.26764,-32.363,2.06711,29.2677,0.13173,1.75099,0.151696,
807,1.29034,-32.363,2.04438,29.2688,0.156782,1.77917,0.0917445,
808,1.27748,-32.3629,2.05959,29.2654,0.178059,1.80464,0.114484,
809,1.26223,-32.3633,2.076,29.2625,0.18358,1.80801,0.135371,
810,1.1945,-32.2863,2.08914,29.2312,0.202498,1.81817,0.227033,
811,1.19384,-32.2869,2.08981,29.2309,0.203395,1.8182,0.223662,
812,1.17709,-32.2875,2.10776,29.2278,0.20626,1.81982,0.250497,
813,1.15605,-32.2882,2.13022,29.2242,0.20752,1.81975,0.288793,
814,1.14906,-32.289,2.13751,29.2231,0.205173,1.81667,0.302275,
815,1.14501,-32.2898,2.14151,29.2229,0.199796,1.81107,0.311933,
816,1.13424,-32.2909,2.15222,29.2222,0.185754,1.79713,0.343454,
817,1.1448,-32.292,2.13967,29.2255,0.164551,1.77816,0.335299,
818,1.18444,-32.2925,2.09619,29.2317,0.149933,1.77046,0.266905,
819,1.25907,-32.2934,2.01435,29.2392,0.129967,1.76505,0.200101,
820,1.23957,-32.286,2.04018,29.2366,0.193028,1.80603,0.19621,
821,1.22426,-32.2864,2.05731,29.233,0.205522,1.81761,0.217007,
822,1.1875,-32.2868,2.0971,29.2271,0.210302,1.82088,0.285589,
823,1.15885,-32.2878,2.12688,29.2244,0.19081,1.80055,0.359558,
824,1.18264,-32.2898,2.09899,29.2311,0.14728,1.75832,0.354072,
825,1.24986,-32.2921,2.02536,29.2422,0.120002,1.73303,0.2554,
826,1.31296,-32.294,1.95769,29.2503,0.119709,1.73303,0.147608,
827,1.34619,-32.2954,1.92358,29.2525,0.143632,1.75354,0.0816191,
828,1.32609,-32.2959,1.94784,29.2474,0.184586,1.78403,0.089682,
829,1.23098,-32.2951,2.05328,29.2366,0.232293,1.80434,0.125285,
830,1.18237,-32.2865,2.10254,29.2321,0.211448,1.81737,0.201235,
831,1.16856,-32.2871,2.1173,29.2293,0.214515,1.81933,0.222463,
832,1.16551,-32.2877,2.12052,29.2285,0.215442,1.8194,0.224906,
833,1.1616,-32.2884,2.12464,29.2276,0.216172,1.81923,0.229424,
834,1.15698,-32.2891,2.12951,29.2266,0.21638,1.81847,0.235997,
835,1.1527,-32.2899,2.13396,29.2258,0.215639,1.81664,0.242673,
836,1.13459,-32.291,2.15283,29.2235,0.207687,1.80626,0.286528,
837,1.13266,-32.2922,2.15405,29.2244,0.193678,1.7892,0.299266,
838,1.15203,-32.2932,2.13251,29.2284,0.181903,1.77408,0.259514,
839,1.18078,-32.2939,2.10149,29.2325,0.181274,1.77136,0.191205,
840,1.19604,-32.2862,2.08617,29.2353,0.194968,1.80542,0.157452,
841,1.19061,-32.2865,2.09274,29.2326,0.209602,1.8219,0.156553,
842,1.17024,-32.2871,2.11513,29.2279,0.219718,1.83419,0.19628,
843,1.14211,-32.2884,2.14492,29.2233,0.211549,1.82749,0.272485,
844,1.14111,-32.2903,2.14472,29.2244,0.186981,1.80288,0.300865,
845,1.17012,-32.2914,2.11302,29.2291,0.17665,1.7931,0.245257,
846,1.20043,-32.292,2.08047,29.233,0.176127,1.79566,0.180937,
847,1.20807,-32.2922,2.07286,29.2327,0.186609,1.81257,0.159533,
848,1.20177,-32.2924,2.07955,29.2306,0.187792,1.82318,0.185344,
849,1.23199,-32.2933,2.04545,29.2308,0.173271,1.82027,0.202619,
850,1.21151,-32.2857,2.07053,29.2308,0.203686,1.83827,0.233817,
851,1.21731,-32.2865,2.06413,29.2313,0.201934,1.83648,0.225638,
852,1.20555,-32.287,2.07676,29.2291,0.205103,1.83777,0.240743,
853,1.21061,-32.2879,2.07116,29.2295,0.203482,1.83605,0.233362,
854,1.1955,-32.2884,2.08732,29.2269,0.205179,1.83575,0.256415,
855,1.20144,-32.2892,2.08071,29.2275,0.202382,1.83294,0.248113,
856,1.19258,-32.2899,2.08983,29.2264,0.197906,1.82705,0.266005,
857,1.19621,-32.2908,2.0853,29.2273,0.188919,1.81741,0.264946,
858,1.21721,-32.2917,2.06254,29.2297,0.187832,1.81645,0.225389,
859,1.22896,-32.2925,2.0503,29.23,0.196221,1.82455,0.198849,
860,1.22772,-32.2857,2.05336,29.2337,0.216033,1.84115,0.165276,
861,1.21037,-32.2862,2.07234,29.23,0.223352,1.84776,0.193256,
862,1.18492,-32.2867,2.09985,29.2256,0.226671,1.85034,0.240659,
863,1.16557,-32.2877,2.12012,29.2232,0.216826,1.84012,0.287697,
864,1.17484,-32.2892,2.10895,29.2259,0.194084,1.81779,0.291444,
865,1.20863,-32.2907,2.07192,29.2313,0.180811,1.80464,0.2427,
866,1.23864,-32.2921,2.03977,29.2349,0.182194,1.80469,0.191557,
867,1.2511,-32.2931,2.02724,29.2351,0.196673,1.81494,0.164348,
868,1.23965,-32.2939,2.04096,29.2321,0.219428,1.82836,0.16721,
869,1.17964,-32.2938,2.10773,29.2262,0.249166,1.83799,0.188577,
870,1.18847,-32.2869,2.09474,29.2335,0.208936,1.82101,0.170534,
871,1.18563,-32.2875,2.09768,29.2326,0.209717,1.8208,0.17276,
872,1.18227,-32.2882,2.10118,29.2317,0.210604,1.82078,0.175548,
873,1.18447,-32.289,2.09871,29.2317,0.209952,1.81981,0.170259,
874,1.18687,-32.2897,2.096,29.2317,0.208961,1.81883,0.16454,
875,1.18966,-32.2905,2.09283,29.2319,0.207304,1.81778,0.158211,
876,1.18511,-32.2911,2.09749,29.2308,0.206482,1.81804,0.16259,
877,1.18117,-32.2916,2.10138,29.2298,0.203509,1.81808,0.168592,
878,1.18228,-32.2922,2.09954,29.2292,0.196159,1.81738,0.178715,
879,1.22727,-32.2934,2.04956,29.2321,0.177689,1.81201,0.171394,
880,1.26905,-32.2863,2.00504,29.2424,0.169118,1.80743,0.162164,
881,1.27779,-32.2872,1.99545,29.2434,0.166886,1.80526,0.149251,
882,1.26892,-32.2878,2.00499,29.2415,0.170023,1.80675,0.159077,
883,1.25737,-32.2883,2.01739,29.2392,0.173084,1.80805,0.174227,
884,1.24336,-32.2888,2.03237,29.2366,0.174992,1.80809,0.195571,
885,1.24908,-32.2897,2.02603,29.2372,0.172856,1.80579,0.187393,
886,1.25646,-32.2905,2.01795,29.238,0.171742,1.80455,0.174631,
887,1.25218,-32.2912,2.02218,29.2373,0.167923,1.79936,0.183797,
888,1.25774,-32.2921,2.01582,29.2379,0.163747,1.79406,0.175284,
889,1.26526,-32.2929,2.00804,29.2378,0.170843,1.80047,0.156869,
890,1.25443,-32.2858,2.02189,29.2413,0.198924,1.80824,0.109254,
891,1.23465,-32.2863,2.0434,29.2374,0.204777,1.81312,0.143431,
892,1.20889,-32.2871,2.07093,29.2334,0.202535,1.80943,0.196622,
893,1.20401,-32.2883,2.07533,29.2336,0.187483,1.79309,0.221308,
894,1.22624,-32.29,2.04986,29.2389,0.158822,1.76352,0.206292,
895,1.26817,-32.2916,2.00413,29.2455,0.146988,1.75128,0.141916,
896,1.30606,-32.293,1.96344,29.2504,0.147062,1.74995,0.0782977,
897,1.32041,-32.2939,1.94913,29.2506,0.165847,1.76454,0.046146,
898,1.30117,-32.2944,1.9716,29.2462,0.194966,1.78354,0.0565483,
899,1.23323,-32.2943,2.04728,29.2393,0.229993,1.79499,0.0688545,
900,1.19598,-32.2848,2.0843,29.2364,0.206515,1.81061,0.156938,
901,1.18446,-32.2855,2.09658,29.2338,0.208841,1.81232,0.175588,
902,1.18377,-32.2862,2.09723,29.2333,0.209081,1.81204,0.174283,
903,1.1836,-32.2869,2.09729,29.2329,0.209096,1.81173,0.171629,
904,1.18434,-32.2875,2.09637,29.2326,0.208922,1.81161,0.166419,
905,1.17123,-32.2884,2.11011,29.2301,0.206112,1.80908,0.193619,
906,1.16415,-32.2893,2.11715,29.229,0.198398,1.80239,0.212238,
907,1.16919,-32.2902,2.11095,29.2302,0.186471,1.79324,0.208285,
908,1.18996,-32.291,2.08767,29.2331,0.172767,1.78622,0.181694,
909,1.24589,-32.2917,2.02624,29.2369,0.161575,1.7901,0.148565,
910,1.25048,-32.2155,1.96442,29.2193,0.179233,1.77894,0.128667,
911,1.2321,-32.2161,1.9847,29.2151,0.189515,1.78861,0.156565,
912,1.20357,-32.2168,2.01534,29.2104,0.18966,1.78717,0.212064,
913,1.19083,-32.2181,2.02804,29.2097,0.171586,1.76711,0.252978,
914,1.21562,-32.2197,2.00019,29.2148,0.150164,1.74461,0.225588,
915,1.25715,-32.2214,1.95458,29.2219,0.132571,1.72627,0.164659,
916,1.29387,-32.2227,1.9152,29.2266,0.134236,1.72671,0.0996978,
917,1.30604,-32.2236,1.90325,29.2264,0.154104,1.74301,0.0685284,
918,1.29053,-32.2241,1.92159,29.2225,0.181254,1.76187,0.0775131,
919,1.22023,-32.2238,1.9994,29.2144,0.211181,1.77486,0.133897,
920,1.15637,-32.2156,2.0683,29.2085,0.221866,1.79015,0.200778,
921,1.15431,-32.2163,2.07041,29.2077,0.222312,1.79002,0.204244,
922,1.15231,-32.2171,2.07246,29.2069,0.22254,1.78968,0.20815,
923,1.13386,-32.2179,2.09209,29.2032,0.223496,1.78965,0.245373,
924,1.11322,-32.2189,2.11393,29.1995,0.221059,1.78568,0.292318,
925,1.09561,-32.2202,2.13224,29.197,0.212389,1.77459,0.340532,
926,1.10396,-32.2213,2.12268,29.1994,0.200915,1.76073,0.335435,
927,1.12559,-32.2223,2.09898,29.2037,0.191411,1.74875,0.296429,
928,1.14995,-32.2232,2.07233,29.2085,0.183511,1.73672,0.242262,
929,1.17231,-32.2236,2.04863,29.2117,0.191866,1.73833,0.149998,
930,1.21395,-32.2155,2.00252,29.2212,0.175479,1.74827,0.111752,
931,1.20552,-32.2159,2.01223,29.2179,0.189278,1.76504,0.119421,
932,1.18488,-32.2167,2.03476,29.2129,0.196345,1.77493,0.164925,
933,1.16746,-32.218,2.05317,29.2097,0.190184,1.76964,0.215849,
934,1.16982,-32.2198,2.04963,29.2111,0.170112,1.74785,0.23221,
935,1.19591,-32.221,2.02099,29.2158,0.158366,1.73515,0.182642,
936,1.21891,-32.2214,1.99645,29.2187,0.16189,1.74159,0.126462,
937,1.22278,-32.2215,1.99271,29.2178,0.171089,1.75788,0.111264,
938,1.21525,-32.2216,2.00065,29.2152,0.172381,1.76945,0.138588,
939,1.23879,-32.2225,1.97381,29.214,0.161528,1.77105,0.165725,
940,1.22021,-32.2147,1.99635,29.2148,0.193587,1.78003,0.171726,
941,1.21098,-32.2153,2.00626,29.2127,0.196774,1.78171,0.183431,
942,1.19885,-32.2158,2.0193,29.2102,0.20023,1.78337,0.200603,
943,1.1834,-32.2164,2.03589,29.2071,0.203337,1.78423,0.224865,
944,1.18404,-32.2173,2.03504,29.2069,0.201749,1.78131,0.227417,
945,1.18632,-32.2183,2.03241,29.2071,0.199801,1.7774,0.227524,
946,1.19121,-32.2192,2.02702,29.2077,0.198503,1.77302,0.22241,
947,1.18447,-32.2202,2.03408,29.2068,0.19671,1.76434,0.237046,
948,1.1827,-32.2213,2.03608,29.2072,0.198277,1.75499,0.232433,
949,1.15739,-32.222,2.06453,29.2071,0.20925,1.74776,0.216723,
950,1.17387,-32.2152,2.04441,29.2149,0.175959,1.74103,0.220079,
951,1.18093,-32.2161,2.03639,29.2165,0.169186,1.73211,0.207012,
952,1.19094,-32.2167,2.02559,29.2178,0.169924,1.73224,0.179641,
953,1.19818,-32.2172,2.01794,29.2183,0.174102,1.73691,0.155952,
954,1.20072,-32.2176,2.01544,29.2176,0.180394,1.74479,0.14197,
955,1.199,-32.2181,2.01752,29.2161,0.186664,1.75361,0.138308,
956,1.19472,-32.2188,2.02198,29.2147,0.186293,1.756,0.146802,
957,1.19432,-32.2195,2.02206,29.214,0.182251,1.75655,0.15045,
958,1.20224,-32.2202,2.01288,29.2143,0.173685,1.75667,0.152081,
959,1.24421,-32.2212,1.96612,29.2159,0.158339,1.75679,0.160012,
960,1.21957,-32.2138,1.99612,29.216,0.201313,1.77442,0.152354,
961,1.20528,-32.2144,2.01186,29.2124,0.209529,1.78242,0.174845,
962,1.18542,-32.2152,2.03329,29.2086,0.211811,1.78365,0.213514,
963,1.17613,-32.2163,2.04277,29.2075,0.202387,1.77245,0.242227,
964,1.18858,-32.2177,2.02856,29.2103,0.187123,1.7555,0.234755,
965,1.21646,-32.2193,1.99776,29.2155,0.171837,1.73861,0.198913,
966,1.24356,-32.2205,1.96857,29.2192,0.170685,1.73562,0.154859,
967,1.25424,-32.2215,1.95782,29.2194,0.183916,1.7449,0.130963,
968,1.23594,-32.222,1.9789,29.2153,0.208306,1.75987,0.141373,
969,1.16605,-32.2217,2.05633,29.2073,0.239729,1.77076,0.1731,
970,1.16573,-32.2138,2.05364,29.2124,0.206123,1.76929,0.171168,
971,1.1631,-32.2146,2.05635,29.2115,0.206086,1.76871,0.176358,
972,1.16035,-32.2154,2.05917,29.2106,0.205568,1.76757,0.182365,
973,1.15805,-32.2163,2.06148,29.2099,0.204285,1.76557,0.188133,
974,1.14422,-32.2173,2.07602,29.2073,0.201155,1.76117,0.221874,
975,1.13531,-32.2184,2.0851,29.206,0.193494,1.75141,0.249591,
976,1.13786,-32.2196,2.08169,29.2074,0.181546,1.7364,0.253803,
977,1.15578,-32.2206,2.06175,29.2115,0.16962,1.72076,0.218055,
978,1.18482,-32.2212,2.03016,29.2167,0.165316,1.71286,0.144088,
979,1.21021,-32.2212,2.00337,29.2194,0.177865,1.72607,0.0681641,
980,1.20427,-32.2124,2.01074,29.2204,0.197277,1.75537,0.0661595,
981,1.19329,-32.2125,2.02333,29.2159,0.214941,1.77794,0.0754502,
982,1.1705,-32.213,2.04849,29.2096,0.229234,1.79741,0.118433,
983,1.14147,-32.2141,2.07988,29.2029,0.232969,1.80505,0.186687,
984,1.12489,-32.2155,2.09748,29.1995,0.227404,1.80069,0.232517,
985,1.1245,-32.2168,2.09763,29.1993,0.220819,1.79364,0.239266,
986,1.13004,-32.2177,2.09163,29.1998,0.219361,1.79172,0.227358,
987,1.13064,-32.2184,2.0911,29.1993,0.222305,1.79453,0.224043,
988,1.12743,-32.2191,2.09457,29.1983,0.224204,1.79553,0.229702,
989,1.12252,-32.2199,2.09974,29.1971,0.225561,1.79482,0.238982,
990,1.15815,-32.2125,2.06045,29.2064,0.201477,1.79312,0.24814,
991,1.15764,-32.2133,2.06092,29.2059,0.201184,1.79221,0.249148,
992,1.15717,-32.2141,2.06133,29.2055,0.200754,1.79126,0.250403,
993,1.15896,-32.2149,2.05935,29.2054,0.199916,1.79059,0.248503,
994,1.16079,-32.2157,2.05731,29.2053,0.198743,1.78993,0.247308,
995,1.16025,-32.2165,2.05773,29.2049,0.197243,1.78901,0.251223,
996,1.15986,-32.2172,2.05795,29.2045,0.19481,1.7882,0.257106,
997,1.15985,-32.2179,2.05766,29.2041,0.190922,1.78761,0.265592,
998,1.16463,-32.2187,2.05214,29.2041,0.185367,1.78718,0.264616,
999,1.18373,-32.2198,2.03107,29.2038,0.189998,1.78844,0.180076,
1000,1.1376,-32.2117,2.08377,29.2005,0.236669,1.80683,0.230691,
1001,1.13827,-32.2125,2.08292,29.2003,0.235988,1.80526,0.229552,
1002,1.14401,-32.2135,2.07661,29.2008,0.233183,1.80293,0.226428,
1003,1.14991,-32.2144,2.07013,29.2014,0.230294,1.80051,0.223183,
1004,1.15009,-32.2152,2.0698,29.2011,0.229877,1.79903,0.222064,
1005,1.15018,-32.216,2.06957,29.2008,0.229549,1.79763,0.221029,
1006,1.15014,-32.2168,2.06949,29.2004,0.229354,1.79633,0.220093,
1007,1.15612,-32.2178,2.06291,29.2011,0.226593,1.79384,0.216616,
1008,1.16242,-32.2187,2.05599,29.2017,0.223851,1.79128,0.213051,
1009,1.16964,-32.2197,2.04808,29.2024,0.221199,1.78871,0.209911,
1010,1.15903,-32.1442,2.00204,29.1858,0.218143,1.76263,0.166584,
1011,1.15776,-32.1449,2.0033,29.1852,0.218543,1.76188,0.166438,
1012,1.156,-32.1457,2.00508,29.1844,0.219195,1.76136,0.166732,
1013,1.15365,-32.1464,2.0075,29.1836,0.220154,1.76111,0.167477,
1014,1.15977,-32.1474,2.00076,29.1843,0.217274,1.75861,0.163976,
1015,1.16646,-32.1483,1.9934,29.185,0.214165,1.75593,0.160042,
1016,1.16246,-32.149,1.99763,29.1839,0.215977,1.75627,0.161796,
1017,1.15721,-32.1497,2.00322,29.1825,0.21839,1.75703,0.164557,
1018,1.16349,-32.1506,1.99632,29.1832,0.215804,1.75464,0.160965,
1019,1.17148,-32.1516,1.98757,29.184,0.21305,1.75209,0.156985,
1020,1.13567,-32.1441,2.02579,29.1823,0.208772,1.75106,0.238928,
1021,1.12532,-32.1448,2.03689,29.18,0.212634,1.75265,0.24595,
1022,1.11347,-32.1455,2.04959,29.1775,0.216299,1.75368,0.254699,
1023,1.10108,-32.1463,2.06279,29.175,0.218711,1.75314,0.26503,
1024,1.10849,-32.1473,2.05454,29.1761,0.213508,1.74824,0.261436,
1025,1.11981,-32.1482,2.04206,29.178,0.207137,1.74285,0.25427,
1026,1.13346,-32.1491,2.0271,29.1801,0.201203,1.73846,0.243969,
1027,1.14002,-32.15,2.01962,29.1812,0.195094,1.73203,0.239441,
1028,1.15273,-32.1509,2.00558,29.183,0.18953,1.72703,0.227993,
1029,1.16523,-32.1517,1.99207,29.1842,0.18926,1.7279,0.215633,
1030,1.1945,-32.1428,1.96118,29.19,0.19942,1.75888,0.166263,
1031,1.18093,-32.1434,1.9763,29.1863,0.211111,1.76986,0.17562,
1032,1.16147,-32.1442,1.99753,29.182,0.219251,1.77561,0.192891,
1033,1.14639,-32.1455,2.01334,29.1798,0.214228,1.76701,0.211919,
1034,1.15587,-32.1468,2.00258,29.1816,0.203487,1.75595,0.208443,
1035,1.177,-32.1481,1.9792,29.1854,0.18962,1.7434,0.194846,
1036,1.19688,-32.1491,1.9577,29.1881,0.185039,1.74115,0.17881,
1037,1.20082,-32.1498,1.95387,29.1876,0.191668,1.7487,0.173787,
1038,1.18876,-32.1503,1.96733,29.1847,0.202374,1.75754,0.1813,
1039,1.17114,-32.1508,1.98641,29.1811,0.21242,1.76131,0.182417,
1040,1.17626,-32.1438,1.98264,29.1895,0.223056,1.75366,0.122674,
1041,1.16557,-32.1445,1.99413,29.187,0.227562,1.75563,0.128868,
1042,1.15151,-32.1452,2.00925,29.184,0.232752,1.75754,0.138407,
1043,1.13447,-32.146,2.02755,29.1806,0.237769,1.75836,0.151579,
1044,1.11635,-32.1469,2.0469,29.1773,0.240862,1.75627,0.167676,
1045,1.12159,-32.148,2.04095,29.1784,0.235425,1.74873,0.165197,
1046,1.13393,-32.1491,2.02734,29.1808,0.228335,1.73953,0.155518,
1047,1.13991,-32.1503,2.02045,29.1824,0.221111,1.72631,0.15176,
1048,1.15557,-32.1514,2.00338,29.1859,0.215131,1.71325,0.136249,
1049,1.15119,-32.1518,2.00933,29.188,0.220121,1.71366,0.153088,
1050,1.13218,-32.1432,2.02801,29.1874,0.201357,1.73185,0.212904,
1051,1.13616,-32.144,2.02348,29.1881,0.198031,1.72721,0.206657,
1052,1.14081,-32.1446,2.01849,29.1884,0.199791,1.72931,0.193749,
1053,1.1433,-32.1452,2.01588,29.1881,0.202989,1.73373,0.184975,
1054,1.14318,-32.1459,2.01593,29.1875,0.203075,1.73474,0.18554,
1055,1.1426,-32.1466,2.01646,29.1867,0.20317,1.73653,0.186444,
1056,1.14149,-32.1474,2.01753,29.1858,0.202209,1.73842,0.188908,
1057,1.14072,-32.1481,2.01805,29.185,0.198214,1.73914,0.194612,
1058,1.1452,-32.1488,2.01274,29.1845,0.192191,1.74174,0.202286,
1059,1.17787,-32.1499,1.97626,29.1853,0.183239,1.74155,0.185691,
1060,1.2032,-32.1434,1.95023,29.1966,0.186208,1.72685,0.119983,
1061,1.19971,-32.1442,1.95384,29.1957,0.186116,1.72547,0.123131,
1062,1.19851,-32.1451,1.95493,29.1952,0.18469,1.72297,0.124772,
1063,1.19974,-32.146,1.95338,29.1952,0.182303,1.71981,0.12447,
1064,1.20366,-32.1467,1.94919,29.1951,0.183774,1.72184,0.119943,
1065,1.2039,-32.1475,1.94881,29.1947,0.183514,1.72103,0.119691,
1066,1.20409,-32.1482,1.94878,29.1938,0.187897,1.72577,0.117696,
1067,1.19831,-32.149,1.95503,29.1921,0.190678,1.72733,0.12225,
1068,1.19176,-32.1498,1.96203,29.1905,0.192386,1.72735,0.128203,
1069,1.18971,-32.1507,1.96427,29.1894,0.195061,1.72894,0.129467,
1070,1.17967,-32.142,1.97531,29.1908,0.200946,1.74396,0.162392,
1071,1.17773,-32.1429,1.97715,29.1903,0.198413,1.74022,0.165308,
1072,1.17903,-32.1438,1.9755,29.1902,0.195694,1.73686,0.164997,
1073,1.18055,-32.1446,1.97368,29.1901,0.19403,1.73469,0.164014,
1074,1.18047,-32.1455,1.97361,29.1898,0.193019,1.73281,0.164395,
1075,1.18222,-32.1463,1.97166,29.1895,0.193315,1.73281,0.16266,
1076,1.1845,-32.1471,1.96909,29.1895,0.192737,1.73183,0.160734,
1077,1.1887,-32.1479,1.96446,29.1897,0.192147,1.73124,0.15691,
1078,1.19414,-32.1487,1.95838,29.1903,0.189539,1.72832,0.152671,
1079,1.19832,-32.1494,1.95389,29.1901,0.191543,1.73072,0.1494,
1080,1.18902,-32.1413,1.96432,29.1926,0.197041,1.73979,0.155993,
1081,1.17137,-32.142,1.98368,29.1882,0.207166,1.74841,0.169915,
1082,1.15563,-32.143,2.00075,29.1847,0.212042,1.751,0.184652,
1083,1.14992,-32.1442,2.00657,29.1838,0.20756,1.74428,0.193616,
1084,1.15893,-32.1454,1.99637,29.1855,0.197867,1.73408,0.190257,
1085,1.17742,-32.1466,1.9759,29.1889,0.185796,1.72286,0.178816,
1086,1.19357,-32.1476,1.95844,29.1911,0.182477,1.72138,0.1662,
1087,1.19517,-32.1482,1.95705,29.1902,0.188966,1.72849,0.16342,
1088,1.17847,-32.1487,1.97545,29.1864,0.200848,1.73776,0.173225,
1089,1.15036,-32.149,2.00588,29.1805,0.215659,1.74526,0.181226,
1090,1.15092,-32.1409,2.00494,29.1833,0.209947,1.75599,0.202905,
1091,1.15433,-32.1419,2.00112,29.1836,0.208077,1.75378,0.200557,
1092,1.15888,-32.1428,1.99608,29.184,0.205762,1.75114,0.197048,
1093,1.16484,-32.1437,1.98949,29.1848,0.203081,1.74814,0.191902,
1094,1.15203,-32.1446,2.00319,29.1821,0.20648,1.74763,0.201079,
1095,1.14119,-32.1455,2.01467,29.1801,0.207491,1.74404,0.210016,
1096,1.13688,-32.1466,2.019,29.1795,0.204818,1.73629,0.214513,
1097,1.14264,-32.1478,2.01245,29.1809,0.199367,1.72524,0.209785,
1098,1.15523,-32.1489,1.99879,29.1837,0.195605,1.71457,0.196812,
1099,1.14856,-32.1495,2.00675,29.1858,0.194141,1.70855,0.228691,
1100,1.14677,-32.1414,2.00894,29.1894,0.195364,1.72247,0.193761,
1101,1.14884,-32.1422,2.00666,29.1894,0.195611,1.72239,0.187156,
1102,1.15083,-32.1429,2.00455,29.1891,0.197855,1.72492,0.178869,
1103,1.15044,-32.1437,2.00494,29.1884,0.199021,1.72603,0.177696,
1104,1.14743,-32.1445,2.00815,29.1871,0.200412,1.72744,0.183972,
1105,1.14335,-32.1455,2.01239,29.186,0.199085,1.72515,0.196537,
1106,1.14294,-32.1466,2.01247,29.1861,0.193674,1.71707,0.203615,
1107,1.14937,-32.1474,2.00534,29.1874,0.191027,1.71234,0.189406,
1108,1.15739,-32.1479,1.99668,29.1885,0.192428,1.71293,0.166634,
1109,1.1615,-32.1483,1.99248,29.188,0.199643,1.72154,0.150164,
1110,1.12002,-32.0731,1.98308,29.1642,0.226689,1.71773,0.164532,
1111,1.10333,-32.074,2.0013,29.1592,0.233586,1.72826,0.200898,
1112,1.08398,-32.0756,2.02201,29.1546,0.230782,1.72642,0.254855,
1113,1.0789,-32.0776,2.02686,29.1541,0.215747,1.7077,0.283959,
1114,1.09675,-32.0792,2.00695,29.1587,0.198567,1.68498,0.255223,
1115,1.12234,-32.0798,1.9793,29.1636,0.195495,1.68119,0.193151,
1116,1.13788,-32.0799,1.96285,29.1655,0.202013,1.69251,0.149007,
1117,1.13814,-32.08,1.96284,29.1639,0.209729,1.70949,0.145746,
1118,1.12535,-32.0801,1.97634,29.1594,0.212043,1.72381,0.191205,
1119,1.13248,-32.081,1.96762,29.1553,0.214495,1.73078,0.191662,
1120,1.13074,-32.0727,1.96963,29.158,0.218276,1.74085,0.208995,
1121,1.13315,-32.0737,1.96692,29.158,0.216956,1.73926,0.207596,
1122,1.11845,-32.0744,1.98275,29.1546,0.222448,1.74177,0.217381,
1123,1.10171,-32.0753,2.00073,29.1511,0.22744,1.74303,0.229762,
1124,1.08532,-32.0763,2.01824,29.1478,0.230164,1.74129,0.243565,
1125,1.09135,-32.0774,2.01145,29.149,0.224024,1.73331,0.241199,
1126,1.10477,-32.0786,1.99667,29.1517,0.21603,1.72348,0.231846,
1127,1.11253,-32.0798,1.98794,29.1536,0.209119,1.71143,0.226205,
1128,1.12757,-32.081,1.9716,29.1568,0.203918,1.69994,0.212189,
1129,1.12605,-32.0816,1.97388,29.1594,0.200642,1.69342,0.243473,
1130,1.08333,-32.0732,2.02192,29.1543,0.231815,1.73482,0.258196,
1131,1.08463,-32.074,2.02048,29.154,0.231944,1.73487,0.252713,
1132,1.08691,-32.0748,2.01793,29.1541,0.231,1.73332,0.245164,
1133,1.08911,-32.0756,2.01557,29.1538,0.232681,1.73516,0.235747,
1134,1.08869,-32.0763,2.01609,29.1529,0.235751,1.73882,0.232745,
1135,1.08587,-32.0771,2.01914,29.1516,0.237785,1.74101,0.237961,
1136,1.08384,-32.0779,2.02136,29.1505,0.240159,1.74363,0.241164,
1137,1.08287,-32.0787,2.0224,29.1497,0.24185,1.74526,0.241865,
1138,1.08298,-32.0796,2.02221,29.1492,0.242255,1.74496,0.240341,
1139,1.0816,-32.0803,2.02381,29.1476,0.246977,1.75064,0.239863,
1140,1.10846,-32.0738,1.99487,29.1592,0.230587,1.7384,0.160918,
1141,1.08974,-32.075,2.01532,29.1536,0.236648,1.74865,0.203366,
1142,1.07002,-32.0767,2.03659,29.1485,0.234722,1.74869,0.257597,
1143,1.06538,-32.0786,2.04133,29.1476,0.224435,1.73646,0.282051,
1144,1.07876,-32.0802,2.02661,29.151,0.21229,1.72029,0.262014,
1145,1.10225,-32.0813,2.00124,29.1559,0.205288,1.71016,0.211511,
1146,1.12274,-32.0818,1.97951,29.1593,0.209058,1.71437,0.160355,
1147,1.1304,-32.0821,1.97177,29.1596,0.218732,1.72738,0.13851,
1148,1.12585,-32.0826,1.97699,29.1579,0.226042,1.73802,0.149796,
1149,1.12053,-32.0832,1.98249,29.1565,0.227386,1.73729,0.160083,
1150,1.12269,-32.0748,1.97987,29.1625,0.222314,1.73366,0.161255,
1151,1.12563,-32.0758,1.97661,29.1628,0.2211,1.73154,0.156749,
1152,1.12863,-32.0767,1.97329,29.1631,0.219831,1.72934,0.152204,
1153,1.12947,-32.0775,1.97225,29.1629,0.219008,1.72732,0.150938,
1154,1.13032,-32.0784,1.97118,29.1628,0.218198,1.7253,0.149615,
1155,1.13117,-32.0792,1.97011,29.1627,0.217417,1.72326,0.148252,
1156,1.13201,-32.0801,1.96906,29.1625,0.216691,1.72123,0.14687,
1157,1.1352,-32.081,1.96552,29.1629,0.215467,1.71875,0.141858,
1158,1.13849,-32.0819,1.96189,29.1633,0.214342,1.71622,0.136862,
1159,1.13951,-32.0828,1.96064,29.163,0.214222,1.71432,0.135962,
1160,1.13413,-32.0739,1.96645,29.1661,0.216622,1.72449,0.149743,
1161,1.13448,-32.0747,1.9659,29.1658,0.216012,1.7227,0.149099,
1162,1.13765,-32.0756,1.96236,29.1662,0.214627,1.72017,0.144133,
1163,1.1409,-32.0765,1.95874,29.1666,0.213196,1.71755,0.139068,
1164,1.14089,-32.0773,1.95857,29.1663,0.212739,1.7159,0.138854,
1165,1.14074,-32.0781,1.95857,29.1659,0.212385,1.71437,0.138812,
1166,1.1404,-32.0789,1.95876,29.1654,0.212154,1.71297,0.139016,
1167,1.13984,-32.0797,1.9592,29.1649,0.21207,1.71173,0.139574,
1168,1.14303,-32.0806,1.95563,29.1653,0.210903,1.70919,0.13464,
1169,1.14707,-32.0815,1.95114,29.1657,0.209823,1.70656,0.129805,
1170,1.11807,-32.0732,1.98291,29.1619,0.220166,1.73058,0.20566,
1171,1.11669,-32.074,1.98422,29.1612,0.220404,1.72993,0.20708,
1172,1.11493,-32.0747,1.98593,29.1603,0.220849,1.72956,0.209003,
1173,1.11797,-32.0756,1.98251,29.1607,0.219745,1.72733,0.203213,
1174,1.12122,-32.0764,1.97888,29.1611,0.218629,1.72508,0.196889,
1175,1.11833,-32.0771,1.98182,29.1599,0.219641,1.72547,0.200251,
1176,1.11468,-32.0778,1.98559,29.1586,0.220982,1.72631,0.20487,
1177,1.1101,-32.0786,1.99038,29.157,0.2227,1.72765,0.2112,
1178,1.10444,-32.0793,1.99633,29.1551,0.224839,1.72952,0.21996,
1179,1.10629,-32.0801,1.99422,29.1548,0.225108,1.72893,0.217581,
1180,1.1171,-32.0731,1.98306,29.1626,0.218514,1.72359,0.183189,
1181,1.1181,-32.0738,1.98186,29.1624,0.218298,1.72301,0.180641,
1182,1.10863,-32.0746,1.9919,29.1596,0.220227,1.72532,0.198578,
1183,1.09831,-32.0756,2.00283,29.1566,0.221235,1.72668,0.219928,
1184,1.08849,-32.0766,2.01316,29.1539,0.220389,1.72599,0.24246,
1185,1.08153,-32.0777,2.02033,29.152,0.216684,1.72221,0.261368,
1186,1.08018,-32.0788,2.02135,29.1516,0.209633,1.71523,0.270301,
1187,1.08611,-32.0798,2.01441,29.153,0.19981,1.70674,0.265737,
1188,1.10346,-32.0804,1.99516,29.1559,0.191156,1.70308,0.239452,
1189,1.14343,-32.0811,1.95101,29.1594,0.18713,1.70235,0.169891,
1190,1.1688,-32.0725,1.9251,29.1687,0.200243,1.71142,0.147489,
1191,1.15972,-32.0735,1.93488,29.1663,0.203781,1.71295,0.15312,
1192,1.15251,-32.0745,1.94256,29.1645,0.205421,1.71229,0.157683,
1193,1.14732,-32.0755,1.94798,29.1632,0.20532,1.70962,0.161028,
1194,1.14422,-32.0765,1.95107,29.1625,0.203554,1.70488,0.163248,
1195,1.14539,-32.0774,1.9497,29.1624,0.203292,1.70246,0.160951,
1196,1.14571,-32.0784,1.94906,29.1625,0.200397,1.69493,0.160975,
1197,1.15156,-32.0793,1.94277,29.1632,0.202165,1.69214,0.152757,
1198,1.15065,-32.0803,1.94406,29.163,0.208331,1.68916,0.146078,
1199,1.11884,-32.0808,1.97991,29.1607,0.221326,1.69171,0.168615,
1200,1.13181,-32.0728,1.96466,29.1694,0.197473,1.68434,0.143667,
1201,1.13021,-32.0737,1.96627,29.1686,0.196876,1.68311,0.147876,
1202,1.12912,-32.0746,1.96731,29.1679,0.196042,1.68152,0.150914,
1203,1.12859,-32.0754,1.96789,29.1671,0.198309,1.68433,0.149632,
1204,1.12668,-32.0763,1.96982,29.1663,0.19716,1.68233,0.155141,
1205,1.12596,-32.0773,1.97043,29.1658,0.195376,1.67934,0.158017,
1206,1.12697,-32.0781,1.96933,29.1654,0.19671,1.68065,0.15336,
1207,1.12739,-32.079,1.96873,29.1652,0.195318,1.67799,0.152611,
1208,1.12877,-32.0798,1.96714,29.1651,0.194696,1.6762,0.148712,
1209,1.13059,-32.0805,1.96524,29.1646,0.198517,1.68031,0.140883,
1210,1.1111,-32.006,1.93202,29.1455,0.203951,1.65761,0.13476,
1211,1.10934,-32.0069,1.93385,29.1445,0.204448,1.6579,0.138403,
1212,1.10814,-32.0077,1.93517,29.1434,0.207294,1.66157,0.13858,
1213,1.10614,-32.0086,1.93718,29.1426,0.206426,1.65994,0.144354,
1214,1.10557,-32.0096,1.93766,29.142,0.205442,1.65806,0.146301,
1215,1.10506,-32.0103,1.93826,29.1411,0.208391,1.66183,0.144348,
1216,1.10201,-32.0112,1.94148,29.1398,0.209011,1.66237,0.1512,
1217,1.09781,-32.0122,1.94594,29.1383,0.208918,1.66192,0.161958,
1218,1.09423,-32.0134,1.94963,29.1372,0.206583,1.65819,0.173488,
1219,1.09577,-32.0143,1.94784,29.1371,0.205155,1.65511,0.172061,
1220,1.09086,-32.0053,1.9533,29.14,0.209268,1.66813,0.188463,
1221,1.09619,-32.0061,1.9474,29.141,0.20674,1.66395,0.175099,
1222,1.10156,-32.0068,1.94159,29.1417,0.207931,1.66496,0.157854,
1223,1.10319,-32.0074,1.93994,29.1411,0.212431,1.67074,0.147734,
1224,1.09958,-32.0081,1.94395,29.1391,0.217652,1.67767,0.151678,
1225,1.09294,-32.009,1.95109,29.1368,0.220036,1.68059,0.167293,
1226,1.08901,-32.01,1.95526,29.1353,0.221027,1.68146,0.177363,
1227,1.088,-32.0109,1.95624,29.1346,0.220694,1.68032,0.180595,
1228,1.08946,-32.0118,1.95448,29.1346,0.219145,1.67717,0.177934,
1229,1.08944,-32.0126,1.95453,29.1336,0.222359,1.68079,0.176744,
1230,1.07532,-32.0044,1.96987,29.1316,0.226094,1.70307,0.225455,
1231,1.06073,-32.0059,1.98561,29.1274,0.226827,1.70482,0.266641,
1232,1.04918,-32.0081,1.99761,29.1253,0.213996,1.68719,0.315493,
1233,1.05905,-32.0104,1.98612,29.1296,0.189313,1.65154,0.320045,
1234,1.09086,-32.0116,1.95128,29.1386,0.171371,1.62424,0.25815,
1235,1.12742,-32.012,1.91178,29.1474,0.164325,1.61229,0.173006,
1236,1.15177,-32.0118,1.88604,29.1517,0.173691,1.62464,0.104531,
1237,1.15403,-32.0115,1.88437,29.1499,0.191947,1.65146,0.0857719,
1238,1.13814,-32.0116,1.90202,29.1445,0.207116,1.67548,0.115786,
1239,1.11963,-32.0122,1.92179,29.139,0.214348,1.68418,0.148441,
1240,1.11726,-32.0043,1.92488,29.1423,0.215009,1.68881,0.180626,
1241,1.10824,-32.0051,1.93445,29.1393,0.21787,1.69233,0.196555,
1242,1.09775,-32.006,1.94561,29.136,0.220487,1.69569,0.216698,
1243,1.08632,-32.007,1.95776,29.1325,0.222168,1.69802,0.240738,
1244,1.07535,-32.0082,1.96936,29.1292,0.221856,1.69804,0.266546,
1245,1.07534,-32.0092,1.96913,29.1289,0.218329,1.69465,0.271126,
1246,1.07845,-32.0101,1.9655,29.1294,0.213036,1.69024,0.270535,
1247,1.08021,-32.0112,1.96314,29.1296,0.204273,1.68308,0.277318,
1248,1.09031,-32.0121,1.95161,29.1314,0.192884,1.67503,0.270407,
1249,1.12337,-32.0132,1.91486,29.1348,0.186591,1.66698,0.195926,
1250,1.09938,-32.0043,1.94257,29.1321,0.221655,1.70056,0.220197,
1251,1.10889,-32.005,1.93219,29.1335,0.219058,1.69945,0.212494,
1252,1.115,-32.0056,1.92564,29.1339,0.220535,1.70281,0.206167,
1253,1.11437,-32.0064,1.92639,29.1328,0.224051,1.70689,0.204921,
1254,1.10955,-32.0072,1.93169,29.1309,0.228935,1.71143,0.207013,
1255,1.10348,-32.0081,1.93822,29.129,0.232239,1.71331,0.210883,
1256,1.10021,-32.009,1.9416,29.1279,0.232262,1.71148,0.213442,
1257,1.10076,-32.0099,1.94098,29.1274,0.233756,1.71281,0.212124,
1258,1.09957,-32.0106,1.94235,29.1262,0.237618,1.71682,0.211591,
1259,1.09339,-32.0115,1.94912,29.1238,0.243532,1.72189,0.215285,
1260,1.09866,-32.0047,1.9449,29.1319,0.241933,1.71635,0.186158,
1261,1.07845,-32.006,1.96675,29.1272,0.247187,1.71737,0.203784,
1262,1.06746,-32.0078,1.97811,29.1256,0.239182,1.70299,0.219399,
1263,1.08201,-32.0094,1.96152,29.1299,0.218854,1.67868,0.216531,
1264,1.11325,-32.0107,1.92696,29.1374,0.196102,1.65525,0.199334,
1265,1.15225,-32.0118,1.88426,29.1459,0.176366,1.63717,0.174696,
1266,1.18502,-32.0124,1.84902,29.1516,0.171896,1.6361,0.150287,
1267,1.19674,-32.0129,1.83732,29.1519,0.186792,1.65223,0.136432,
1268,1.17292,-32.0132,1.86468,29.1454,0.219647,1.67851,0.136682,
1269,1.0982,-32.0133,1.94747,29.1341,0.256536,1.69844,0.15478,
1270,1.09046,-32.0046,1.95258,29.1378,0.222404,1.68917,0.182111,
1271,1.08987,-32.0055,1.95309,29.1372,0.222547,1.68877,0.18245,
1272,1.07926,-32.0064,1.96434,29.1338,0.224708,1.69097,0.20368,
1273,1.06808,-32.0075,1.97618,29.1305,0.225623,1.69143,0.228491,
1274,1.05799,-32.0087,1.98679,29.1276,0.22423,1.68867,0.254035,
1275,1.05175,-32.0101,1.99318,29.1261,0.219572,1.68133,0.27418,
1276,1.0524,-32.0114,1.99208,29.1266,0.211732,1.66946,0.280234,
1277,1.06553,-32.0121,1.97768,29.1302,0.20554,1.65977,0.251695,
1278,1.08005,-32.0126,1.96191,29.1335,0.203572,1.65545,0.21367,
1279,1.09122,-32.0132,1.94981,29.1356,0.204053,1.65404,0.182744,
1280,1.12435,-32.0041,1.91317,29.1463,0.187382,1.65265,0.174923,
1281,1.12225,-32.0051,1.91532,29.1452,0.187106,1.65184,0.180308,
1282,1.12064,-32.0061,1.91693,29.1444,0.186127,1.64997,0.185121,
1283,1.12015,-32.0069,1.91743,29.1437,0.187315,1.65133,0.18507,
1284,1.11915,-32.0079,1.91834,29.1432,0.185379,1.64802,0.189169,
1285,1.11983,-32.0089,1.91745,29.1431,0.18308,1.64408,0.188996,
1286,1.12205,-32.0096,1.91503,29.1431,0.184013,1.64487,0.181639,
1287,1.12328,-32.0105,1.9136,29.143,0.183227,1.643,0.178316,
1288,1.12457,-32.0113,1.91214,29.1428,0.183379,1.64234,0.174098,
1289,1.12577,-32.0122,1.91079,29.1424,0.184495,1.64262,0.17025,
1290,1.11561,-32.0036,1.92418,29.1473,0.2115,1.65593,0.118967,
1291,1.11412,-32.0043,1.92585,29.146,0.21534,1.66129,0.118957,
1292,1.1111,-32.0052,1.92905,29.1446,0.216532,1.66269,0.125358,
1293,1.10835,-32.0061,1.93195,29.1432,0.217544,1.66381,0.131215,
1294,1.10536,-32.007,1.9351,29.1418,0.218521,1.66488,0.137799,
1295,1.10171,-32.008,1.93897,29.1403,0.219143,1.66545,0.146731,
1296,1.09768,-32.0091,1.9432,29.1388,0.218543,1.66423,0.158212,
1297,1.09524,-32.0101,1.94576,29.1378,0.218212,1.66347,0.165793,
1298,1.09424,-32.0113,1.94659,29.1375,0.213573,1.65625,0.173966,
1299,1.09885,-32.0122,1.94145,29.1383,0.210985,1.65159,0.167007,
1300,1.0785,-32.0036,1.96254,29.1367,0.206343,1.6656,0.239094,
1301,1.08516,-32.0043,1.95524,29.1381,0.204477,1.66274,0.223231,
1302,1.08976,-32.0049,1.95028,29.1386,0.205861,1.66486,0.209928,
1303,1.09065,-32.0055,1.94936,29.1379,0.209091,1.66999,0.205206,
1304,1.08922,-32.0061,1.95099,29.1363,0.213818,1.67789,0.205983,
1305,1.08608,-32.0068,1.95439,29.1345,0.217002,1.68437,0.213188,
1306,1.08315,-32.0078,1.95734,29.133,0.215469,1.68519,0.223864,
1307,1.08284,-32.0087,1.95738,29.1321,0.211749,1.68554,0.231346,
1308,1.08577,-32.0095,1.95373,29.1313,0.206421,1.68726,0.240043,
1309,1.10704,-32.0108,1.92972,29.1304,0.205634,1.68977,0.211565,
1310,1.08499,-31.9375,1.90224,29.1113,0.229722,1.6694,0.181148,
1311,1.06933,-31.9388,1.91923,29.1072,0.23476,1.67113,0.193904,
1312,1.0622,-31.9404,1.92657,29.1061,0.228861,1.66023,0.203954,
1313,1.07124,-31.9422,1.91592,29.1094,0.208602,1.63428,0.206221,
1314,1.10162,-31.9437,1.88215,29.1174,0.182397,1.60596,0.192627,
1315,1.14044,-31.9447,1.83969,29.1261,0.162687,1.58802,0.169724,
1316,1.17252,-31.9452,1.80519,29.1319,0.158251,1.58715,0.147423,
1317,1.18303,-31.9456,1.79479,29.132,0.173782,1.60421,0.134905,
1318,1.16365,-31.9461,1.81734,29.1263,0.205062,1.62978,0.132604,
1319,1.08796,-31.9461,1.90124,29.1142,0.243638,1.65161,0.146278,
1320,1.04808,-31.9375,1.94182,29.1079,0.228182,1.66222,0.241349,
1321,1.04675,-31.9384,1.94312,29.1071,0.228222,1.66163,0.24372,
1322,1.036,-31.9395,1.95451,29.1036,0.230175,1.66351,0.266227,
1323,1.02517,-31.9407,1.96596,29.1002,0.230587,1.66318,0.291443,
1324,1.01619,-31.942,1.97537,29.0976,0.228347,1.65908,0.315859,
1325,1.01188,-31.9434,1.97967,29.0966,0.22257,1.64997,0.332828,
1326,1.02113,-31.9444,1.96943,29.0994,0.215214,1.6389,0.316727,
1327,1.03427,-31.9451,1.95505,29.1031,0.209464,1.62989,0.287093,
1328,1.04565,-31.9458,1.94255,29.106,0.205112,1.62213,0.25896,
1329,1.05754,-31.9462,1.92966,29.1084,0.205668,1.62107,0.225908,
1330,1.08493,-31.9369,1.90013,29.1172,0.202264,1.6353,0.188051,
1331,1.08336,-31.9379,1.90173,29.1162,0.202496,1.63518,0.191661,
1332,1.08258,-31.9388,1.90244,29.1156,0.201933,1.63383,0.193907,
1333,1.08269,-31.9397,1.9022,29.1152,0.201223,1.63223,0.193779,
1334,1.08286,-31.9406,1.90192,29.1147,0.201162,1.63161,0.192641,
1335,1.08185,-31.9413,1.90306,29.1135,0.204616,1.63644,0.191444,
1336,1.07816,-31.9422,1.90709,29.1116,0.208298,1.64169,0.197412,
1337,1.07251,-31.9433,1.9131,29.1096,0.208356,1.64142,0.212051,
1338,1.06918,-31.9445,1.91652,29.1084,0.205796,1.63706,0.223125,
1339,1.07108,-31.9457,1.91424,29.1087,0.201726,1.62979,0.222407,
1340,1.06606,-31.9381,1.92025,29.1136,0.201301,1.62315,0.221921,
1341,1.07281,-31.9387,1.91289,29.115,0.200322,1.62122,0.202709,
1342,1.07686,-31.9391,1.90865,29.115,0.205597,1.6288,0.185454,
1343,1.07517,-31.9397,1.91059,29.1133,0.211189,1.63676,0.183799,
1344,1.06958,-31.9406,1.91665,29.1108,0.215722,1.64306,0.19474,
1345,1.06463,-31.9415,1.922,29.1087,0.218962,1.64745,0.205841,
1346,1.06157,-31.9426,1.92507,29.1076,0.216669,1.64327,0.216921,
1347,1.06285,-31.9436,1.92348,29.1078,0.214234,1.63882,0.215477,
1348,1.0643,-31.9443,1.92186,29.1075,0.215522,1.64,0.209417,
1349,1.06093,-31.9451,1.92561,29.1051,0.221621,1.64809,0.212798,
1350,1.03652,-31.9367,1.95364,29.1028,0.245251,1.6794,0.263275,
1351,1.0229,-31.9384,1.96833,29.0984,0.245852,1.68045,0.301917,
1352,1.01404,-31.9408,1.97751,29.0966,0.233761,1.6622,0.341916,
1353,1.02467,-31.943,1.96544,29.1012,0.211489,1.62813,0.339793,
1354,1.05336,-31.9443,1.93401,29.1104,0.191298,1.59683,0.286139,
1355,1.08577,-31.9445,1.89904,29.1193,0.184205,1.58534,0.209225,
1356,1.10708,-31.9442,1.87649,29.1235,0.192032,1.59693,0.148145,
1357,1.10878,-31.944,1.87528,29.1218,0.208995,1.62343,0.131201,
1358,1.0906,-31.9441,1.89526,29.1151,0.225503,1.65001,0.164423,
1359,1.06434,-31.9449,1.92331,29.1064,0.236915,1.66441,0.210585,
1360,1.06382,-31.9368,1.92343,29.1123,0.225815,1.65857,0.193772,
1361,1.06156,-31.9377,1.92576,29.1111,0.226552,1.65914,0.197696,
1362,1.05918,-31.9386,1.92822,29.1099,0.227133,1.65951,0.202111,
1363,1.04724,-31.9397,1.94092,29.1059,0.229472,1.66208,0.227402,
1364,1.03605,-31.941,1.9528,29.1022,0.229828,1.66183,0.253875,
1365,1.02798,-31.9425,1.96126,29.0997,0.227196,1.65736,0.276483,
1366,1.02572,-31.9438,1.96344,29.0992,0.22129,1.64828,0.288147,
1367,1.03062,-31.9451,1.95788,29.1009,0.213322,1.63631,0.283166,
1368,1.04154,-31.946,1.94588,29.1041,0.205642,1.62472,0.261763,
1369,1.05791,-31.9466,1.928,29.1083,0.200408,1.61514,0.222059,
1370,1.05503,-31.9379,1.931,29.1095,0.201068,1.63128,0.236406,
1371,1.06223,-31.9386,1.92318,29.1111,0.199511,1.62868,0.215836,
1372,1.06789,-31.9389,1.91722,29.1116,0.204177,1.63552,0.194324,
1373,1.06848,-31.9393,1.9168,29.1104,0.211888,1.64695,0.184524,
1374,1.06384,-31.94,1.92192,29.1079,0.218215,1.65601,0.19107,
1375,1.05754,-31.941,1.92872,29.1053,0.222027,1.66108,0.20548,
1376,1.05269,-31.9421,1.93384,29.1034,0.222652,1.66118,0.219159,
1377,1.05029,-31.9432,1.93631,29.1023,0.222173,1.65963,0.226625,
1378,1.04793,-31.9441,1.93882,29.1009,0.223768,1.66137,0.231206,
1379,1.0415,-31.9451,1.94595,29.0975,0.230804,1.67124,0.242333,
1380,1.02254,-31.9368,1.96819,29.097,0.253044,1.6949,0.282666,
1381,1.0056,-31.9388,1.9866,29.0913,0.25397,1.69712,0.328075,
1382,0.99532,-31.9413,1.99759,29.0884,0.244602,1.68373,0.36675,
1383,1.0028,-31.9437,1.98924,29.0915,0.225724,1.65555,0.367536,
1384,1.02867,-31.9452,1.96111,29.0998,0.207018,1.62714,0.31913,
1385,1.06062,-31.9456,1.92676,29.1087,0.199033,1.61476,0.24523,
1386,1.08401,-31.9455,1.90198,29.114,0.204404,1.62291,0.183674,
1387,1.09113,-31.9454,1.89485,29.1142,0.217287,1.64329,0.160861,
1388,1.0849,-31.9456,1.90185,29.1115,0.227342,1.66046,0.177105,
1389,1.07903,-31.9463,1.9078,29.1095,0.229117,1.66074,0.189675,
1390,1.07507,-31.9377,1.91165,29.1136,0.222065,1.66408,0.198051,
1391,1.07549,-31.9385,1.91099,29.1134,0.221212,1.66191,0.19758,
1392,1.07583,-31.9394,1.91042,29.1131,0.220433,1.65984,0.197181,
1393,1.07606,-31.9402,1.90997,29.1128,0.219742,1.65789,0.196885,
1394,1.07616,-31.941,1.90967,29.1125,0.219156,1.6561,0.196724,
1395,1.07929,-31.9419,1.90617,29.1131,0.21743,1.65296,0.191662,
1396,1.07908,-31.9427,1.90619,29.1127,0.217053,1.65142,0.191805,
1397,1.07869,-31.9436,1.90642,29.1121,0.216857,1.6501,0.192205,
1398,1.08193,-31.9444,1.9028,29.1127,0.215326,1.64709,0.186962,
1399,1.08186,-31.9453,1.90265,29.112,0.21567,1.64627,0.18823,
1400,1.07999,-31.9378,1.90455,29.1154,0.204995,1.64238,0.196775,
1401,1.07872,-31.9386,1.90571,29.1146,0.205333,1.64202,0.198243,
1402,1.07706,-31.9393,1.9073,29.1137,0.205926,1.64205,0.200245,
1403,1.07493,-31.9401,1.90939,29.1125,0.206804,1.6425,0.202927,
1404,1.0775,-31.9409,1.9065,29.1129,0.205741,1.64044,0.197761,
1405,1.08013,-31.9417,1.90354,29.1133,0.204756,1.63852,0.192261,
1406,1.07667,-31.9424,1.90709,29.1117,0.206473,1.64018,0.196843,
1407,1.07244,-31.9432,1.91146,29.1099,0.208599,1.6424,0.202844,
1408,1.06745,-31.944,1.91668,29.1077,0.211151,1.64516,0.210562,
1409,1.06224,-31.9448,1.92212,29.1053,0.214304,1.64838,0.219464,
1410,0.993425,-31.8717,1.94717,29.0682,0.277161,1.69378,0.247619,
1411,0.986281,-31.8726,1.95469,29.0654,0.279644,1.69678,0.261062,
1412,0.979241,-31.8736,1.9621,29.0626,0.28145,1.69892,0.275485,
1413,0.978789,-31.8745,1.96246,29.0619,0.281047,1.69859,0.277309,
1414,0.973943,-31.8756,1.96748,29.0599,0.280616,1.69826,0.28957,
1415,0.975408,-31.8764,1.96574,29.0598,0.278737,1.69719,0.288981,
1416,0.974609,-31.8774,1.96634,29.059,0.275701,1.69547,0.295248,
1417,0.975859,-31.8783,1.9647,29.0586,0.271644,1.69459,0.29978,
1418,0.978906,-31.8792,1.96105,29.0578,0.26776,1.69615,0.303245,
1419,0.994402,-31.8805,1.94359,29.057,0.271526,1.69813,0.246096,
1420,1.04772,-31.8735,1.88813,29.0797,0.254072,1.66248,0.180782,
1421,1.03468,-31.875,1.9022,29.0761,0.256957,1.66115,0.190174,
1422,1.03202,-31.8767,1.90468,29.0761,0.24837,1.64712,0.196734,
1423,1.04455,-31.8784,1.89035,29.0805,0.226582,1.6197,0.197714,
1424,1.07491,-31.8796,1.85673,29.0892,0.199929,1.59151,0.188117,
1425,1.11185,-31.8803,1.81637,29.0984,0.179602,1.57385,0.172119,
1426,1.14263,-31.8807,1.78328,29.1047,0.173948,1.57301,0.155989,
1427,1.15422,-31.8809,1.77166,29.1053,0.18814,1.59028,0.145462,
1428,1.13249,-31.8814,1.79673,29.0985,0.222287,1.61954,0.139582,
1429,1.06066,-31.8817,1.87664,29.0859,0.26454,1.64387,0.128224,
1430,1.04469,-31.8729,1.88996,29.087,0.230281,1.63268,0.179571,
1431,1.03582,-31.8739,1.89934,29.0835,0.233449,1.63647,0.196262,
1432,1.03446,-31.8749,1.9007,29.0825,0.233665,1.63634,0.198861,
1433,1.02511,-31.8761,1.9106,29.079,0.235608,1.6383,0.218895,
1434,1.02474,-31.8771,1.91089,29.0785,0.234515,1.63631,0.220725,
1435,1.01889,-31.8783,1.91699,29.0763,0.233219,1.63362,0.236073,
1436,1.01716,-31.8796,1.91865,29.0756,0.229712,1.62779,0.243278,
1437,1.02005,-31.8807,1.91534,29.0764,0.225076,1.62035,0.239249,
1438,1.02626,-31.8816,1.9085,29.0781,0.221242,1.61398,0.225027,
1439,1.03453,-31.8823,1.89948,29.0799,0.21992,1.61016,0.200889,
1440,1.04794,-31.8725,1.88504,29.0893,0.218593,1.6131,0.176476,
1441,1.04803,-31.8735,1.88485,29.0889,0.217212,1.61075,0.176057,
1442,1.04873,-31.8743,1.8841,29.0884,0.218524,1.61268,0.171951,
1443,1.04795,-31.8752,1.8849,29.0876,0.219044,1.61314,0.172451,
1444,1.04701,-31.8761,1.88586,29.0868,0.219092,1.61273,0.174274,
1445,1.04755,-31.8769,1.88525,29.0864,0.219716,1.61339,0.17187,
1446,1.04886,-31.8777,1.88373,29.0865,0.21836,1.61078,0.16871,
1447,1.05164,-31.8784,1.88067,29.0868,0.218402,1.6104,0.159489,
1448,1.05323,-31.879,1.87901,29.0862,0.222084,1.61569,0.149272,
1449,1.05088,-31.8796,1.88172,29.0838,0.230434,1.62775,0.145395,
1450,1.03847,-31.8701,1.89521,29.0833,0.242451,1.65493,0.176481,
1451,1.02435,-31.8714,1.91067,29.0769,0.252152,1.67058,0.204081,
1452,1.01148,-31.873,1.9247,29.0715,0.257299,1.6793,0.23415,
1453,1.0027,-31.8748,1.93419,29.0678,0.256017,1.67812,0.259061,
1454,1.00317,-31.8764,1.93367,29.0674,0.251317,1.67146,0.26165,
1455,1.00945,-31.8774,1.92697,29.0687,0.249233,1.66856,0.246428,
1456,1.01539,-31.8782,1.92075,29.0697,0.250354,1.67052,0.229392,
1457,1.0172,-31.8789,1.91902,29.0692,0.254426,1.67707,0.222295,
1458,1.0149,-31.8796,1.9216,29.0679,0.257858,1.6827,0.228007,
1459,1.01296,-31.8804,1.92357,29.0666,0.259108,1.68315,0.233471,
1460,0.97649,-31.8727,1.96326,29.0585,0.273679,1.71132,0.332906,
1461,0.977604,-31.8737,1.96209,29.0582,0.273651,1.71133,0.329919,
1462,0.977964,-31.8746,1.9617,29.0578,0.273661,1.71117,0.328468,
1463,0.97837,-31.8756,1.96126,29.0573,0.27365,1.71096,0.326933,
1464,0.978821,-31.8765,1.96077,29.0569,0.273622,1.7107,0.325314,
1465,0.980068,-31.8775,1.95946,29.0567,0.273529,1.71058,0.322231,
1466,0.980514,-31.8785,1.95897,29.0562,0.273509,1.71024,0.320577,
1467,0.981003,-31.8794,1.95843,29.0558,0.273535,1.70987,0.318806,
1468,0.981589,-31.8803,1.9578,29.0554,0.273718,1.70954,0.316803,
1469,0.982763,-31.8813,1.95651,29.055,0.274546,1.70944,0.313341,
1470,1.02603,-31.8731,1.91022,29.0768,0.248379,1.67052,0.20864,
1471,1.02652,-31.8741,1.90968,29.0765,0.248235,1.67006,0.207233,
1472,1.02705,-31.875,1.90908,29.0761,0.248046,1.66952,0.205791,
1473,1.02762,-31.8759,1.90844,29.0757,0.247824,1.66892,0.204316,
1474,1.02822,-31.8769,1.90776,29.0754,0.247578,1.66825,0.20281,
1475,1.02972,-31.8779,1.90617,29.0753,0.247258,1.66776,0.199636,
1476,1.0303,-31.8788,1.90552,29.0749,0.246999,1.66698,0.198227,
1477,1.03091,-31.8797,1.90482,29.0746,0.246761,1.66617,0.196798,
1478,1.03164,-31.8807,1.904,29.0743,0.246632,1.66535,0.195266,
1479,1.03307,-31.8816,1.90239,29.0739,0.247063,1.66467,0.192428,
1480,1.01999,-31.8724,1.91631,29.0742,0.251865,1.67963,0.236797,
1481,1.02058,-31.8733,1.91561,29.0739,0.251438,1.67856,0.235437,
1482,1.02119,-31.8743,1.91489,29.0736,0.250993,1.67745,0.23406,
1483,1.02182,-31.8752,1.91414,29.0733,0.250524,1.67628,0.23269,
1484,1.02246,-31.8761,1.91338,29.0731,0.250033,1.67506,0.231346,
1485,1.02312,-31.8771,1.9126,29.0728,0.249517,1.67376,0.230049,
1486,1.02484,-31.878,1.91074,29.0728,0.248853,1.67255,0.22677,
1487,1.02546,-31.879,1.90999,29.0726,0.24828,1.67106,0.225765,
1488,1.02623,-31.8799,1.90907,29.0723,0.247694,1.66945,0.224774,
1489,1.02795,-31.8809,1.90708,29.0721,0.247469,1.66774,0.222414,
1490,1.02487,-31.8728,1.91053,29.0734,0.249721,1.6821,0.23088,
1491,1.02572,-31.8738,1.9095,29.0733,0.248864,1.68022,0.229564,
1492,1.02661,-31.8747,1.90844,29.0732,0.247976,1.67826,0.228229,
1493,1.02752,-31.8756,1.90734,29.0731,0.24706,1.67624,0.226885,
1494,1.02845,-31.8765,1.90622,29.073,0.246121,1.67416,0.225538,
1495,1.02939,-31.8774,1.90508,29.0729,0.245167,1.67201,0.224197,
1496,1.03175,-31.8784,1.90249,29.0732,0.243914,1.66975,0.220229,
1497,1.03265,-31.8793,1.90138,29.0731,0.242989,1.66748,0.219017,
1498,1.03361,-31.8802,1.90021,29.073,0.242186,1.66522,0.217746,
1499,1.03504,-31.8811,1.89852,29.0729,0.241877,1.66309,0.215539,
1500,1.03774,-31.873,1.89665,29.0815,0.241588,1.65227,0.221384,
1501,1.0403,-31.874,1.89383,29.0819,0.240067,1.64964,0.217258,
1502,1.04111,-31.8749,1.89279,29.0818,0.238999,1.64727,0.21634,
1503,1.0419,-31.8757,1.89177,29.0817,0.237934,1.64488,0.215441,
1504,1.04268,-31.8766,1.89076,29.0816,0.236884,1.64249,0.214566,
1505,1.04343,-31.8775,1.88978,29.0815,0.235862,1.64012,0.213719,
1506,1.04413,-31.8784,1.88885,29.0813,0.234891,1.63779,0.212908,
1507,1.04478,-31.8792,1.88796,29.0812,0.234012,1.63553,0.212151,
1508,1.04768,-31.8802,1.88476,29.0817,0.232482,1.63254,0.207556,
1509,1.04878,-31.8811,1.88337,29.0814,0.23219,1.63061,0.206779,
1510,1.02723,-31.8082,1.85585,29.0606,0.236483,1.6194,0.198293,
1511,1.02747,-31.8091,1.8554,29.0603,0.235743,1.61749,0.198271,
1512,1.02759,-31.81,1.85507,29.0599,0.235085,1.61569,0.198404,
1513,1.03044,-31.8109,1.85191,29.0605,0.233283,1.61255,0.193873,
1514,1.03033,-31.8117,1.85183,29.0601,0.232761,1.61093,0.194347,
1515,1.03006,-31.8126,1.85192,29.0596,0.232359,1.60949,0.195046,
1516,1.0296,-31.8134,1.85221,29.059,0.232095,1.60824,0.196031,
1517,1.02894,-31.8142,1.85272,29.0583,0.231988,1.6072,0.197381,
1518,1.02813,-31.8151,1.85339,29.0576,0.23207,1.60639,0.199157,
1519,1.02785,-31.8159,1.85347,29.0567,0.232614,1.60585,0.200569,
1520,1.01899,-31.8092,1.86334,29.0594,0.224315,1.59741,0.234563,
1521,1.01768,-31.81,1.86454,29.0584,0.224703,1.59723,0.236527,
1522,1.02076,-31.8109,1.86111,29.0591,0.222948,1.59422,0.230957,
1523,1.01887,-31.8117,1.86294,29.0579,0.223742,1.59465,0.233715,
1524,1.01647,-31.8125,1.86532,29.0566,0.224859,1.59554,0.237263,
1525,1.01348,-31.8133,1.86834,29.055,0.226341,1.59697,0.241816,
1526,1.00978,-31.8141,1.87213,29.0531,0.228229,1.59896,0.247653,
1527,1.00526,-31.8149,1.87681,29.0509,0.230562,1.60154,0.25512,
1528,0.999855,-31.8158,1.88244,29.0483,0.233391,1.60468,0.264531,
1529,1.00147,-31.8167,1.88057,29.0481,0.233648,1.60386,0.260827,
1530,0.971031,-31.8085,1.9146,29.0387,0.264921,1.6606,0.326305,
1531,0.962834,-31.8096,1.92323,29.0352,0.267737,1.6637,0.34322,
1532,0.954557,-31.8108,1.93195,29.0317,0.269677,1.66542,0.361921,
1533,0.947172,-31.8121,1.9397,29.0286,0.269948,1.6646,0.380816,
1534,0.942182,-31.8135,1.94485,29.0267,0.267668,1.66001,0.39674,
1535,0.941323,-31.8148,1.94553,29.0265,0.262291,1.65095,0.405089,
1536,0.950275,-31.8156,1.93571,29.0298,0.255053,1.63996,0.388113,
1537,0.958394,-31.8165,1.92671,29.0328,0.247449,1.62785,0.371755,
1538,0.969583,-31.817,1.91447,29.0366,0.242014,1.61874,0.342892,
1539,0.981265,-31.8174,1.9018,29.0397,0.241471,1.61678,0.308897,
1540,1.02783,-31.8091,1.85289,29.0627,0.223511,1.59106,0.174336,
1541,1.02648,-31.81,1.85425,29.0617,0.223725,1.59085,0.177945,
1542,1.02592,-31.811,1.85476,29.061,0.223554,1.59008,0.179508,
1543,1.02547,-31.8119,1.85517,29.0602,0.223848,1.59009,0.180047,
1544,1.02411,-31.8127,1.85665,29.0588,0.227287,1.59538,0.180071,
1545,1.02023,-31.8137,1.86081,29.0567,0.229643,1.59871,0.188131,
1546,1.01539,-31.8149,1.866,29.0542,0.23136,1.60101,0.199579,
1547,1.01128,-31.8162,1.87038,29.0522,0.23114,1.60023,0.210833,
1548,1.01,-31.8174,1.87166,29.0514,0.228756,1.59598,0.215855,
1549,1.01294,-31.8185,1.86838,29.0519,0.225994,1.59058,0.208889,
