DMackRus/ILQR_Mujoco_Arm_Push_Clyinder/finalTrajectory.csv
Control Number,T1,T2,T3,T4,T5,T6,T7,J1,J2,J3,J4,J5,J6,J7,Cube x,Cube y,Cube w,V1,V2,V3,V4,V5,V6,V7,Cube x V,Cube y V,Cube w V,
0,0.736664,-32.3931,3.45041,29.9894,2.84667,1.18851,-1.48452,-0.120397,0.338914,0.0645902,-2.50149,-0.00280361,1.23688,0.00782865,0.6,0.02,0,-0.000397618,-0.000828794,-0.00137505,-0.00169312,-0.0162365,0.0739159,0.0115947,7.49401e-18,-4.81482e-35,1.42255e-16,
1,1.32588,-33.4716,3.03884,29.8368,3.17925,1.65383,-2.30544,-0.120522,0.338651,0.0647785,-2.49914,0.00308602,1.23432,0.00689016,0.6,0.02,0,-0.0051973,-0.0266027,0.0139687,0.145556,0.329056,-0.181147,-0.0739083,7.49401e-18,2.77556e-19,1.92045e-16,
2,1.86244,-33.2231,2.66373,30.2277,2.62319,0.821525,-1.69477,-0.120493,0.337733,0.065,-2.4963,0.0109605,1.23107,0.00457413,0.6,0.02,0,0.00195686,-0.0530056,0.0114419,0.146178,0.37813,-0.150443,-0.141372,7.49401e-18,1.38778e-19,1.96786e-16,
3,1.5904,-32.8619,2.90105,30.4028,0.823735,2.69503,1.07839,-0.120317,0.336793,0.0651834,-2.49302,0.0162882,1.22802,0.00159266,0.6,0.02,0,0.0117839,-0.0431249,0.0119123,0.168527,0.246668,-0.126629,-0.161694,8.04912e-18,1.38778e-19,1.39884e-16,
4,1.60239,-32.6367,2.83066,30.3169,1.03833,4.28979,0.422139,-0.12014,0.336163,0.0654512,-2.48961,0.0177382,1.22925,0.00372689,0.6,0.02,0,0.0111084,-0.0309148,0.0158046,0.174997,0.0557545,0.0936284,0.108021,4.85723e-18,2.77556e-19,2.41834e-16,
5,1.57113,-32.5677,2.79334,30.2857,1.03677,4.18987,0.432054,-0.119866,0.335622,0.065801,-2.48621,0.0192601,1.23389,0.00458852,0.6,0.02,0,0.0146363,-0.0280303,0.0182646,0.173685,0.074466,0.252746,0.0422617,7.21645e-18,4.16334e-19,1.8019e-16,
6,1.53936,-32.4959,2.75636,30.2522,1.03884,4.09535,0.440248,-0.119565,0.335023,0.0661735,-2.4827,0.0207434,1.23886,0.0054524,0.6,0.02,0,0.0152828,-0.0309827,0.0188638,0.176485,0.0742721,0.248577,0.0432011,7.21645e-18,5.55112e-19,-4.97893e-17,
7,1.50841,-32.4243,2.72015,30.2174,1.04395,3.99868,0.448652,-0.119259,0.334394,0.0665503,-2.47916,0.0222268,1.24368,0.00633227,0.6,0.02,0,0.0153157,-0.0314614,0.0188425,0.176665,0.0742331,0.240175,0.044018,7.07767e-18,4.16334e-19,2.8451e-17,
8,1.47884,-32.3547,2.68443,30.1811,1.05475,3.89711,0.45735,-0.118954,0.33377,0.0669239,-2.47563,0.0237145,1.24832,0.00722899,0.6,0.02,0,0.0151388,-0.0308475,0.0186017,0.176021,0.074463,0.230117,0.0448693,7.21645e-18,-5.55112e-19,9.95787e-17,
9,1.45411,-32.2884,2.64667,30.1433,1.07726,3.78672,0.466798,-0.118654,0.333162,0.0672919,-2.47211,0.0252169,1.25274,0.00814322,0.6,0.02,0,0.0148989,-0.0298328,0.018285,0.175065,0.075252,0.219063,0.0457545,7.63278e-18,-1.38778e-19,3.31929e-17,
10,1.45614,-32.2278,2.58238,30.1037,1.11798,3.65839,0.476632,-0.118358,0.332576,0.0676529,-2.46862,0.0267561,1.25693,0.00907633,0.6,0.02,0,0.0146857,-0.0286974,0.0179246,0.173995,0.0772076,0.206975,0.0467156,7.35523e-18,-4.16334e-19,1.16175e-16,
11,1.65974,-32.178,2.30455,30.0705,1.14961,3.49279,0.505698,-0.118061,0.332012,0.0680012,-2.46515,0.0283614,1.26082,0.0100156,0.60001,0.0200012,2.71952e-09,0.0146995,-0.0278229,0.0169727,0.171782,0.078271,0.183174,0.0410725,0.00505452,0.000580457,0.0366855,
12,3.42145,-32.1851,0.331868,30.1431,0.598039,3.22476,1.34909,-0.117724,0.331479,0.0682922,-2.46182,0.0298875,1.26389,0.0108233,0.600605,0.0199863,0.00389148,0.0169343,-0.0246154,0.0145706,0.162951,0.0756222,0.14681,0.0403233,0.0462002,-0.00148816,0.2811,
13,4.22088,-32.1516,-0.46976,30.2352,0.166416,3.23965,0.764407,-0.117041,0.330982,0.0681939,-2.45856,0.0303238,1.26631,0.0132656,0.601937,0.0198293,0.0107835,0.0345111,-0.0227359,-0.0052742,0.162688,0.0209174,0.120386,0.126344,0.0704828,-0.00607236,0.34354,
14,4.86728,-32.0604,-1.22532,30.0735,-0.441496,3.00456,3.3775,-0.116217,0.330568,0.0679051,-2.45529,0.029993,1.26871,0.0146777,0.603343,0.0197816,0.0161612,0.041497,-0.0195446,-0.0143246,0.162301,-0.0216682,0.117794,0.0685344,0.0759326,-0.000426661,0.257396,
15,5.24238,-32.0119,-1.67325,30.0269,-1.37288,2.49529,5.50875,-0.115259,0.330152,0.0674745,-2.4521,0.0282976,1.27052,0.0211051,0.605596,0.0195332,0.022476,0.0483834,-0.0180345,-0.021455,0.160696,-0.0818837,0.0973295,0.332002,0.103612,-0.00782406,0.258281,
16,4.16427,-31.9434,-0.522666,29.874,-0.797176,2.12631,2.6479,-0.114236,0.329749,0.0669415,-2.44888,0.024845,1.2715,0.0318753,0.607978,0.0192532,0.027551,0.0515759,-0.01815,-0.0263822,0.161567,-0.174131,0.0501591,0.545881,0.103895,-0.00854676,0.179582,
17,4.93032,-31.7759,-1.5342,29.997,-2.17427,2.31475,11.338,-0.113392,0.329386,0.0666659,-2.44566,0.0224686,1.27191,0.0371449,0.609641,0.0191773,0.0278705,0.0419028,-0.0173606,-0.013831,0.159624,-0.118478,0.0110894,0.258674,0.0756249,-0.000729709,0.00661146,
18,4.72397,-32.246,-1.6372,29.8568,-9.14487,-1.50621,12,-0.112388,0.328991,0.066219,-2.44261,0.0171164,1.27206,0.0591664,0.612842,0.018199,0.0307494,0.0507832,-0.0142463,-0.0226755,0.160767,-0.2541,0.041651,1.1339,0.112351,-0.0455342,-0.272853,
19,3.08625,-33.1192,-0.41431,29.2439,-12,-9.18728,12,-0.111681,0.328384,0.0654775,-2.4389,-0.000530239,1.26649,0.0833288,0.614006,0.0174695,0.0150261,0.0377916,-0.0324551,-0.0333989,0.1749,-0.939281,-0.313058,1.20047,0.0167273,-0.0274282,-1.20096,
20,-0.0104482,-36.5756,4.07597,24.2753,12,-12,-12,-0.111249,0.327219,0.0650512,-2.43491,-0.0246639,1.24721,0.107382,0.613976,0.0171722,-0.00324812,0.0249016,-0.057513,-0.0171502,0.180969,-1.22652,-1.05579,1.19871,-0.00243023,-0.00757268,-0.477141,
21,3.22579,-31.8329,-0.181786,30.4126,0.660711,-3.58111,-12,-0.110532,0.325673,0.0664136,-2.43267,-0.00542483,1.22157,0.0834414,0.61397,0.017101,-0.00750767,0.0274234,-0.0746829,0.0573903,0.113467,1.14486,-1.36187,-1.2012,0.00168801,-0.0014344,-0.0669651,
22,5.7276,-32.584,-0.237309,27.5277,12,-0.633919,-12,-0.109907,0.325379,0.0661728,-2.42986,-0.00279656,1.20791,0.0597449,0.61404,0.0170937,-0.00730434,0.0294196,-0.00515208,-0.0133839,0.155023,0.0284475,-0.558372,-1.1996,0.00457129,0.000180556,0.0504751,
23,2.08831,-31.6245,1.71966,29.8601,0.683641,5.42646,1.22246,-0.10856,0.325242,0.0661683,-2.42757,0.018375,1.20231,0.0354567,0.614142,0.017102,-0.00596945,0.0666081,-0.0099349,-0.00270507,0.12631,1.15371,-0.258731,-1.2003,0.00524234,0.000507772,0.0729276,
24,5.67867,-31.6958,-2.34781,30.0131,0.515584,4.92044,-0.33501,-0.10827,0.325426,0.0661733,-2.42482,0.0208127,1.20715,0.0378197,0.614242,0.0171121,-0.00456198,0.0143782,0.00555737,0.00217981,0.146231,0.0335433,0.33862,0.122776,0.0047428,0.000486887,0.0664227,
25,5.94102,-31.6107,-2.50895,30.072,0.0702951,5.0169,-0.386567,-0.107225,0.325357,0.065465,-2.4217,0.0211765,1.21331,0.037204,0.614328,0.0171209,-0.00337792,0.0540965,-0.00787398,-0.0346128,0.158612,0.0159006,0.30867,-0.0333093,0.00385757,0.000390339,0.05316,
26,5.73856,-31.5462,-2.33423,29.9886,0.00672049,4.98525,0.436488,-0.106096,0.325161,0.0647366,-2.41854,0.0206057,1.21939,0.0363183,0.61472,0.0171413,0.000890239,0.0575137,-0.0104362,-0.0352861,0.155665,-0.0354486,0.298721,-0.0473243,0.0375039,0.0018741,0.39433,
27,5.26259,-31.4783,-1.88832,29.9154,-0.0241007,4.68871,0.807955,-0.104959,0.324955,0.0640911,-2.41549,0.0196945,1.22516,0.0369376,0.615986,0.0170994,0.00969201,0.0573464,-0.00858088,-0.0319022,0.152497,-0.0439555,0.290237,0.0351625,0.0706166,-0.00121574,0.419328,
28,2.49741,-31.3678,1.0793,29.7206,0.963943,4.54957,-0.757402,-0.103894,0.324787,0.0635532,-2.41243,0.0187313,1.23045,0.038365,0.617568,0.0170733,0.0172088,0.0533359,-0.00729528,-0.0266653,0.152095,-0.0474455,0.261104,0.0728193,0.0820332,-0.000372948,0.318032,
29,4.7633,-31.4011,-1.61042,29.6895,1.03139,4.46358,0.820925,-0.103337,0.324668,0.0636382,-2.40944,0.0196301,1.23539,0.0367464,0.619139,0.0171236,0.0209833,0.0269468,-0.00486692,0.00398246,0.148022,0.0511354,0.234255,-0.0822573,0.0850819,0.00366176,0.198241,
30,2.89111,-31.2536,0.453557,29.6946,-0.720021,3.44039,6.191,-0.102332,0.324565,0.0632105,-2.40654,0.0206732,1.23976,0.0381459,0.621359,0.0169753,0.025937,0.0496164,-0.00278255,-0.0231421,0.145315,0.0584667,0.217462,0.0778098,0.110729,-0.00351649,0.211559,
31,3.16038,-31.3065,0.125194,29.4171,1.44056,3.99895,-0.31915,-0.101756,0.324409,0.0631248,-2.40358,0.0184188,1.24244,0.0501268,0.624457,0.0164386,0.0294868,0.0288513,-0.00446819,-0.00391599,0.152593,-0.111269,0.154803,0.619307,0.11255,-0.0247576,-0.194556,
32,4.53032,-31.2745,-1.47098,29.9903,-0.918758,2.93523,3.41561,-0.101055,0.324341,0.0630465,-2.40069,0.0202261,1.24615,0.0495762,0.626057,0.0160612,0.0200054,0.0336218,-0.00230643,-0.00597434,0.142573,0.0989227,0.161648,-0.0361407,0.0788262,-0.0109457,-0.411515,
33,4.48276,-31.2239,-1.44696,29.8835,-0.420274,3.67072,1.87228,-0.100205,0.324292,0.0625261,-2.39769,0.0178253,1.24741,0.0562536,0.627991,0.0157162,0.0151897,0.0425289,0.000116029,-0.0262548,0.14766,-0.133079,0.061317,0.338888,0.0938846,-0.00877496,-0.138026,
34,4.24785,-31.1869,-1.26367,29.7612,-0.583359,3.3646,3.68641,-0.0993439,0.324378,0.0620242,-2.39487,0.016108,1.2497,0.0599764,0.629964,0.0157932,0.0136166,0.0432146,0.00598157,-0.0249027,0.141421,-0.084714,0.123035,0.18455,0.0995375,0.0052406,-0.0354404,
35,3.97903,-31.1493,-1.01212,29.7581,-0.867002,2.70728,3.79801,-0.0985196,0.324478,0.0615703,-2.39203,0.0140575,1.25169,0.0672315,0.632054,0.015752,0.0132591,0.0410929,0.0053099,-0.0228002,0.142164,-0.100448,0.100226,0.366487,0.0993986,-0.000405006,-0.0364795,
36,3.82831,-31.1522,-0.829366,29.7587,-0.275603,3.5035,5.88337,-0.0977609,0.324549,0.0611558,-2.38911,0.0115329,1.25271,0.0747945,0.633807,0.0157546,0.0113281,0.037851,0.00349755,-0.0206955,0.144453,-0.127739,0.0399594,0.377793,0.0830326,0.000886888,-0.116491,
37,3.24006,-31.0846,-0.239276,29.6622,-0.103895,2.57849,2.86364,-0.0970057,0.324684,0.0608042,-2.38637,0.00995564,1.25453,0.0864075,0.635858,0.0156126,0.00994261,0.0374797,0.00838452,-0.0179425,0.138547,-0.0714981,0.106529,0.585964,0.100257,-0.00545168,-0.105368,
38,1.66704,-30.9677,1.36959,29.7174,-1.15444,1.7288,9.37921,-0.0963789,0.324788,0.0605582,-2.3835,0.00893083,1.25532,0.0921872,0.637509,0.0156775,0.00590684,0.0310745,0.00420651,-0.0122307,0.142431,-0.052239,0.0236564,0.284143,0.072084,0.00339095,-0.0892413,
39,3.71019,-31.0022,-0.875616,29.6321,-0.589741,3.0377,4.65235,-0.096072,0.324827,0.0606293,-2.38061,0.00570918,1.25421,0.110656,0.63935,0.0154,0.00833918,0.0155683,0.00417383,0.00408725,0.144618,-0.159887,-0.0470456,0.93506,0.0803522,-0.00982607,-0.0212963,
40,3.11564,-31.0104,-0.251862,29.5595,-0.376271,2.32597,3.98212,-0.0953466,0.32499,0.0602769,-2.37789,0.00368936,1.25523,0.12004,0.640828,0.0154848,0.00724581,0.036369,0.00875646,-0.0181267,0.137755,-0.104152,0.0638843,0.462411,0.0670788,0.00492102,0.0476926,
41,2.41135,-30.9371,0.470558,29.4409,-0.499285,2.59234,6.7063,-0.0947334,0.32511,0.0600413,-2.37506,0.00202276,1.25543,0.127978,0.641952,0.0155926,0.00857101,0.0303864,0.00544252,-0.0118344,0.139911,-0.0812017,-0.00507579,0.39583,0.0553337,0.00484063,0.0973778,
42,0.816509,-30.9425,2.21578,29.3581,0.400087,1.94911,4.34164,-0.0942561,0.325259,0.059955,-2.37236,5.78546e-05,1.2556,0.141227,0.643529,0.0154695,0.0112075,0.0235535,0.00991525,-0.00458443,0.135942,-0.095395,0.0201904,0.668397,0.0802412,-0.00450644,0.0352025,
43,1.50602,-30.8904,1.33468,29.3677,-0.431822,2.50197,6.54602,-0.0940811,0.325429,0.0602256,-2.3696,-0.000174647,1.25507,0.149915,0.644958,0.0156074,0.00877187,0.0083703,0.00837318,0.0136986,0.137505,-0.0065274,-0.036619,0.431362,0.066158,0.00566552,-0.136357,
44,4.03407,-30.9892,-1.41861,29.6888,-1.57154,0.69778,3.90071,-0.093794,0.325623,0.0603097,-2.36692,-0.00189025,1.25501,0.162874,0.646485,0.0155523,0.00963821,0.0143893,0.0111957,0.00394976,0.1344,-0.0908216,0.0121507,0.651456,0.0743204,-0.00112199,0.0227739,
45,3.54081,-30.8386,-0.75569,29.7239,-0.565572,2.52918,4.53826,-0.0930527,0.325719,0.059809,-2.36396,-0.00565002,1.25255,0.170766,0.647488,0.0156292,0.0078065,0.0378232,0.00338602,-0.0249111,0.145846,-0.199006,-0.146257,0.388643,0.0390231,0.00417585,-0.031082,
46,5.45714,-30.89,-3.00555,29.9637,-2.4238,1.05584,5.82139,-0.0923569,0.32594,0.0594698,-2.36133,-0.00787334,1.25209,0.179735,0.648715,0.0156975,0.00993424,0.0347741,0.0140206,-0.0168961,0.134171,-0.10357,0.00513318,0.451785,0.062757,0.00365425,0.133727,
47,1.54653,-30.9466,1.47787,29.3469,0.891364,2.34309,3.81548,-0.0913357,0.32612,0.0586438,-2.35838,-0.0133222,1.25001,0.191357,0.649825,0.0157116,0.00958465,0.0516962,0.00783803,-0.0410454,0.145329,-0.284478,-0.117485,0.581053,0.0480411,0.00128277,-0.049568,
48,2.03096,-30.8839,0.694149,29.6142,-1.22167,0.840327,4.28493,-0.0909842,0.326361,0.0587784,-2.35583,-0.0130371,1.24956,0.19892,0.651139,0.0158855,0.0105416,0.0167838,0.014319,0.00732873,0.131092,0.0400036,-0.00503821,0.379246,0.0664823,0.00530056,-0.0515385,
49,6.0489,-30.8843,-3.78441,29.9115,-3.54403,0.733321,6.30587,-0.090624,0.326534,0.0587074,-2.35292,-0.0160182,1.24722,0.207514,0.652061,0.0159645,0.00905375,0.0181422,0.00693144,-0.00347889,0.142995,-0.166039,-0.133809,0.427061,0.0364144,0.00350199,-0.0255655,
50,4.6371,-31.0397,-1.93155,29.1425,0.60551,1.67266,-3.20056,-0.089519,0.326667,0.0577161,-2.34999,-0.0235457,1.24419,0.220101,0.652901,0.0159798,0.00998213,0.0567893,0.00762654,-0.049396,0.144536,-0.395575,-0.145824,0.630093,0.0359411,0.00299652,0.0400702,
51,2.04182,-30.5958,0.918364,28.6662,1.48707,6.90123,10.1473,-0.0885653,0.32688,0.0571749,-2.34745,-0.0237051,1.24269,0.21389,0.653785,0.0164676,0.00942986,0.0469901,0.0126298,-0.0272519,0.130854,0.0146975,-0.063254,-0.320044,0.0445701,0.0165356,-0.140723,
52,1.13612,-31.0455,1.46261,27.7936,-2.45253,0.973239,12,-0.0880926,0.327463,0.0572293,-2.34547,-0.0222085,1.24946,0.233655,0.656765,0.0158014,0.014462,0.0226436,0.0325541,0.00183834,0.113646,0.0936039,0.432475,1.0138,0.12347,-0.0341802,-0.13814,
53,2.93736,-31.2965,-0.440892,27.1924,1.30387,-2.03159,-3.71556,-0.0879537,0.327548,0.0572581,-2.34259,-0.0274862,1.24885,0.257676,0.658288,0.0153418,0.00784616,0.00723447,-0.00203427,0.00239751,0.133941,-0.291092,-0.094864,1.19729,0.0498473,-0.0134658,-0.207779,
54,-2.41359,-30.1852,5.7481,26.3239,3.19988,12,12,-0.0873474,0.327359,0.0570432,-2.33996,-0.0260286,1.24182,0.250651,0.658972,0.0156374,0.00379134,0.0304669,-0.00673045,-0.0113911,0.128783,0.0850785,-0.381159,-0.371319,0.0182095,0.0111558,-0.109356,
55,2.94257,-31.262,-0.658402,27.0851,0.99384,-3.98549,-3.83983,-0.0877502,0.328176,0.0580489,-2.33887,-0.0212258,1.25637,0.274038,0.660346,0.0158419,0.00935451,-0.0220135,0.0458342,0.0496041,0.0656703,0.258296,0.840005,1.19454,0.128067,0.010693,0.542188,
56,0.391689,-30.3886,2.64453,26.5781,4.31644,10.119,7.59334,-0.0872159,0.327987,0.0577344,-2.33577,-0.0196707,1.2484,0.266877,0.662222,0.0161225,0.00630237,0.0272267,-0.0175482,-0.0163575,0.140132,0.0603813,-0.554858,-0.383719,0.0637772,-0.000942088,-0.502674,
57,15.5642,-31.3524,-15.0617,29.7386,-12,-10.524,12,-0.0870745,0.32866,0.0581265,-2.33451,-0.0126562,1.25967,0.28162,0.663765,0.0160434,0.00427731,0.00540832,0.0407212,0.0179479,0.0744768,0.374481,0.679833,0.756821,0.113066,-0.000103096,0.347162,
58,10.9557,-30.9913,-8.19853,27.7182,-7.44322,0.792194,12,-0.0845111,0.328085,0.0545201,-2.33023,-0.0348207,1.23991,0.305927,0.665814,0.0159453,0.00712334,0.13582,-0.0364868,-0.175469,0.183545,-1.22337,-1.17947,1.20079,0.0830747,-0.0262007,-0.150678,
59,25.2037,-34.042,-25.9111,30.0924,-12,-12,12,-0.0825248,0.328263,0.0525144,-2.32816,-0.0510311,1.23495,0.32984,0.666768,0.0155522,0.00571943,0.103055,0.0182583,-0.096063,0.114576,-0.792698,-0.133146,1.20061,0.0263372,-0.0143371,-0.0608377,
60,-32.0008,-46.5407,38.9409,23.279,7.15399,-12,-12,-0.0775942,0.327541,0.0471705,-2.32438,-0.0754436,1.21073,0.353948,0.667035,0.015361,0.00474065,0.250378,-0.0444637,-0.267222,0.171027,-1.24225,-1.35028,1.20031,0.00605975,-0.00643735,-0.0521262,
61,87,-34.4037,-87,48.9469,-12,-12,-12,-0.0833839,0.325513,0.0550546,-2.3231,-0.0649907,1.18332,0.330149,0.667073,0.0152787,0.00377651,-0.302165,-0.121926,0.396942,0.0658376,0.650025,-1.40923,-1.20021,-0.000332302,-0.00266512,-0.048299,
62,87,-47.2394,-87,38.2322,12,-12,-12,-0.066926,0.324679,0.0372745,-2.31707,-0.0870463,1.15388,0.306671,0.667044,0.0152459,0.00289333,0.84737,-0.0211213,-0.89713,0.330608,-1.242,-1.40035,-1.19903,-0.00200602,-0.0010038,-0.0414634,
63,-41.6783,-25.8831,69.754,21.9063,12,12,12,-0.0491227,0.322769,0.0201307,-2.31296,-0.0685129,1.12655,0.282063,0.667001,0.0152345,0.00215558,0.886839,-0.118746,-0.861018,0.209033,1.13117,-1.41134,-1.20045,-0.00212655,-0.000310864,-0.0332198,
64,1.25469,-30.5035,1.80378,28.8045,1.64914,3.83625,0.757168,-0.0579492,0.323202,0.0327648,-2.31219,-0.0449237,1.14099,0.305412,0.666962,0.0152317,0.00157651,-0.445539,0.0595744,0.665443,0.0559916,1.1597,0.994476,1.20112,-0.00179714,-4.17406e-05,-0.025426,
65,2.47619,-30.5396,0.388965,29.0853,-0.0883123,2.34064,4.23525,-0.057165,0.323616,0.0337733,-2.30921,-0.041119,1.14667,0.307501,0.666931,0.015232,0.00113919,0.0336677,0.00982868,0.0311848,0.140709,0.106077,0.214927,0.0754443,-0.0013964,4.94054e-05,-0.0189145,
66,1.78779,-30.488,1.26456,28.8144,1.3392,3.98629,1.70673,-0.0564375,0.323728,0.0339462,-2.30625,-0.0422147,1.14829,0.315909,0.666907,0.0152333,0.000816568,0.0325165,0.00615229,0.00485744,0.142699,-0.0622174,0.0625531,0.423517,-0.00104297,6.98359e-05,-0.0138269,
67,3.80229,-30.5146,-1.02303,29.1948,-1.41258,2.8116,9.01151,-0.0559453,0.323997,0.0341949,-2.30365,-0.040778,1.15224,0.319364,0.666889,0.0152347,0.00058194,0.0225686,0.0155349,0.0106599,0.132307,0.0795231,0.21311,0.170791,-0.000763013,6.48491e-05,-0.0100006,
68,5.15582,-30.5864,-2.21285,29.1621,0.947581,4.31731,-2.88738,-0.0551994,0.32423,0.0338611,-2.30077,-0.0443447,1.15451,0.337246,0.666876,0.0152358,0.000412773,0.0373512,0.011,-0.017027,0.140679,-0.19156,0.103357,0.9014,-0.000551801,5.2758e-05,-0.00718643,
69,3.06479,-30.5327,0.268586,29.8503,2.1992,4.09336,0.145289,-0.0541423,0.324564,0.0333266,-2.29818,-0.0436046,1.15906,0.331765,0.666867,0.0152368,0.000291442,0.0526833,0.0179292,-0.0273625,0.133488,0.0411584,0.241803,-0.288492,-0.000396423,4.04263e-05,-0.00514402,
70,3.90212,-30.5237,-0.934838,29.9257,-1.72188,3.83614,5.77505,-0.0534771,0.324927,0.0332901,-2.29541,-0.0406254,1.16338,0.331915,0.666922,0.0152389,0.000600213,0.0324157,0.0171392,-0.00219908,0.137715,0.162521,0.195054,0.0109264,0.0123597,0.000381058,0.0750169,
71,3.2054,-30.4987,-0.227392,29.4162,-1.46388,4.10369,6.90147,-0.0527553,0.325239,0.0329377,-2.29261,-0.0444893,1.16651,0.343317,0.667925,0.0150839,0.00668897,0.0363492,0.017198,-0.0180448,0.137062,-0.222998,0.166561,0.57572,0.0533707,-0.00473567,0.297617,
72,3.14497,-30.4992,-0.182451,29.123,-0.711269,4.12349,4.40009,-0.0521411,0.325611,0.0327375,-2.29001,-0.0485363,1.17019,0.357035,0.669202,0.0149579,0.0125629,0.0306148,0.0201414,-0.0101581,0.12921,-0.199684,0.179536,0.688851,0.0703168,-0.00410585,0.206333,
73,5.42707,-30.5089,-2.68196,29.1732,-0.508706,3.71205,-0.0205386,-0.0515355,0.326046,0.0325455,-2.28752,-0.051102,1.17372,0.365877,0.670733,0.0151424,0.0149037,0.0299931,0.0234875,-0.00975606,0.12334,-0.12479,0.172156,0.439147,0.0825874,0.00833354,0.106927,
74,2.76662,-30.4388,0.359763,29.1745,0.163574,3.98553,6.50354,-0.0505031,0.326518,0.0318399,-2.28502,-0.0530973,1.17652,0.365971,0.672322,0.0155903,0.0148633,0.0517876,0.0245333,-0.03564,0.124282,-0.102616,0.134749,-0.0017651,0.0804689,0.017996,0.035586,
75,5.10821,-30.4814,-2.43506,29.0487,-2.00434,3.23967,6.63372,-0.0499593,0.32704,0.0317587,-2.28262,-0.054153,1.1795,0.378731,0.674592,0.0153853,0.0192205,0.0263956,0.027903,-0.0042818,0.121997,-0.0387412,0.161249,0.650279,0.106253,-0.00759057,0.110932,
76,2.70187,-30.4359,0.304603,28.9452,-1.0561,1.51976,6.71232,-0.0490246,0.327522,0.031076,-2.28005,-0.0588261,1.18162,0.392044,0.676435,0.0151985,0.0185008,0.0471258,0.023198,-0.0345111,0.125634,-0.253114,0.0981415,0.662985,0.0845093,-0.00760801,-0.0884219,
77,5.045,-30.4118,-2.22113,29.1029,-0.343952,5.45429,2.35373,-0.0485179,0.327911,0.0309656,-2.27745,-0.0622168,1.18084,0.405433,0.677797,0.0150489,0.0138607,0.0252358,0.0198683,-0.00492678,0.127432,-0.158478,-0.0655491,0.670669,0.0611205,-0.00745455,-0.273503,
78,3.44751,-30.3812,-0.50969,29.0759,-0.37847,3.10204,5.14342,-0.047578,0.328585,0.030331,-2.27535,-0.0639263,1.18532,0.410261,0.67967,0.0152966,0.0114095,0.0469106,0.0377561,-0.0322048,0.111255,-0.0896166,0.28357,0.236031,0.101385,0.00981766,-0.03463,
79,3.12035,-30.3479,-0.199626,28.9538,-0.565559,3.43043,5.22007,-0.0469312,0.329163,0.0300544,-2.27282,-0.0658739,1.18754,0.42047,0.681497,0.0151814,0.00976826,0.0321118,0.0262523,-0.0135823,0.125165,-0.0899704,0.0852752,0.514976,0.0808226,-0.00715357,-0.0871858,
80,1.68752,-30.3806,1.48358,28.7607,1.0864,4.02828,3.8021,-0.0463568,0.329699,0.0298413,-2.27039,-0.0680255,1.18965,0.430901,0.682921,0.0151155,0.0108881,0.0287752,0.0270433,-0.0103128,0.121245,-0.111879,0.106149,0.516938,0.0645235,-0.000167368,0.108648,
81,4.25302,-30.4192,-1.51723,28.8666,-1.35312,3.78534,4.7591,-0.0460539,0.330276,0.0299589,-2.26812,-0.0671684,1.1926,0.438601,0.684571,0.0152838,0.0117124,0.014903,0.0306128,0.00669585,0.115281,0.04922,0.154572,0.374357,0.0838132,0.00737721,-0.0629646,
82,3.22728,-30.4258,-0.262864,28.5432,0.822541,4.46721,1.64307,-0.0452921,0.33084,0.029468,-2.26573,-0.0706122,1.19517,0.448003,0.686293,0.0153531,0.0087376,0.0389459,0.028467,-0.0247671,0.118655,-0.187995,0.13723,0.476761,0.0759904,0.00474365,0.00321626,
83,3.12997,-30.4534,-0.252189,28.92,-1.00162,2.18661,10.5468,-0.0446765,0.331453,0.0292465,-2.26354,-0.0703758,1.19894,0.451356,0.687923,0.0157083,0.010351,0.0304478,0.0321376,-0.0108939,0.112092,0.0267056,0.196992,0.165344,0.083348,0.0144767,0.0181048,
84,4.35494,-30.4753,-1.50897,28.9027,-0.341538,3.29431,3.45993,-0.0441044,0.331954,0.0290212,-2.26098,-0.0734588,1.19925,0.472211,0.689608,0.0154302,0.00831154,0.0290124,0.0239282,-0.0110145,0.125139,-0.157184,-0.0025854,1.05395,0.0650072,-0.0109627,-0.0685332,
85,2.98449,-30.4385,0.0478255,28.6863,0.375175,4.22863,5.84502,-0.0433012,0.33251,0.0285338,-2.25865,-0.0751144,1.20072,0.479363,0.691057,0.0157828,0.0103577,0.0406658,0.0299314,-0.0241881,0.118332,-0.0923022,0.0911789,0.345601,0.0663097,0.014315,-0.0867449,
86,1.86667,-30.4703,1.2362,28.4901,1.17871,4.11919,0.710864,-0.0427289,0.333157,0.0283819,-2.25643,-0.0757384,1.20394,0.49094,0.69248,0.0159011,0.0108379,0.0285436,0.0330609,-0.00724629,0.112731,-0.0225823,0.171329,0.583398,0.0706951,0.00636515,0.0291882,
87,3.86422,-30.5116,-1.12961,28.8564,-0.952731,2.1855,5.09134,-0.0423747,0.3338,0.0284725,-2.25421,-0.0745654,1.20722,0.492498,0.693907,0.0164553,0.0104575,0.0174784,0.0320617,0.00480801,0.111916,0.0593007,0.16296,0.0706074,0.0710134,0.0225342,-0.00948704,
88,3.72542,-30.517,-0.824558,28.6397,0.503815,3.57074,1.44561,-0.0416661,0.334313,0.0280766,-2.25168,-0.0773589,1.20745,0.502598,0.695114,0.0165256,0.00897781,0.036051,0.0245065,-0.0199479,0.123147,-0.15083,-0.00849599,0.509217,0.0481013,0.00330891,-0.0161782,
89,4.08242,-30.5552,-1.2785,29.1548,-1.86114,1.11775,12,-0.0409653,0.334903,0.0277365,-2.24948,-0.0776161,1.20924,0.505586,0.696333,0.0169389,0.0109958,0.0350493,0.0323224,-0.0167646,0.112249,-0.00749131,0.107271,0.144999,0.0649357,0.016665,0.0409367,
90,5.95524,-30.608,-3.16482,29.2483,-0.906552,2.0354,4.08056,-0.0402198,0.335405,0.0272938,-2.24686,-0.0824289,1.20748,0.529292,0.697744,0.0166042,0.00942992,0.0381657,0.0241767,-0.0215693,0.127863,-0.246222,-0.102546,1.19854,0.05073,-0.0129176,-0.0702955,
91,2.54335,-30.5168,0.70617,28.9159,1.43828,3.27269,3.28429,-0.0390971,0.335959,0.026484,-2.24447,-0.0852577,1.20657,0.537713,0.698973,0.0170109,0.00950421,0.0569996,0.029984,-0.0402783,0.122094,-0.151422,-0.0264926,0.407469,0.0521268,0.017732,-0.123996,
92,3.03836,-30.5381,-0.051317,29.0291,-0.530776,2.36928,4.35406,-0.0385734,0.336635,0.0264824,-2.24225,-0.0840793,1.20798,0.544215,0.700107,0.0173333,0.0100315,0.0254852,0.0347783,0.000653107,0.114953,0.0800154,0.085624,0.327247,0.0514159,0.012835,0.0092832,
93,4.83918,-30.5544,-2.03243,29.0849,-1.1456,2.47401,4.08487,-0.0380135,0.337239,0.0263063,-2.23977,-0.0860083,1.2083,0.552937,0.7009,0.0174966,0.00946325,0.0280974,0.0285866,-0.00898765,0.121579,-0.112973,0.00384461,0.434603,0.0354873,0.00710667,0.0144882,
94,2.35274,-30.5422,0.825079,28.8506,1.09936,2.63778,3.41782,-0.0371079,0.337821,0.0257313,-2.23735,-0.0893151,1.20848,0.561139,0.701639,0.0176678,0.0105973,0.0458325,0.0296057,-0.028968,0.119979,-0.173885,0.00832227,0.408226,0.0373358,0.00834991,0.0742612,
95,2.70046,-30.5482,0.308276,28.896,-0.0666145,2.44975,3.14721,-0.0366291,0.338447,0.0257545,-2.23507,-0.088808,1.20891,0.56791,0.702601,0.0178891,0.0118107,0.023498,0.032778,0.00186077,0.115177,0.0472653,0.0195367,0.340707,0.051754,0.00991989,-0.0646405,
96,2.6626,-30.5496,0.329377,28.8853,-0.23243,2.36564,2.91199,-0.0361248,0.339085,0.0256594,-2.23271,-0.0899256,1.20905,0.574238,0.703516,0.0180839,0.0113314,0.0251239,0.0314499,-0.00503353,0.117224,-0.0677243,0.00563872,0.314124,0.0429124,0.00913298,0.0301044,
97,3.0261,-30.5535,-0.0919196,28.9257,-0.607133,2.19418,2.745,-0.035633,0.339714,0.0255608,-2.23036,-0.0915635,1.20902,0.580069,0.704339,0.0182792,0.0124314,0.0246926,0.0316284,-0.00481825,0.116684,-0.083923,-0.00380376,0.290837,0.0409897,0.00936834,0.0715306,
98,5.10871,-30.5774,-2.38662,29.1159,-1.60761,1.7737,4.15445,-0.0350731,0.34035,0.0253779,-2.228,-0.0938985,1.20866,0.585575,0.705168,0.0184674,0.0125575,0.0281494,0.0320638,-0.00917277,0.116966,-0.120727,-0.0208592,0.274565,0.0415823,0.00907737,0.0068648,
99,5.69868,-30.5922,-2.91087,29.1495,-0.795987,1.74767,3.99046,-0.0341131,0.340971,0.0247358,-2.22557,-0.09815,1.20756,0.593869,0.705984,0.018522,0.0127586,0.048565,0.031187,-0.0323704,0.119959,-0.219663,-0.0589287,0.415974,0.0382301,0.00415916,0.0035581,
100,4.9707,-30.5944,-2.01636,29.0849,0.0743611,1.99105,5.5712,-0.0330061,0.341611,0.0240015,-2.2232,-0.101108,1.20632,0.601838,0.706711,0.0186201,0.0130974,0.0554969,0.0326699,-0.0366889,0.118779,-0.140229,-0.0650037,0.399405,0.0360099,0.00509039,0.00621527,
101,2.70135,-30.5855,0.515565,28.8972,1.30867,2.28455,3.19427,-0.0320189,0.342294,0.0234586,-2.22089,-0.102455,1.20542,0.612887,0.707633,0.0185876,0.0131835,0.0490424,0.0349822,-0.027112,0.116367,-0.0563259,-0.0428266,0.556558,0.0463499,0.000221563,-0.0470191,
102,3.06468,-30.5971,-0.0477635,28.9606,-0.0422156,2.01735,3.48565,-0.0314795,0.343009,0.0234147,-2.21865,-0.101295,1.20502,0.619309,0.708673,0.0188899,0.0131557,0.0265841,0.0365826,-0.0016061,0.113604,0.065261,-0.0142759,0.318099,0.0523431,0.0128302,-0.0571286,
103,2.96133,-30.5967,0.0615396,28.9338,-0.0413328,2.0211,3.61072,-0.0309038,0.3437,0.0232511,-2.21628,-0.102391,1.20438,0.626296,0.70955,0.0190789,0.0131576,0.0288523,0.0336432,-0.00842994,0.117157,-0.0681948,-0.0341598,0.34753,0.0398184,0.00829842,0.0291856,
104,2.8752,-30.5996,0.155855,28.8981,0.0696165,2.08127,3.34029,-0.0303422,0.344378,0.0231085,-2.21395,-0.103771,1.20367,0.633487,0.71035,0.0192249,0.0133087,0.0281853,0.0341995,-0.00702239,0.115998,-0.0689663,-0.0362636,0.359909,0.0397848,0.00718035,-0.00225889,
105,2.82493,-30.6078,0.199255,28.8789,0.0360476,2.02095,3.38271,-0.0297943,0.345071,0.0229868,-2.21165,-0.104943,1.20303,0.640153,0.711151,0.0193988,0.0133932,0.0274156,0.0348948,-0.00602396,0.11506,-0.0583712,-0.0306309,0.332892,0.0393835,0.00815377,0.0185769,
106,2.76776,-30.6114,0.256403,28.8468,0.0511491,2.05908,3.46594,-0.0292545,0.345769,0.0228764,-2.20935,-0.106178,1.20232,0.646892,0.71193,0.0195507,0.0135134,0.0269829,0.0349132,-0.00554258,0.114999,-0.0620774,-0.0358666,0.337081,0.038028,0.00733477,0.0214743,
107,2.77591,-30.6183,0.244247,28.8186,-0.0482292,2.08857,4.16103,-0.0287243,0.346475,0.022779,-2.20706,-0.107402,1.20165,0.653791,0.712726,0.0196958,0.0135578,0.0265327,0.0356678,-0.00478093,0.114223,-0.0611891,-0.03422,0.344789,0.041184,0.0076403,-0.0279071,
108,2.55649,-30.6271,0.490497,28.7476,-0.0409566,2.19812,4.79337,-0.0281892,0.347191,0.0226824,-2.20479,-0.108843,1.20103,0.662054,0.71358,0.0197859,0.0132733,0.0267992,0.0361225,-0.00475283,0.113755,-0.0721271,-0.0306786,0.413942,0.0435214,0.00589602,-0.0384617,
109,2.08661,-30.644,1.00185,28.6318,0.12331,2.34196,4.41231,-0.0276913,0.347921,0.0226385,-2.20253,-0.110314,1.20061,0.671571,0.714508,0.0198706,0.012743,0.0249081,0.0366007,-0.00216551,0.112695,-0.0727928,-0.0177414,0.477248,0.0451889,0.00556821,-0.00300824,
110,1.77833,-30.6723,1.31033,28.528,0.404669,2.39472,2.12773,-0.0272821,0.348659,0.022699,-2.20031,-0.111475,1.20049,0.680351,0.715468,0.0200794,0.012604,0.0204899,0.0369667,0.0031806,0.11133,-0.0574572,-0.00311713,0.43877,0.0476001,0.0103439,0.00584845,
111,2.65044,-30.6911,0.327846,28.7423,0.30596,1.24602,-0.0517972,-0.0269364,0.349392,0.0228193,-2.19811,-0.112015,1.20054,0.684642,0.716387,0.0204791,0.0133983,0.01713,0.036384,0.00602285,0.110659,-0.0281825,0.00283367,0.210864,0.0429496,0.016019,0.0730679,
112,5.67021,-30.7092,-3.05249,29.337,-2.36065,-0.443759,6.96102,-0.0264222,0.350059,0.0227558,-2.19575,-0.112589,1.19883,0.684626,0.717098,0.020862,0.0139945,0.0257681,0.0326893,-0.00377778,0.116919,-0.0348166,-0.100097,-0.00571426,0.0289104,0.0146066,-0.00718815,
113,2.90242,-30.6568,0.347147,28.8709,1.54038,1.95227,2.63877,-0.0253572,0.35063,0.0219823,-2.19314,-0.118337,1.19391,0.698368,0.717744,0.0206756,0.0125692,0.0543646,0.0292857,-0.038645,0.126994,-0.299376,-0.251865,0.695721,0.0204075,-0.00598402,-0.143412,
114,3.10559,-30.69,-0.0846788,28.9427,-0.192978,1.26322,3.33559,-0.0247698,0.351384,0.0218972,-2.19106,-0.117218,1.19235,0.703665,0.718625,0.0210797,0.0136903,0.0289197,0.0416693,-0.00302534,0.109886,0.0829948,-0.0459012,0.261891,0.0438449,0.0188128,-0.0971887,
115,3.09488,-30.6901,-0.0736805,28.9294,-0.235236,1.28734,3.54572,-0.0241847,0.35214,0.0217244,-2.18869,-0.11865,1.19053,0.710345,0.719219,0.0213309,0.0113642,0.0293474,0.0360234,-0.0088152,0.117863,-0.0872261,-0.0952206,0.332292,0.0219689,0.00876864,-0.0750708,
116,3.05339,-30.6924,-0.0305884,28.9018,-0.311837,1.32557,3.86771,-0.0235965,0.352854,0.0215519,-2.18635,-0.120503,1.1886,0.717397,0.719616,0.0214436,0.0105371,0.0294876,0.0356855,-0.0085527,0.116664,-0.0926879,-0.0975399,0.35305,0.0189707,0.00440517,-0.0204364,
117,2.94341,-30.6962,0.0895975,28.8404,-0.117869,1.47399,2.9066,-0.0230144,0.353572,0.0213894,-2.18403,-0.122516,1.18669,0.725089,0.720007,0.021498,0.0104385,0.0291135,0.0361374,-0.00810617,0.115882,-0.100762,-0.0949409,0.385227,0.019523,0.00278523,0.00219356,
118,3.01449,-30.7073,-0.0192698,28.8582,-0.343358,1.18837,4.97787,-0.0224562,0.354305,0.0212497,-2.18174,-0.124106,1.185,0.730919,0.720434,0.0216442,0.0109085,0.0278917,0.0370001,-0.00700208,0.114387,-0.0810096,-0.082621,0.289385,0.0215591,0.00620215,0.0234994,
119,2.72962,-30.7061,0.324237,28.7308,-0.0546545,1.72353,2.64375,-0.0218773,0.355028,0.0210941,-2.17942,-0.126248,1.18292,0.740767,0.720892,0.0215957,0.0114575,0.0289814,0.0361847,-0.00780432,0.115711,-0.105267,-0.106748,0.495872,0.0215123,-0.000978303,0.00978977,
120,2.69232,-30.7228,0.335009,28.7152,0.0846469,1.37295,3.31317,-0.0213674,0.355781,0.0209949,-2.1772,-0.127656,1.18155,0.746128,0.72147,0.0218213,0.0132428,0.0255009,0.0385591,-0.00486711,0.111951,-0.075055,-0.0603203,0.263098,0.0280108,0.00960315,0.0644424,
121,2.62851,-30.7285,0.410156,28.6935,0.116876,1.40489,3.51751,-0.0208502,0.356531,0.0209121,-2.17492,-0.128966,1.17986,0.752692,0.721957,0.0219049,0.0137234,0.0258369,0.0371905,-0.00417348,0.113508,-0.0619461,-0.090374,0.329839,0.022578,0.00360003,0.00342037,
122,2.31224,-30.7344,0.763039,28.6269,0.43922,1.519,2.44691,-0.0203469,0.357281,0.0208419,-2.17266,-0.130164,1.17808,0.759685,0.722413,0.0219586,0.0137375,0.0250535,0.0378052,-0.0035996,0.112438,-0.0593751,-0.0894433,0.3501,0.0226446,0.00293812,-0.00415495,
123,2.33044,-30.7433,0.716336,28.6195,0.30768,1.46783,2.60863,-0.0199108,0.358048,0.0208362,-2.17045,-0.13071,1.17645,0.764586,0.722916,0.0221313,0.0138838,0.0217516,0.038875,-0.000191686,0.110783,-0.0271192,-0.0803481,0.243093,0.0257459,0.00731788,-0.00151281,
124,2.29386,-30.7469,0.755677,28.5991,0.328874,1.48252,2.5786,-0.0194722,0.358824,0.0208237,-2.16823,-0.131495,1.17477,0.769769,0.723414,0.0222377,0.0138983,0.0218962,0.0388724,-0.000708693,0.110961,-0.0402896,-0.0844007,0.259319,0.0245582,0.0048883,0.00223823,
125,2.26378,-30.7507,0.785806,28.5763,0.336413,1.50099,2.59686,-0.0190423,0.359606,0.0208161,-2.16602,-0.132265,1.1731,0.774896,0.723907,0.0223357,0.0140025,0.0214658,0.0392563,-0.000392963,0.110452,-0.0384265,-0.0833395,0.256293,0.0247149,0.00473249,0.00532545,
126,2.23246,-30.7543,0.817363,28.5498,0.34789,1.53026,2.65309,-0.0186189,0.360395,0.0208139,-2.16381,-0.133023,1.17147,0.780057,0.724408,0.0224287,0.0141532,0.0211517,0.0396293,-0.000121457,0.110004,-0.0379258,-0.0816506,0.258083,0.0250896,0.00463686,0.00685284,
127,2.22803,-30.7594,0.818272,28.516,0.383324,1.57762,2.69071,-0.0182014,0.361191,0.0208179,-2.16162,-0.133766,1.16988,0.785327,0.724919,0.022519,0.0143458,0.020863,0.040009,0.000198194,0.109518,-0.0370837,-0.0788533,0.263646,0.0256564,0.00461556,0.00862561,
128,2.18382,-30.7507,0.867714,28.4885,0.377618,1.62855,3.02315,-0.0177829,0.361998,0.020824,-2.15945,-0.134448,1.16837,0.79067,0.725462,0.0226174,0.0142972,0.0209237,0.0405175,0.000277919,0.108875,-0.0340108,-0.0742735,0.267304,0.0269612,0.00495432,0.00344599,
129,2.03685,-30.7566,1.03102,28.4199,0.47268,1.77413,3.40272,-0.0173694,0.362817,0.0208432,-2.15728,-0.135156,1.16696,0.796664,0.72605,0.0226984,0.0139789,0.0206671,0.0411055,0.00090466,0.108398,-0.0353092,-0.0688742,0.300339,0.0288804,0.00446952,-0.00369808,
130,1.78668,-30.767,1.30446,28.3302,0.623117,1.92821,3.46739,-0.0169785,0.363652,0.0209001,-2.15514,-0.135713,1.1658,0.803402,0.72672,0.0227842,0.0133855,0.0195961,0.0420182,0.00285021,0.107114,-0.026925,-0.0546787,0.337953,0.0337003,0.00520753,-0.0249605,
131,1.32179,-30.7794,1.81616,28.2253,1.03431,2.06547,1.8675,-0.0166327,0.364498,0.021014,-2.15303,-0.135994,1.16495,0.810272,0.727457,0.0229203,0.0129437,0.0174745,0.0426146,0.00593739,0.105869,-0.0126494,-0.0399518,0.343962,0.0393132,0.00827679,-0.0553498,
132,1.32071,-30.7912,1.78146,28.1946,0.833485,2.0394,2.04456,-0.0163794,0.365348,0.0212281,-2.15094,-0.135416,1.16439,0.814015,0.728258,0.02323,0.0133003,0.012733,0.0427748,0.0109499,0.104897,0.0283823,-0.0252214,0.183996,0.0403167,0.0141956,-0.00808625,
133,1.29,-30.797,1.80912,28.1579,0.800113,2.07489,1.85877,-0.0161257,0.366195,0.0214401,-2.14884,-0.135211,1.16387,0.818049,0.729012,0.0234573,0.0133647,0.0126887,0.0421565,0.0104896,0.105266,0.00838887,-0.0255834,0.201918,0.0361268,0.0102554,0.0128772,
134,1.30948,-30.8019,1.7801,28.1306,0.732544,2.10378,1.51509,-0.0158804,0.367039,0.021654,-2.14674,-0.135089,1.1634,0.821722,0.729733,0.0236754,0.013551,0.0122291,0.0422987,0.0107738,0.104754,0.00520932,-0.023493,0.182755,0.0359009,0.0104811,0.00284069,
135,1.4179,-30.8057,1.64813,28.1155,0.568656,2.11763,1.22132,-0.0156343,0.367887,0.0218585,-2.14465,-0.135087,1.16299,0.824718,0.730428,0.0239028,0.0139179,0.0122387,0.0423767,0.0101144,0.104402,-0.00132322,-0.0200463,0.149174,0.0332177,0.0100502,0.038735,
136,1.75274,-30.8054,1.2644,28.1562,0.374865,1.97762,0.491318,-0.0153723,0.368737,0.0220327,-2.14257,-0.13538,1.16258,0.827133,0.731093,0.0241243,0.0144036,0.0131473,0.0426482,0.00864077,0.103952,-0.0169025,-0.0200424,0.120109,0.0329419,0.0103336,0.0260332,
137,3.05011,-30.8143,-0.201613,28.2924,-0.844868,1.68115,4.54992,-0.0150495,0.369588,0.0221272,-2.14046,-0.13601,1.16196,0.828119,0.731702,0.0243789,0.0146196,0.0162023,0.0424852,0.00458286,0.104642,-0.0347259,-0.0336327,0.0477386,0.0291818,0.0110565,0.0233113,
138,1.47393,-30.7926,1.68373,27.8555,1.2452,3.5362,2.56519,-0.014477,0.370426,0.0219316,-2.13832,-0.139036,1.16069,0.837069,0.732479,0.0242873,0.0145052,0.0292456,0.0428441,-0.009834,0.106123,-0.156948,-0.0632479,0.452733,0.0395452,-0.000149384,-0.112065,
139,1.94015,-30.858,1.00774,27.8733,-0.308206,2.3059,3.54451,-0.0141762,0.371405,0.0221168,-2.13651,-0.138377,1.16227,0.84215,0.733786,0.0247848,0.0136873,0.0150143,0.0512735,0.0103023,0.0944512,0.0478504,0.107517,0.253334,0.0694477,0.0261848,-0.0790502,
140,1.95114,-30.8722,1.0296,27.7812,0.070293,2.66682,5.98828,-0.013803,0.372309,0.0221774,-2.13441,-0.140207,1.16267,0.849216,0.734797,0.0251355,0.0124839,0.0188197,0.0428679,0.00267156,0.103446,-0.10464,0.00759048,0.35232,0.0396273,0.0133089,-0.00560162,
141,1.39871,-30.9119,1.67666,27.5428,1.25598,3.24312,4.61172,-0.0134076,0.373182,0.0222474,-2.13242,-0.141762,1.16329,0.861023,0.735732,0.0252114,0.0124014,0.0199277,0.0445523,0.00376641,0.0996586,-0.0703057,0.0354942,0.595108,0.0498563,0.00831746,-0.0612844,
142,0.467974,-30.9611,2.72379,27.4567,0.292253,2.57789,7.27868,-0.0130962,0.374109,0.022464,-2.13055,-0.141017,1.16495,0.870172,0.736967,0.0256506,0.0115692,0.0155386,0.0469005,0.0111771,0.0955167,0.0452966,0.0914414,0.456456,0.0654848,0.0242681,-0.0604605,
143,1.05848,-30.9953,2.06287,27.2909,1.37096,2.78848,1.45831,-0.0129829,0.374977,0.0228804,-2.12855,-0.141957,1.16574,0.884565,0.73837,0.0260507,0.00971856,0.00569357,0.0426329,0.0210066,0.0988568,-0.0512031,0.0374441,0.723095,0.0714627,0.0246673,-0.121392,
144,0.352777,-30.8265,3.05769,27.7244,-1.36855,2.27488,12,-0.0127479,0.375845,0.0231748,-2.12665,-0.140772,1.16688,0.887597,0.739696,0.0267697,0.00918023,0.0114652,0.0435519,0.0142729,0.0971138,0.0601731,0.0616971,0.143407,0.05044,0.0267338,0.0506633,
145,2.11515,-30.9447,0.967377,28.2826,-2.15439,1.09891,6.69562,-0.0127283,0.376678,0.0235877,-2.12454,-0.144931,1.16707,0.911233,0.740893,0.0268121,0.0107883,0.00152905,0.0421419,0.0216904,0.103936,-0.213446,0.0141051,1.19644,0.0540031,0.00913168,-0.039295,
146,1.47196,-30.9543,1.7725,27.9923,-0.811801,1.73939,4.77343,-0.0123558,0.377473,0.0236184,-2.12226,-0.150333,1.16551,0.924824,0.741715,0.0273269,0.00660349,0.0194239,0.0394353,0.00151353,0.113277,-0.28326,-0.0857345,0.670112,0.0224405,0.0221142,-0.163078,
147,1.46421,-30.9766,1.77622,27.9165,-0.475003,1.82507,3.81296,-0.0120571,0.378306,0.0238359,-2.12014,-0.153541,1.16478,0.934396,0.74196,0.0276169,0.00462654,0.0148358,0.0419746,0.0108231,0.106243,-0.153075,-0.0386025,0.477106,0.009171,0.00948015,-0.046356,
148,1.55555,-30.9956,1.67872,27.8021,0.245846,2.21574,2.32955,-0.0117649,0.379151,0.0240503,-2.11807,-0.155919,1.16407,0.942061,0.742174,0.027795,0.00460232,0.014281,0.0426923,0.0103733,0.103865,-0.118337,-0.0366193,0.381682,0.0110385,0.00616994,0.017483,
149,1.70025,-31.033,1.52103,27.7,0.666633,2.35329,1.70779,-0.0114627,0.38003,0.0242335,-2.11608,-0.156911,1.16385,0.946773,0.742499,0.0279884,0.00567729,0.0146961,0.0446896,0.00880908,0.100182,-0.0462752,-0.00653133,0.233716,0.0175779,0.00697667,0.0594525,
150,1.34438,-31.0263,1.94275,27.5967,0.686547,2.77619,2.76866,-0.0111453,0.380927,0.0243718,-2.11412,-0.157039,1.1639,0.950223,0.742926,0.0281496,0.00714665,0.015541,0.0451267,0.00664261,0.0983013,-0.00360859,0.00361048,0.171802,0.0227017,0.00645361,0.0780605,
151,1.50141,-31.0747,1.73465,27.5866,0.611004,2.54449,1.66863,-0.0109105,0.381849,0.0245782,-2.1122,-0.157141,1.16464,0.955727,0.74351,0.0281978,0.00993827,0.0114594,0.0464198,0.0102958,0.0960411,-0.00221483,0.0412032,0.277604,0.0301983,0.00363314,0.119292,
152,1.6056,-31.0857,1.61811,27.5362,0.708023,2.76433,1.44711,-0.0106553,0.382757,0.0247417,-2.11026,-0.15725,1.16512,0.959134,0.74409,0.0283826,0.0116795,0.0127597,0.045233,0.00799576,0.0968958,-0.00915383,0.0200467,0.167662,0.0286354,0.00824325,0.0694958,
153,1.88233,-31.1214,1.28165,27.4987,0.840956,2.78526,0.0103194,-0.0103822,0.383677,0.0248752,-2.10836,-0.157239,1.16582,0.962055,0.744721,0.0285721,0.0131196,0.0136261,0.0464867,0.00664539,0.0949412,0.000692738,0.0378596,0.145703,0.0324069,0.00904695,0.0689549,
154,3.08151,-31.1605,-0.0775299,27.5836,0.655706,2.65973,-0.653413,-0.010058,0.384606,0.0249404,-2.10648,-0.156897,1.16658,0.962159,0.745436,0.0288913,0.013667,0.0162555,0.0470232,0.00317134,0.0940446,0.0153505,0.0357849,0.00248015,0.0398028,0.0142114,-0.0591575,
155,3.15039,-31.1977,-0.0914176,27.4905,2.10768,2.90924,-1.24527,-0.00950171,0.385541,0.0247362,-2.10457,-0.156873,1.16714,0.960924,0.746176,0.0291704,0.0125934,0.0280475,0.0466853,-0.0104754,0.0952962,-0.00156377,0.0274848,-0.0629999,0.0347026,0.0125023,-0.00593772,
156,3.07432,-31.1876,0.00622224,27.5973,2.0747,2.56707,-1.29514,-0.00890591,0.386496,0.0245345,-2.10274,-0.154307,1.16807,0.958455,0.746981,0.0294487,0.0130595,0.0294781,0.0484274,-0.0100852,0.0925983,0.142171,0.0485806,-0.122368,0.0414868,0.0123171,0.00610409,
157,2.69423,-31.1963,0.416346,27.6305,2.06173,2.48229,-1.57621,-0.00833559,0.387443,0.0243491,-2.10083,-0.151535,1.16857,0.955906,0.74769,0.0296528,0.0134905,0.0283409,0.0468375,-0.00942467,0.095685,0.138871,0.0196554,-0.127619,0.033629,0.00926854,0.0395899,
158,3.36892,-31.2382,-0.378686,27.7204,1.63051,2.3373,-1.23729,-0.00784863,0.388379,0.0242362,-2.09891,-0.148769,1.16879,0.952804,0.748366,0.0298684,0.0138355,0.0241702,0.046978,-0.00565718,0.0956817,0.137566,0.0101795,-0.155824,0.0336926,0.0101158,0.0230034,
159,3.18465,-31.2578,-0.109407,27.6619,1.70555,2.87122,-0.502556,-0.00723519,0.389312,0.0239689,-2.09696,-0.146789,1.16875,0.950368,0.749006,0.0300195,0.0141024,0.0307949,0.0465808,-0.0136698,0.0967515,0.0948091,-0.0040222,-0.121904,0.0316446,0.00795455,0.0135755,
160,3.30889,-31.2838,-0.239727,27.6753,1.31881,2.87365,0.699126,-0.0066599,0.390283,0.0237417,-2.0951,-0.144794,1.16946,0.949362,0.749825,0.0301444,0.0146822,0.0287304,0.0492658,-0.0112145,0.0936833,0.101174,0.0435776,-0.04877,0.0419168,0.00796014,0.0283701,
161,3.17968,-31.2996,-0.0626854,27.6069,1.49699,3.13912,1.15225,-0.00606207,0.391265,0.0234915,-2.0932,-0.143531,1.17035,0.950742,0.750724,0.0302133,0.0149806,0.0300786,0.0489398,-0.0124329,0.0944809,0.0613437,0.0458947,0.0706988,0.043724,0.00577807,0.013352,
162,2.53042,-31.2867,0.684164,27.4011,2.22785,3.8574,1.19627,-0.00547835,0.39226,0.0232832,-2.09135,-0.142024,1.17166,0.953022,0.751704,0.0303384,0.0149751,0.0294258,0.0502249,-0.010137,0.0925845,0.0773852,0.0688082,0.115165,0.0511033,0.00850425,-0.0345197,
163,0.493558,-31.4032,2.89401,26.8639,2.75917,4.61824,2.71485,-0.00500437,0.393302,0.0232342,-2.08961,-0.139196,1.17418,0.955369,0.752924,0.0306025,0.0151932,0.0238311,0.0529205,-0.00176638,0.0886235,0.148125,0.136171,0.118153,0.0644877,0.0151288,-0.0361683,
164,1.99114,-31.3429,1.09152,27.1466,2.17798,4.57093,0.184278,-0.00490094,0.394371,0.023652,-2.08799,-0.135363,1.17819,0.960675,0.754446,0.0309065,0.0154386,0.00507136,0.0534833,0.0216778,0.0827985,0.197337,0.214967,0.268112,0.0792885,0.0188178,0.00864181,
165,-0.83884,-31.5156,4.19817,26.0736,4.17223,5.57575,2.02917,-0.00451327,0.395427,0.023727,-2.08624,-0.132365,1.18245,0.961084,0.756066,0.0314998,0.0152025,0.0199676,0.0519432,0.00364356,0.0878257,0.139651,0.214298,0.0147963,0.0807595,0.0307654,-0.0167804,
166,-2.03035,-31.6388,5.48357,25.7415,3.89398,5.1379,3.06607,-0.00460551,0.396478,0.0244579,-2.08479,-0.126079,1.18842,0.964924,0.757984,0.0320876,0.0163834,-0.00518117,0.0529723,0.0373812,0.0751471,0.33592,0.314735,0.198469,0.0985073,0.0313394,0.0782838,
167,-2.1851,-31.7602,5.51001,25.8378,2.45334,3.09843,5.9274,-0.00494584,0.397457,0.0254535,-2.08326,-0.119926,1.19414,0.970919,0.759963,0.0326842,0.0172582,-0.0173328,0.0474705,0.0498686,0.0764129,0.307148,0.283263,0.300935,0.100318,0.0319877,0.0587967,
168,3.24519,-31.3962,-0.183726,28.207,-0.0802716,1.09979,1.86139,-0.00534662,0.398249,0.0264325,-2.08151,-0.116535,1.19649,0.982594,0.761996,0.0332979,0.0165105,-0.0201198,0.038341,0.0488573,0.0840784,0.163906,0.0962525,0.586694,0.100508,0.0359741,-0.119381,
169,2.98585,-31.4307,0.0932252,28.0843,0.178714,1.39632,1.84779,-0.00479023,0.399023,0.0262073,-2.07927,-0.117631,1.19492,0.986477,0.763953,0.0344263,0.0103534,0.0295088,0.0400738,-0.0115693,0.110506,-0.076545,-0.0899128,0.186528,0.0865772,0.0745654,-0.519884,
170,2.70963,-31.4622,0.385053,27.9633,0.293035,1.49227,2.05236,-0.00422596,0.399875,0.0260511,-2.07712,-0.118686,1.19362,0.990178,0.765052,0.0357033,0.00254396,0.0286524,0.0437214,-0.00735858,0.107457,-0.0512909,-0.0621594,0.185326,0.0310335,0.0415021,-0.220393,
171,2.71114,-31.4757,0.382972,27.9572,0.2613,1.482,2.12722,-0.00369556,0.40076,0.025971,-2.07501,-0.119512,1.19255,0.994284,0.765394,0.036176,0.000562204,0.0266528,0.0446434,-0.00380482,0.105669,-0.0404873,-0.05313,0.205775,0.00947697,0.0127587,-0.0523819,
172,2.71423,-31.4915,0.376264,27.9392,0.263565,1.53387,2.2356,-0.0031606,0.401656,0.0258957,-2.07289,-0.120384,1.19147,0.998548,0.765498,0.0362878,0.000104765,0.0268357,0.0449848,-0.00369251,0.10544,-0.043885,-0.0541779,0.21326,0.00283863,0.00138937,-0.00893732,
173,2.63317,-31.5127,0.46365,27.8929,0.394215,1.6402,2.26457,-0.00262194,0.40256,0.025821,-2.0708,-0.12126,1.19045,1.00303,0.765532,0.0362674,3.90495e-05,0.0269281,0.0450496,-0.00381994,0.104516,-0.0433115,-0.0549157,0.224714,0.00216379,-0.0018436,0.00905986,
174,2.30008,-31.5576,0.809528,27.7279,0.585119,1.78793,2.45768,-0.00210219,0.403468,0.0257562,-2.06875,-0.121905,1.18941,1.00757,0.765643,0.0362398,0.000655254,0.0257026,0.0458057,-0.0034485,0.101856,-0.0307528,-0.0529239,0.227502,0.00748354,-0.000829974,0.0446487,
175,2.16297,-31.5895,0.955101,27.6719,0.639417,1.8306,2.55006,-0.00165333,0.404392,0.0257494,-2.06677,-0.122239,1.18856,1.01247,0.765853,0.036219,0.00191018,0.0220776,0.0465992,-0.000423838,0.0989656,-0.0135261,-0.0420162,0.246176,0.0117511,-0.000544266,0.0684984,
176,1.95427,-31.6386,1.1594,27.5751,0.601384,1.68139,2.7162,-0.00124169,0.405328,0.0257645,-2.0648,-0.122438,1.18778,1.01756,0.766114,0.0362113,0.00333856,0.020363,0.0469802,0.000656387,0.0979196,-0.00880538,-0.0393119,0.255087,0.0136039,-3.18576e-05,0.0713942,
177,2.49108,-31.6226,0.598425,27.8345,0.301041,1.44839,2.35962,-0.0008752,0.406255,0.0258165,-2.06285,-0.122718,1.18678,1.02298,0.766376,0.0362012,0.0045815,0.0181683,0.0463007,0.00254285,0.0973352,-0.0134189,-0.0530856,0.271282,0.0130042,-0.000266161,0.0584237,
178,2.45052,-31.6475,0.639905,27.8113,0.31997,1.47138,2.37064,-0.000417903,0.407182,0.0257536,-2.06084,-0.123446,1.18531,1.02774,0.766618,0.0362396,0.00532573,0.0230283,0.0464152,-0.00346387,0.0998708,-0.0421502,-0.0772071,0.236115,0.012233,0.00189689,0.0367502,
179,2.42286,-31.6724,0.668195,27.7932,0.330847,1.48803,2.38687,3.50306e-05,0.408117,0.0256915,-2.05886,-0.12427,1.18378,1.03248,0.766876,0.0362729,0.00610114,0.0226202,0.047107,-0.00311395,0.0988262,-0.0411423,-0.0767327,0.237039,0.0132457,0.00157967,0.0389404,
180,2.38984,-31.698,0.702712,27.7735,0.347317,1.51224,2.40314,0.000481944,0.409064,0.0256338,-2.05689,-0.125084,1.18226,1.03725,0.76715,0.0363029,0.00684474,0.0223175,0.0475849,-0.00290686,0.0982008,-0.0406903,-0.0760484,0.238473,0.013936,0.00152795,0.0361139,
181,2.32949,-31.727,0.764988,27.7415,0.365486,1.52637,2.4282,0.000921713,0.41002,0.0255813,-2.05494,-0.125879,1.18077,1.04205,0.767438,0.0363333,0.00752753,0.0219558,0.0479306,-0.00264378,0.0976305,-0.039716,-0.074499,0.239883,0.014635,0.00158901,0.0330459,
182,2.30685,-31.7537,0.787043,27.7298,0.358471,1.50635,2.37417,0.00134922,0.410979,0.0255397,-2.05299,-0.126654,1.1793,1.04689,0.767738,0.0363646,0.0081451,0.021336,0.0481025,-0.00208831,0.0970633,-0.0385776,-0.0736144,0.242155,0.0152085,0.00163763,0.0298354,
183,2.31621,-31.7793,0.772261,27.7304,0.312549,1.44276,2.348,0.00177097,0.411941,0.0255018,-2.05106,-0.127435,1.17779,1.05163,0.768043,0.0364047,0.00863422,0.0210781,0.0481536,-0.00192361,0.0968399,-0.0396288,-0.0757347,0.236633,0.0153491,0.00199707,0.0237902,
184,2.45976,-31.7924,0.621718,27.7865,0.239268,1.41085,2.36954,0.00219418,0.412901,0.0254611,-2.04911,-0.128305,1.17618,1.05631,0.768341,0.0364476,0.00897926,0.0211802,0.048055,-0.00207394,0.0969098,-0.0444074,-0.0816079,0.233962,0.0149909,0.0021292,0.0167958,
185,2.40526,-31.8127,0.682233,27.76,0.284858,1.45434,2.35253,0.0026449,0.413865,0.0253904,-2.04716,-0.12932,1.17449,1.06104,0.768637,0.0364898,0.00923465,0.0226031,0.0482997,-0.0035932,0.0973014,-0.0518331,-0.0849741,0.236122,0.0149832,0.00220792,0.0129428,
186,2.34404,-31.842,0.742029,27.7289,0.286741,1.4496,2.38025,0.00308678,0.414835,0.0253296,-2.04523,-0.130283,1.17285,1.06573,0.76895,0.0365366,0.00952528,0.0220774,0.0486841,-0.00301601,0.096659,-0.0478695,-0.0813704,0.234276,0.0158057,0.00233491,0.0149519,
187,2.3913,-31.8583,0.692639,27.7591,0.238592,1.40732,2.31968,0.0035172,0.415808,0.0252811,-2.0433,-0.131247,1.17122,1.07046,0.769267,0.0365809,0.00979164,0.0215049,0.0487091,-0.00241144,0.0963091,-0.0480856,-0.0816415,0.236922,0.0159314,0.00225278,0.012961,
188,2.40805,-31.8794,0.667509,27.7679,0.185944,1.32249,2.21774,0.00395569,0.416782,0.0252237,-2.04137,-0.132281,1.16952,1.07509,0.769578,0.0366342,0.00994164,0.0219696,0.0487619,-0.00290669,0.0966375,-0.0528587,-0.0855096,0.230904,0.0155493,0.0026381,0.00733841,
189,2.71049,-31.8669,0.354309,27.9064,0.147848,1.34528,1.90595,0.0043985,0.417754,0.0251625,-2.03943,-0.133414,1.16769,1.07952,0.769873,0.0366968,0.00995316,0.0221925,0.0486141,-0.00308992,0.0969136,-0.057952,-0.0930123,0.220818,0.0146742,0.00296941,0.00053751,
190,2.57428,-31.8832,0.506399,27.8256,0.350731,1.71964,2.04732,0.0048983,0.418737,0.0250401,-2.03747,-0.134579,1.16584,1.08335,0.770173,0.0367894,0.00994,0.0251364,0.0494061,-0.00624131,0.0978339,-0.0609614,-0.0918506,0.190061,0.0150728,0.00418429,-0.000600224,
191,2.0101,-31.9492,1.09467,27.5319,0.701251,2.06816,2.3329,0.00537643,0.419747,0.0249422,-2.03557,-0.135466,1.16456,1.08741,0.770553,0.0368668,0.0104621,0.0237973,0.05095,-0.00482441,0.0954852,-0.0420113,-0.0589007,0.203902,0.0194859,0.0036665,0.0259381,
192,1.83504,-31.9822,1.27975,27.432,0.882014,2.29269,2.40713,0.00574986,0.42077,0.0249622,-2.03375,-0.135726,1.16395,1.09202,0.771028,0.0369364,0.0115173,0.0184122,0.05132,0.00115867,0.0919313,-0.0087385,-0.0257184,0.231747,0.0238278,0.00371165,0.0484338,
193,1.59193,-32.0226,1.53788,27.2935,1.1286,2.58926,2.54,0.00608541,0.4218,0.0250205,-2.03194,-0.13559,1.1638,1.09678,0.771553,0.0370244,0.0126154,0.0166551,0.0515695,0.00295234,0.0905919,0.00862728,-0.00451071,0.238797,0.0264163,0.00466556,0.0518881,
194,1.24031,-32.0774,1.91062,27.096,1.4321,2.92587,2.77036,0.00637482,0.422838,0.0251305,-2.03018,-0.134994,1.16419,1.1018,0.772155,0.0371335,0.0139879,0.0143585,0.0519599,0.00560548,0.0887126,0.0324463,0.024019,0.251672,0.0305621,0.00590231,0.0685394,
195,0.883131,-32.1404,2.29147,26.8957,1.74347,3.26399,3.02625,0.00660193,0.423884,0.0253233,-2.02847,-0.133813,1.16519,1.10727,0.772907,0.0372857,0.0148964,0.0115396,0.0527797,0.0102302,0.0856501,0.0631812,0.0528046,0.273848,0.0424733,0.0105185,-0.0224458,
196,0.415132,-32.2217,2.78639,26.6481,2.04754,3.55113,3.36605,0.00678013,0.424953,0.0256151,-2.02683,-0.132022,1.16682,1.11322,0.773928,0.0375675,0.0138956,0.00915093,0.0537129,0.0149864,0.083042,0.0916836,0.0877359,0.298185,0.0551923,0.0172072,-0.0653519,
197,-0.0979577,-32.3197,3.32138,26.398,2.18618,3.58523,3.80481,0.00688823,0.426023,0.0260227,-2.02522,-0.129689,1.16911,1.11982,0.775182,0.0379578,0.0128722,0.00551397,0.0532653,0.0206807,0.0812153,0.119026,0.121684,0.330838,0.0666814,0.0220646,-0.0382507,
198,-0.232073,-32.4087,3.4263,26.3459,1.82101,2.88277,3.95247,0.00690909,0.427058,0.026547,-2.02363,-0.127111,1.17169,1.12728,0.776648,0.0384152,0.0120272,0.000976341,0.0509628,0.0263318,0.0804294,0.130577,0.131539,0.373731,0.0780462,0.0252424,-0.0292121,
199,1.36645,-32.2965,1.77366,27.1836,1.13045,2.2356,2.66039,0.00689797,0.428008,0.0270897,-2.02195,-0.125178,1.17323,1.13506,0.778267,0.0390233,0.0104916,-0.000655318,0.0465377,0.0269407,0.083121,0.0935193,0.0697124,0.388108,0.0847746,0.0346748,-0.103266,
200,1.07426,-32.3596,2.08476,27.0428,1.22794,2.2215,2.8921,0.00716224,0.428945,0.0272825,-2.02008,-0.124389,1.17359,1.14037,0.779583,0.0396926,0.00954641,0.0135596,0.0468121,0.00912083,0.0934414,0.0317241,0.0129279,0.262451,0.0471339,0.0249263,0.000610409,
201,1.14831,-32.4,1.99687,27.0933,1.04574,1.81099,2.84801,0.00738066,0.429874,0.0275265,-2.01825,-0.123613,1.17378,1.14606,0.780264,0.0400393,0.010232,0.0107661,0.0466407,0.0121836,0.0910428,0.0408804,0.00668916,0.2856,0.0252461,0.0128234,0.0195582,
202,1.95327,-32.3503,1.17128,27.5391,0.822637,1.3982,2.05159,0.00760538,0.430789,0.0277503,-2.01639,-0.12311,1.17324,1.1517,0.780592,0.0402297,0.0101925,0.01117,0.045686,0.010963,0.0919711,0.0232003,-0.0341064,0.281375,0.0126253,0.00735976,-0.016214,
203,1.66246,-32.3988,1.49179,27.4345,1.12572,1.45155,2.10876,0.00797276,0.431714,0.0278042,-2.01445,-0.12293,1.17185,1.15582,0.780766,0.0403963,0.00946378,0.0186382,0.0465182,0.00225725,0.0962744,0.0023621,-0.0755308,0.202364,0.00722086,0.00668271,-0.0394344,
204,1.07797,-32.4519,2.14279,27.3304,1.26324,1.30305,2.61975,0.00829582,0.432654,0.0279135,-2.01257,-0.122383,1.17039,1.15996,0.78093,0.0404932,0.00908827,0.0159585,0.0475265,0.00548894,0.0938773,0.0309971,-0.0733529,0.207744,0.00835338,0.00391106,-0.015555,
205,1.7899,-32.4087,1.35614,27.7486,0.131707,0.814866,2.01274,0.00850471,0.433596,0.0281503,-2.0107,-0.121587,1.1687,1.16509,0.781106,0.0405147,0.00888359,0.0101558,0.0472356,0.0119108,0.0929933,0.0435418,-0.0870385,0.258345,0.00873627,0.00129692,-0.00707327,
206,1.78002,-32.4395,1.35931,27.7428,0.0559473,0.68837,2.05759,0.00881524,0.434533,0.0282237,-2.00871,-0.122556,1.16615,1.16917,0.781235,0.0406205,0.00806799,0.0160399,0.0467742,0.00335728,0.0986252,-0.0642666,-0.131093,0.199427,0.00525694,0.00496089,-0.0443664,
207,2.08693,-32.4254,1.04627,27.9359,-0.0783282,0.505051,1.80966,0.00914072,0.435469,0.0282978,-2.00674,-0.123988,1.16333,1.17326,0.781317,0.040703,0.00729418,0.0165066,0.0470471,0.00386423,0.0982841,-0.0721838,-0.142909,0.204138,0.00383154,0.00371319,-0.0382355,
208,2.07417,-32.447,1.06,27.9248,-0.0898802,0.537025,1.96827,0.00952976,0.436418,0.0283175,-2.00473,-0.125616,1.16018,1.17688,0.781372,0.040789,0.00644869,0.0197394,0.0476275,0.000947938,0.100324,-0.0844926,-0.159621,0.179922,0.00256772,0.00382621,-0.041876,
209,2.04948,-32.4686,1.09094,27.9034,-0.0981483,0.612427,2.25734,0.00992502,0.437376,0.0283404,-2.00273,-0.127348,1.15704,1.18079,0.78143,0.0408477,0.00584314,0.0198377,0.0482133,0.00124918,0.0997359,-0.0858815,-0.156878,0.195903,0.00300069,0.00278577,-0.0291649,
210,1.92622,-32.505,1.22399,27.8211,-0.0459802,0.751062,2.48117,0.0103182,0.438346,0.0283702,-2.00075,-0.129116,1.15401,1.18526,0.781504,0.0408853,0.00548144,0.0196763,0.0487144,0.00158624,0.0991352,-0.0870789,-0.149858,0.224795,0.00372364,0.00203748,-0.0181165,
211,1.6546,-32.5408,1.53112,27.7047,0.320314,1.07342,1.38148,0.0106896,0.439324,0.0284265,-1.99879,-0.130798,1.15122,1.19018,0.781598,0.0409148,0.00533187,0.0185071,0.0490925,0.00289918,0.0978113,-0.0824556,-0.1372,0.24707,0.00473733,0.00173355,-0.00792275,
212,1.59786,-32.583,1.55065,27.6671,0.17927,0.83726,1.71871,0.0110068,0.44032,0.028546,-1.99691,-0.13167,1.14891,1.19299,0.781763,0.0410349,0.00549672,0.0157189,0.0502779,0.00583941,0.0952874,-0.0455475,-0.109149,0.137437,0.00768031,0.00479198,0.00212799,
213,1.55405,-32.6183,1.58922,27.6377,0.123477,0.742357,1.73098,0.0113119,0.441304,0.0286688,-1.99497,-0.132862,1.14641,1.1964,0.781883,0.041093,0.00545241,0.0152228,0.0487821,0.00613338,0.0964156,-0.0592749,-0.127872,0.171209,0.00523233,0.00244909,-0.00827839,
214,1.7983,-32.607,1.34056,27.8008,0.0387262,0.611127,1.4461,0.0116077,0.442271,0.0287997,-1.99304,-0.134142,1.14372,1.19985,0.781971,0.0411362,0.00519274,0.0147705,0.0482845,0.0065137,0.0963465,-0.0644774,-0.136377,0.172596,0.00414347,0.00202982,-0.0144882,
215,1.76794,-32.6331,1.3704,27.7767,0.0512199,0.644328,1.45918,0.0119468,0.443241,0.0288822,-1.99108,-0.135523,1.14077,1.20277,0.782041,0.0411976,0.00476409,0.0170939,0.0485782,0.00399346,0.0980847,-0.0717512,-0.148521,0.144591,0.0034275,0.00276706,-0.0219708,
216,1.76282,-32.6556,1.37486,27.7677,0.0622793,0.676253,1.4516,0.0122837,0.444215,0.028968,-1.98913,-0.13694,1.13785,1.20569,0.782115,0.0412459,0.00444544,0.0168494,0.0488803,0.0043135,0.097524,-0.0705944,-0.145536,0.145993,0.00372015,0.00224608,-0.0152836,
217,1.73189,-32.6801,1.40745,27.7425,0.101682,0.752651,1.45308,0.0126199,0.445195,0.0290549,-1.98718,-0.138331,1.13498,1.20859,0.782193,0.0412895,0.00421435,0.0168099,0.0491371,0.00434748,0.0972369,-0.069398,-0.142481,0.145342,0.00399845,0.00209977,-0.0113807,
218,1.63958,-32.7155,1.50129,27.6741,0.148085,0.842483,1.54456,0.0129503,0.446182,0.0291471,-1.98525,-0.139653,1.13225,1.2115,0.782283,0.0413303,0.00409453,0.0164903,0.0494559,0.00462387,0.096646,-0.0655752,-0.135561,0.145531,0.00457258,0.00200376,-0.005956,
219,1.57958,-32.7472,1.56215,27.6303,0.176431,0.893958,1.58421,0.0132624,0.44717,0.0292548,-1.98334,-0.140909,1.12967,1.21458,0.782392,0.0413637,0.00413713,0.0155023,0.0494628,0.00540345,0.0956321,-0.0616429,-0.127639,0.154549,0.00563546,0.00177708,0.00242,
220,1.55256,-32.7747,1.5894,27.6098,0.195858,0.926752,1.58285,0.0135604,0.448158,0.0293729,-1.98144,-0.142103,1.1272,1.21774,0.782512,0.0413978,0.00424692,0.014833,0.0494597,0.00590538,0.0950748,-0.0590076,-0.122755,0.158471,0.00608926,0.00179217,0.00476187,
221,1.5127,-32.8047,1.62935,27.5793,0.213793,0.959354,1.6127,0.0138513,0.449147,0.029495,-1.97955,-0.143252,1.12479,1.22091,0.782639,0.0414352,0.0043642,0.0145055,0.0494832,0.00609005,0.094758,-0.0571578,-0.119693,0.158335,0.00632605,0.00190375,0.00496193,
222,1.50397,-32.8295,1.63911,27.5695,0.240057,0.999087,1.59351,0.0141337,0.450136,0.0296234,-1.97766,-0.144372,1.12245,1.22413,0.782769,0.0414712,0.00449808,0.0140749,0.0494949,0.00641543,0.09432,-0.0555669,-0.11669,0.16129,0.00655209,0.00184352,0.00585154,
223,1.44722,-32.8629,1.69747,27.5236,0.286486,1.07564,1.64448,0.0144129,0.451127,0.0297522,-1.97578,-0.145438,1.12017,1.22732,0.782906,0.0415106,0.00464113,0.0139343,0.0496385,0.00642206,0.0940071,-0.0530716,-0.11325,0.159372,0.00686283,0.00196608,0.00644385,
224,1.37461,-32.899,1.77484,27.4669,0.342064,1.16932,1.73675,0.0146808,0.45212,0.0298898,-1.97392,-0.146434,1.11801,1.2306,0.783054,0.0415455,0.00485759,0.0133261,0.0497903,0.00689576,0.0932156,-0.0489072,-0.106563,0.164366,0.00746907,0.00180356,0.0102891,
225,1.23856,-32.9496,1.91417,27.3667,0.388376,1.2471,1.89741,0.0149334,0.453117,0.0300401,-1.97207,-0.147338,1.11602,1.23406,0.783217,0.0415748,0.00516071,0.0125448,0.0499357,0.00753202,0.0922858,-0.0439892,-0.0983669,0.173422,0.00822536,0.00160766,0.0145987,
226,1.16372,-32.9943,1.99,27.3169,0.368789,1.20593,1.96536,0.015159,0.454113,0.0302159,-1.97025,-0.148169,1.11418,1.23783,0.783395,0.041596,0.005531,0.0111721,0.0498044,0.00881422,0.0910695,-0.0401648,-0.0913257,0.189235,0.00885769,0.00130146,0.0177195,
227,1.16439,-33.034,1.98111,27.3189,0.249333,0.989411,1.94606,0.0153683,0.455102,0.0304069,-1.96843,-0.149019,1.1123,1.24174,0.783565,0.0416201,0.00579622,0.0104184,0.0493596,0.00952582,0.0907952,-0.0423234,-0.0946361,0.19593,0.00838513,0.00140101,0.0120494,
228,1.54709,-33.0036,1.59045,27.5968,0.0914735,0.704929,1.53482,0.0155776,0.456076,0.0305998,-1.96659,-0.150058,1.11011,1.24563,0.783701,0.0416517,0.00576158,0.0105325,0.048485,0.00957569,0.0916495,-0.0535971,-0.113053,0.194151,0.00658201,0.00164007,-0.00327278,
229,1.54947,-33.0307,1.58746,27.5958,0.0837855,0.699941,1.54169,0.0158588,0.457049,0.0307202,-1.96469,-0.151314,1.1074,1.24875,0.783809,0.0417164,0.00540292,0.0143575,0.048666,0.00582054,0.0949469,-0.0673536,-0.1387,0.153686,0.00497437,0.00287585,-0.0207308,
230,1.53625,-33.0609,1.60066,27.5833,0.0713747,0.688823,1.57018,0.0161479,0.458025,0.0308369,-1.9628,-0.152678,1.10461,1.25184,0.783906,0.041766,0.00506609,0.0145018,0.0489883,0.00585948,0.0945831,-0.0682719,-0.139397,0.154466,0.00481468,0.00226585,-0.0163325,
231,1.5312,-33.0909,1.60396,27.5774,0.04953,0.656312,1.56895,0.0164364,0.459006,0.0309573,-1.96091,-0.154068,1.10181,1.25498,0.784,0.0418062,0.00477582,0.0144464,0.0491315,0.00604071,0.0943842,-0.0694008,-0.139983,0.15741,0.00465108,0.00196054,-0.0143366,
232,1.53974,-33.1202,1.59149,27.5836,-0.00314474,0.565892,1.54676,0.016725,0.459988,0.0310799,-1.95902,-0.15549,1.09897,1.25813,0.784088,0.0418449,0.00448369,0.014461,0.0491293,0.00612709,0.094382,-0.0713356,-0.142364,0.157398,0.00433432,0.00190963,-0.014653,
233,1.69834,-33.1204,1.42921,27.703,-0.0665765,0.440072,1.32911,0.0170167,0.460967,0.0312024,-1.95712,-0.156996,1.096,1.26124,0.784162,0.0418841,0.00412805,0.0146432,0.0489328,0.00611414,0.0947365,-0.0760699,-0.149677,0.15535,0.00357687,0.00191387,-0.0182126,
234,1.68342,-33.1483,1.44306,27.6891,-0.0640164,0.453946,1.34209,0.0173391,0.461947,0.0312956,-1.9552,-0.158583,1.09281,1.26394,0.784223,0.0419375,0.00367907,0.0162615,0.0491149,0.00459069,0.0961334,-0.0813276,-0.160664,0.133938,0.00286673,0.00242174,-0.0234692,
235,1.66986,-33.176,1.45589,27.6768,-0.0616269,0.462586,1.34324,0.0176626,0.462931,0.0313906,-1.95328,-0.160208,1.08962,1.26664,0.78428,0.0419802,0.00329449,0.0161979,0.0493273,0.00478177,0.0958021,-0.0810488,-0.159069,0.135322,0.00283047,0.00199705,-0.0191305,
236,1.66128,-33.203,1.46383,27.6677,-0.0624397,0.467537,1.3498,0.0179845,0.463919,0.031489,-1.95137,-0.161824,1.08646,1.26935,0.784337,0.042018,0.00296517,0.0161118,0.0494528,0.00494099,0.0956176,-0.0806446,-0.157705,0.135525,0.00278759,0.00182189,-0.0166192,
237,1.64668,-33.2307,1.47874,27.6544,-0.0587923,0.477183,1.35612,0.0183056,0.464908,0.0315896,-1.94946,-0.163437,1.08332,1.27208,0.784392,0.0420528,0.00267431,0.0160633,0.0495189,0.00504106,0.0955054,-0.0805699,-0.156645,0.136257,0.00271956,0.001698,-0.0148197,
238,1.63268,-33.2595,1.49133,27.6416,-0.0609931,0.478088,1.36375,0.0186244,0.465898,0.0316933,-1.94755,-0.165042,1.0802,1.27481,0.784446,0.0420854,0.00241954,0.0159434,0.0495669,0.00519704,0.0953412,-0.0800925,-0.155188,0.136949,0.0026873,0.00160401,-0.0130674,
239,1.62246,-33.2876,1.50029,27.633,-0.0714683,0.464335,1.36634,0.018941,0.466888,0.0317999,-1.94565,-0.166648,1.07711,1.27757,0.784499,0.0421162,0.0021874,0.0158357,0.0495642,0.00533841,0.095224,-0.0801696,-0.154481,0.137771,0.00258883,0.0015202,-0.0120489,
240,1.62091,-33.3149,1.49952,27.6303,-0.0929548,0.431591,1.35792,0.0192562,0.467878,0.0319089,-1.94374,-0.168267,1.07401,1.28033,0.784548,0.0421458,0.00196051,0.01577,0.0495244,0.00545144,0.0951947,-0.0810382,-0.155087,0.138092,0.00239798,0.00145091,-0.01184,
241,1.65733,-33.3345,1.46039,27.6589,-0.125304,0.375925,1.29717,0.0195717,0.468867,0.0320185,-1.94184,-0.169923,1.07086,1.28308,0.784592,0.0421742,0.0017314,0.0157956,0.0494565,0.00547092,0.0952544,-0.0830365,-0.157484,0.137292,0.0021617,0.00136228,-0.0118046,
242,1.66856,-33.3588,1.44548,27.666,-0.159326,0.328738,1.27626,0.0198946,0.469855,0.032121,-1.93992,-0.171631,1.06763,1.28571,0.784631,0.0422037,0.00149025,0.0161865,0.0494697,0.00510256,0.0956383,-0.0860221,-0.162076,0.131288,0.00187978,0.00136817,-0.0124231,
243,1.74976,-33.3683,1.36026,27.7274,-0.192225,0.276114,1.16775,0.0202211,0.470845,0.0322205,-1.938,-0.173416,1.06432,1.28829,0.784661,0.0422268,0.00124831,0.0163531,0.0495591,0.00495748,0.0958225,-0.0898012,-0.1656,0.129051,0.00133348,0.000959539,-0.0119133,
244,1.74762,-33.3903,1.36228,27.7232,-0.182692,0.313803,1.17867,0.0205633,0.471839,0.0323033,-1.93608,-0.175259,1.06092,1.29066,0.784684,0.0422479,0.00100618,0.0171734,0.0497977,0.00410619,0.0964452,-0.0929698,-0.170041,0.11823,0.00103234,0.000863897,-0.011873,
245,1.68527,-33.4238,1.42424,27.6717,-0.157336,0.375474,1.22208,0.0209067,0.472838,0.0323854,-1.93415,-0.177103,1.05759,1.29305,0.784706,0.0422619,0.000810826,0.0171838,0.0500936,0.00411877,0.0962079,-0.0921884,-0.166144,0.119299,0.00103724,0.000591141,-0.00905888,
246,1.6806,-33.4469,1.42635,27.6676,-0.158491,0.385327,1.19767,0.0212392,0.47384,0.0324796,-1.93224,-0.178909,1.05437,1.29552,0.784729,0.0422703,0.000673516,0.0166019,0.0502132,0.00473025,0.095548,-0.0898928,-0.159818,0.123594,0.00114198,0.00038946,-0.00616738,
247,1.67727,-33.4689,1.42638,27.6643,-0.158267,0.39831,1.16355,0.0215705,0.474844,0.0325745,-1.93033,-0.180707,1.05119,1.29794,0.784752,0.0422787,0.000556833,0.0165686,0.05025,0.0047376,0.0955252,-0.0900665,-0.158262,0.121132,0.00111006,0.000368366,-0.0053425,
248,1.69696,-33.4839,1.4038,27.6795,-0.144648,0.431754,1.09935,0.0219014,0.47585,0.032669,-1.92843,-0.182506,1.04805,1.3003,0.784775,0.0422868,0.000459382,0.0165491,0.0503138,0.00472293,0.0954654,-0.0901045,-0.156548,0.117706,0.00111037,0.000350662,-0.00441733,
249,1.6685,-33.5062,1.43125,27.6515,-0.091364,0.542666,1.10727,0.0222359,0.476859,0.0327583,-1.92652,-0.184279,1.04497,1.30253,0.7848,0.0422963,0.000389852,0.016731,0.05054,0.00445414,0.0954909,-0.0887929,-0.153119,0.111292,0.00123701,0.000405789,-0.00311936,
250,1.61025,-33.5315,1.49182,27.5987,0.0107998,0.732288,1.15563,0.022565,0.477873,0.0328513,-1.92462,-0.185962,1.04208,1.30477,0.784833,0.0423042,0.000382758,0.0164243,0.0508617,0.00466071,0.0948951,-0.0836493,-0.142624,0.112084,0.0016327,0.000393745,-5.11486e-06,
251,1.41068,-33.5874,1.69472,27.4225,0.159693,1.00909,1.37133,0.0228821,0.478897,0.0329534,-1.92275,-0.187463,1.03952,1.3071,0.78488,0.0423106,0.000489447,0.0157804,0.0513069,0.00514974,0.0938546,-0.0737046,-0.125068,0.116918,0.00245093,0.000408885,0.00519932,
252,1.30725,-33.6234,1.80247,27.3408,0.286866,1.20672,1.41488,0.0231605,0.479924,0.0330922,-1.92093,-0.188706,1.03745,1.30985,0.784955,0.0423096,0.000790627,0.0137406,0.0515134,0.00703437,0.0914174,-0.059472,-0.0997149,0.138404,0.00382549,0.000219503,0.0143399,
253,0.99229,-33.7156,2.11059,27.0749,0.332529,1.30022,1.71141,0.0234148,0.480955,0.0332492,-1.91914,-0.189691,1.03574,1.31269,0.785053,0.0423146,0.00119851,0.0125729,0.051619,0.00788453,0.0901342,-0.0474155,-0.0822817,0.142642,0.00509739,0.00047249,0.0200668,
254,1.39064,-33.6563,1.70641,27.4138,0.248183,1.10131,1.23409,0.0236082,0.481969,0.0334654,-1.91738,-0.190603,1.03424,1.31612,0.785174,0.0423149,0.00171593,0.00940996,0.0504565,0.0108097,0.0873948,-0.0437184,-0.0746805,0.172173,0.00647931,0.000466149,0.0264085,
255,1.18309,-33.7127,1.91988,27.236,0.42344,1.41414,1.47376,0.023867,0.482986,0.0336027,-1.91557,-0.191552,1.03241,1.31864,0.7853,0.0423627,0.00199186,0.0131311,0.0508468,0.00667276,0.0911972,-0.0502792,-0.0930023,0.124848,0.00613341,0.00219331,0.0109284,
256,0.989075,-33.773,2.11864,27.0673,0.571256,1.67096,1.70167,0.0240903,0.484008,0.0337695,-1.91381,-0.192317,1.03099,1.32159,0.78547,0.0423869,0.00264248,0.0109097,0.0514607,0.00843141,0.0879688,-0.0348532,-0.0672755,0.148472,0.00880653,0.00128932,0.0324669,
257,0.833283,-33.8302,2.28008,26.9275,0.703686,1.89988,1.92719,0.0242711,0.485039,0.0339702,-1.9121,-0.192805,1.03002,1.32499,0.785689,0.0424005,0.00357668,0.00879101,0.0517296,0.0100729,0.0854918,-0.021546,-0.0450712,0.170954,0.0111517,0.000909977,0.0447752,
258,0.643284,-33.901,2.47814,26.7525,0.836909,2.13697,2.22102,0.0244166,0.486074,0.034197,-1.91044,-0.193046,1.02946,1.32883,0.785953,0.0424085,0.00467876,0.0070514,0.0518494,0.0113476,0.083401,-0.00971619,-0.0255157,0.193178,0.0134132,0.000675635,0.0526248,
259,0.438031,-33.9853,2.68948,26.561,0.937825,2.32295,2.50909,0.0245207,0.487107,0.0344556,-1.90882,-0.193062,1.0293,1.33326,0.786278,0.0424082,0.00599754,0.00494509,0.0517053,0.0128818,0.0809262,0.00127409,-0.00557143,0.221948,0.0167944,0.000456194,0.0643634,
260,0.220835,-34.0877,2.90421,26.3616,0.911578,2.28383,2.72104,0.0245801,0.488135,0.0347499,-1.90725,-0.1929,1.02948,1.33825,0.786658,0.0424045,0.00737128,0.00274627,0.0513979,0.0146743,0.0785628,0.00957258,0.0107167,0.250213,0.0194284,0.00037891,0.066622,
261,0.380196,-34.1184,2.7299,26.5039,0.633311,1.75582,2.45129,0.0245958,0.489144,0.035087,-1.90571,-0.192782,1.02966,1.34366,0.787041,0.0424025,0.00844518,0.000659102,0.0501734,0.0167919,0.0769877,0.00589658,0.00775531,0.270948,0.0192531,0.000423291,0.0516185,
262,0.693186,-34.1223,2.37957,26.7956,0.0794954,0.758665,2.01429,0.0246414,0.490125,0.0354018,-1.90409,-0.193077,1.02906,1.34857,0.787331,0.0424371,0.008676,0.00257731,0.0483988,0.0154772,0.0802648,-0.0203151,-0.0385825,0.24413,0.013647,0.00155394,0.00679844,
263,1.95803,-33.8832,1.08981,27.9371,-0.532359,-0.438601,0.619896,0.0247544,0.491061,0.0356642,-1.90234,-0.194329,1.0268,1.35265,0.787499,0.0425064,0.00804621,0.00623238,0.0461782,0.0129137,0.0861826,-0.070948,-0.125048,0.201363,0.00567194,0.00276937,-0.0467598,
264,2.02775,-33.8817,1.02204,28.0024,-0.520562,-0.359437,0.627784,0.0251108,0.492003,0.0356786,-1.90034,-0.196645,1.02229,1.35401,0.787624,0.0426723,0.00741362,0.0186845,0.0476321,0.000312626,0.0992907,-0.126489,-0.235441,0.063425,0.00202677,0.00658059,-0.0712558,
265,1.99024,-33.8937,1.07099,27.9647,-0.335828,-0.0193022,0.684963,0.0255025,0.492982,0.0356748,-1.89837,-0.199151,1.01769,1.3553,0.787615,0.0427687,0.00591515,0.0197892,0.0497595,-6.55449e-05,0.0985649,-0.125274,-0.229235,0.0644877,-0.00185946,0.00378836,-0.0834828,
266,1.49784,-34.0196,1.56853,27.5136,-0.0973657,0.466563,1.21244,0.0258924,0.494004,0.0356791,-1.89644,-0.201351,1.01363,1.35669,0.78759,0.0428208,0.00456406,0.0195185,0.0518089,0.000389939,0.0969339,-0.108,-0.196725,0.0699544,-0.00176502,0.00194869,-0.0662734,
267,1.5051,-34.0399,1.55654,27.5201,-0.0885396,0.476895,1.15985,0.026194,0.495037,0.0357813,-1.89462,-0.20315,1.01048,1.35911,0.78759,0.0428255,0.00371224,0.0147952,0.0519608,0.00538635,0.0915268,-0.0854128,-0.150112,0.122506,-0.000232095,0.000281811,-0.0400634,
268,1.47479,-34.0666,1.58426,27.4917,-0.0513508,0.549583,1.17979,0.0264913,0.496071,0.0358867,-1.89278,-0.204836,1.00751,1.36145,0.787582,0.0428354,0.00292764,0.0148766,0.0514701,0.00527401,0.0922056,-0.084261,-0.147149,0.117251,-0.000421786,0.000514278,-0.0363194,
269,1.42145,-34.0987,1.63553,27.4385,0.0118006,0.662617,1.19904,0.0267833,0.497097,0.035997,-1.89095,-0.206453,1.00469,1.36384,0.787582,0.0428464,0.00230947,0.0145656,0.0511764,0.00556812,0.0918808,-0.0798189,-0.14014,0.119468,0.000326594,0.00071566,-0.0274032,
270,1.34006,-34.139,1.71428,27.3581,0.0875238,0.790796,1.21602,0.0270642,0.498119,0.0361159,-1.88913,-0.207944,1.00206,1.36626,0.787608,0.042864,0.00192531,0.0139825,0.051115,0.00598894,0.0911306,-0.0735404,-0.129586,0.121413,0.0016071,0.00100709,-0.0167812,
271,1.27804,-34.1761,1.7719,27.2948,0.172058,0.901125,1.1175,0.0273279,0.499139,0.0362478,-1.88733,-0.209293,0.999661,1.36872,0.787658,0.0428849,0.00174746,0.0130947,0.051064,0.00665026,0.0900931,-0.0661701,-0.117566,0.123111,0.00269784,0.00112261,-0.00786532,
272,1.21923,-34.2123,1.82622,27.2335,0.289465,1.02345,0.891774,0.0275769,0.500158,0.0363884,-1.88555,-0.21047,0.99747,1.37099,0.787729,0.0429133,0.00171228,0.0123646,0.0510236,0.00707552,0.0892366,-0.0578013,-0.107391,0.113289,0.00363688,0.0013892,-0.00186142,
273,1.14361,-34.2529,1.89498,27.1578,0.440915,1.16852,0.584454,0.0278111,0.501177,0.0365354,-1.8838,-0.211417,0.995485,1.37281,0.787823,0.0429515,0.00181142,0.0116063,0.0510259,0.00739981,0.0882305,-0.0461502,-0.0968911,0.0908296,0.0048693,0.00178443,0.00471349,
274,1.05139,-34.2971,1.98163,27.0751,0.547713,1.30735,0.523082,0.0280254,0.502195,0.0366889,-1.88206,-0.212073,0.993728,1.37402,0.787953,0.0430045,0.00210544,0.0105679,0.0510473,0.00774004,0.0869452,-0.0314035,-0.0847843,0.0601156,0.00666933,0.00236905,0.0137387,
275,0.941072,-34.3409,2.09825,27.0108,0.303327,1.35122,1.90211,0.0282178,0.503213,0.0368546,-1.88035,-0.212534,0.992222,1.37509,0.788108,0.0430508,0.00252999,0.00946891,0.0510112,0.00833871,0.0857395,-0.0213406,-0.0728625,0.0539223,0.00781361,0.00216325,0.0198783,
276,0.992227,-34.3719,2.04269,27.0444,-0.0984301,1.13194,3.55965,0.0283909,0.504227,0.0370498,-1.87865,-0.213456,0.990816,1.37888,0.7883,0.0430339,0.00332404,0.00862371,0.0506848,0.00968843,0.0851362,-0.046062,-0.0684998,0.191626,0.00888004,-1.60767e-05,0.0290732,
277,1.09311,-34.37,1.97634,27.172,-0.237904,0.995755,3.92838,0.02858,0.505227,0.0372459,-1.87691,-0.215131,0.989114,1.38597,0.788483,0.0429809,0.0040012,0.00963358,0.0499137,0.00965226,0.0864131,-0.0857523,-0.0862113,0.357164,0.00742138,-0.00149412,0.0163387,
278,1.18633,-34.3851,1.89095,27.2234,0.440878,0.91441,0.205556,0.0287926,0.506227,0.0374294,-1.87515,-0.217101,0.987182,1.39384,0.788601,0.0429514,0.00403558,0.0107961,0.0499923,0.00913317,0.0878868,-0.099553,-0.0984609,0.393969,0.00515828,-0.00086182,-0.00446869,
279,1.16963,-34.427,1.87567,27.19,0.1754,0.823227,1.31821,0.0290078,0.50722,0.0375645,-1.87342,-0.217799,0.984864,1.3944,0.788838,0.0431912,0.00446046,0.0105833,0.0509384,0.00723316,0.087621,-0.031352,-0.10753,0.022074,0.0083634,0.00764178,-0.00496747,
280,1.1951,-34.4474,1.84682,27.2164,0.184668,0.783913,1.16212,0.0292252,0.50823,0.0377173,-1.87166,-0.218925,0.982596,1.39704,0.788957,0.0432538,0.00424543,0.0110271,0.0504808,0.00766161,0.0881259,-0.056818,-0.113205,0.133487,0.0038563,0.00186735,-0.023891,
281,1.17699,-34.4815,1.85813,27.1999,0.134054,0.706079,1.18921,0.0294518,0.509239,0.0378657,-1.86989,-0.220034,0.980265,1.3994,0.789011,0.0432844,0.00363701,0.0113976,0.0504482,0.00744604,0.0883968,-0.0556923,-0.116725,0.117943,0.0020872,0.00102979,-0.0314912,
282,1.34396,-34.4633,1.68568,27.3699,0.0661333,0.543436,0.91206,0.0296786,0.510242,0.0380204,-1.86812,-0.221229,0.977823,1.40182,0.789042,0.0432989,0.00298266,0.0113877,0.0500423,0.00773818,0.088423,-0.0599658,-0.123454,0.120825,0.00163488,0.000705798,-0.029448,
283,1.29887,-34.4954,1.72951,27.3258,0.108115,0.620341,0.953103,0.0299376,0.511246,0.038144,-1.86631,-0.222511,0.975089,1.4037,0.789074,0.0433279,0.00237345,0.0131086,0.0502728,0.00611508,0.0903969,-0.0658755,-0.137817,0.0932297,0.00149291,0.00123142,-0.02882,
284,1.26281,-34.5256,1.76385,27.2906,0.149868,0.687838,0.974457,0.0301919,0.512253,0.0382731,-1.86452,-0.223768,0.972447,1.40564,0.789113,0.0433473,0.00193983,0.0126769,0.0505452,0.00649115,0.0895729,-0.0620675,-0.130827,0.097308,0.00206961,0.00090754,-0.0190198,
285,1.21564,-34.5586,1.81002,27.2436,0.20385,0.775398,1.01791,0.0304385,0.513265,0.0384075,-1.86274,-0.224944,0.969936,1.40763,0.789163,0.0433641,0.00166213,0.0122855,0.050703,0.0067491,0.0890326,-0.0581014,-0.124309,0.099422,0.00262252,0.000833754,-0.0119993,
286,1.15687,-34.5953,1.86835,27.1835,0.267903,0.879761,1.09004,0.030675,0.51428,0.0385487,-1.86098,-0.226024,0.967583,1.4097,0.789226,0.0433789,0.00152381,0.0117562,0.0507978,0.00709027,0.0883368,-0.0530263,-0.116119,0.10373,0.00326996,0.000783191,-0.00551036,
287,1.08692,-34.637,1.93822,27.1089,0.33846,0.992372,1.19041,0.0308986,0.515295,0.0386986,-1.85923,-0.226989,0.965419,1.41191,0.789303,0.0433915,0.00151559,0.0110939,0.0508429,0.00752725,0.0874805,-0.0470451,-0.106521,0.110894,0.00399965,0.000732603,0.000558347,
288,1.02289,-34.682,2.00027,27.0305,0.418487,1.09753,1.26528,0.031107,0.51631,0.0388592,-1.8575,-0.227828,0.963458,1.41432,0.789396,0.0434018,0.00162574,0.0103116,0.0508168,0.00806297,0.0864697,-0.0405088,-0.0962737,0.120865,0.00476799,0.000679345,0.00603702,
289,0.954264,-34.7299,2.06664,26.9564,0.449482,1.1401,1.35562,0.0313007,0.517324,0.0390283,-1.8558,-0.228522,0.961688,1.41688,0.789504,0.0434126,0.00183278,0.00956396,0.0507154,0.00848985,0.0854335,-0.0331344,-0.0868612,0.128267,0.00553629,0.000703462,0.0106208,
290,0.974014,-34.7551,2.04456,26.9743,0.454363,1.10819,1.29156,0.0314796,0.518332,0.0392097,-1.85411,-0.229147,0.96002,1.41962,0.789619,0.0434229,0.00205935,0.0088673,0.0503768,0.00906882,0.0846843,-0.0304315,-0.0828909,0.137224,0.00583815,0.000680495,0.0113215,
291,0.924452,-34.8005,2.09341,26.9194,0.470169,1.12466,1.38547,0.0316602,0.519337,0.0393862,-1.85241,-0.229741,0.958314,1.42224,0.789734,0.0434424,0.00222809,0.0090303,0.0501863,0.00879642,0.0849633,-0.029805,-0.0857253,0.130823,0.00577126,0.000996833,0.00806583,
292,0.88046,-34.8515,2.13046,26.8699,0.415041,1.02064,1.4453,0.0318325,0.520337,0.0395712,-1.85072,-0.230324,0.956626,1.42503,0.789852,0.043456,0.00240282,0.00856379,0.0499565,0.00923189,0.0843001,-0.0286287,-0.0844907,0.14015,0.00597919,0.000792738,0.00908438,
293,1.03014,-34.8495,1.97527,27.024,0.288082,0.755131,1.26095,0.0319978,0.521327,0.0397676,-1.84903,-0.230985,0.954806,1.42796,0.789957,0.0434694,0.00246286,0.00828803,0.0493574,0.00976132,0.0842215,-0.033677,-0.0929369,0.146144,0.0051603,0.000770823,0.00216993,
294,1.03994,-34.8899,1.95136,27.0349,0.118671,0.475384,1.24121,0.0321928,0.522312,0.0399388,-1.8473,-0.231842,0.952549,1.43053,0.790038,0.0434948,0.00231456,0.00993662,0.0491497,0.00845045,0.0864169,-0.0450885,-0.116024,0.127812,0.00369989,0.00111376,-0.0097956,
295,1.44572,-34.8107,1.54041,27.4629,-0.0952034,0.0189698,0.700872,0.0323958,0.523285,0.0401094,-1.84554,-0.233027,0.949803,1.43305,0.79009,0.0435209,0.00199821,0.010262,0.0485542,0.00846872,0.0871662,-0.0612535,-0.140377,0.125864,0.00204289,0.00106589,-0.0187048,
296,1.42833,-34.8417,1.55672,27.4423,-0.102202,0.0330811,0.745042,0.0326759,0.524265,0.0402019,-1.8437,-0.234576,0.946197,1.43452,0.790128,0.043573,0.00151087,0.0142628,0.0492434,0.0043622,0.0917637,-0.0815317,-0.184511,0.0720218,0.00147774,0.00210036,-0.0243532,
297,1.44778,-34.862,1.53582,27.461,-0.122911,0.00690936,0.71247,0.0329586,0.525257,0.0402922,-1.84188,-0.236225,0.942527,1.43605,0.790153,0.0436023,0.00112182,0.0141475,0.0499783,0.00449871,0.0910327,-0.0827661,-0.183326,0.076298,0.0010974,0.0010696,-0.0180559,
298,1.45317,-34.8853,1.52938,27.4647,-0.139109,-0.00131959,0.704625,0.0332464,0.526262,0.0403761,-1.84005,-0.237958,0.938837,1.4375,0.790168,0.0436051,0.000833597,0.0144862,0.0505048,0.00402994,0.0914329,-0.0897597,-0.183687,0.0718719,0.000301846,-0.000918588,-0.0100295,
299,1.45993,-34.9083,1.52022,27.4685,-0.159009,-0.0121274,0.697043,0.0335373,0.527274,0.0404548,-1.83822,-0.2398,0.935166,1.43892,0.790162,0.0435606,0.000618709,0.0145558,0.0506417,0.00392588,0.0915206,-0.0923407,-0.183254,0.0709426,-0.000599321,-0.00289231,-0.00463398,
300,1.46836,-34.9308,1.51002,27.4685,-0.156034,0.00313574,0.647035,0.0338298,0.528286,0.0405315,-1.83639,-0.241683,0.931487,1.44033,0.790148,0.0434991,0.000451513,0.0146365,0.050671,0.00382243,0.091538,-0.094308,-0.183889,0.0701868,-0.000739281,-0.00307014,-0.00262313,
301,1.47575,-34.9518,1.50106,27.4725,-0.137056,0.0318567,0.551075,0.0341241,0.529301,0.0406055,-1.83456,-0.243562,0.927838,1.44163,0.790134,0.0434423,0.000324562,0.0147186,0.0507892,0.00369337,0.0914528,-0.0940052,-0.182038,0.0651885,-0.000643668,-0.00260779,-0.00167653,
302,1.43952,-34.9868,1.53288,27.4281,-0.107902,0.079337,0.459504,0.0344199,0.530318,0.0406771,-1.83274,-0.245405,0.92425,1.44275,0.790122,0.0433966,0.000230953,0.0147878,0.050941,0.0035746,0.0914019,-0.0921029,-0.178851,0.0555951,-0.000500406,-0.0020203,-0.00113288,
303,1.45443,-35.0054,1.51351,27.4411,-0.0730028,0.0969813,0.18907,0.0347092,0.531336,0.0407547,-1.83092,-0.247191,0.92076,1.44368,0.790114,0.0433621,0.00016332,0.0144458,0.0509281,0.00388356,0.0908857,-0.0891771,-0.173758,0.0464409,-0.000370171,-0.00149611,-0.000782997,
304,1.44593,-35.0281,1.51833,27.4259,0.0233303,0.200293,-0.148521,0.0350011,0.532356,0.0408282,-1.8291,-0.248904,0.917319,1.44407,0.790108,0.0433369,0.000115045,0.0145929,0.0510115,0.00366571,0.0909882,-0.0856573,-0.171584,0.0194004,-0.000267295,-0.00108222,-0.000546136,
305,1.3312,-35.0821,1.62827,27.302,0.08698,0.351242,-0.105664,0.0352913,0.533381,0.0409012,-1.82729,-0.250433,0.914067,1.44379,0.790103,0.0433188,8.08142e-05,0.0144835,0.0513053,0.00366238,0.0906303,-0.076053,-0.161185,-0.0143561,-0.000190687,-0.000773196,-0.000382514,
306,1.29721,-35.1002,1.67222,27.3311,-0.261351,0.284695,1.30361,0.0355594,0.534405,0.0409953,-1.82551,-0.251835,0.91111,1.44359,0.7901,0.043306,5.6621e-05,0.0133449,0.0511953,0.00473732,0.0892628,-0.0696943,-0.145899,-0.0100673,-0.00013522,-0.000548885,-0.000268546,
307,1.27183,-35.1333,1.69751,27.2954,-0.114686,0.265831,0.778461,0.0358173,0.535419,0.0410984,-1.82371,-0.253892,0.908082,1.44617,0.790098,0.0432968,3.95462e-05,0.0129393,0.0506067,0.00512195,0.0899806,-0.104326,-0.151436,0.130865,-9.56033e-05,-0.000388358,-0.000188807,
308,1.26168,-35.1622,1.70538,27.2893,-0.180478,0.214778,0.946554,0.0360736,0.53643,0.0412068,-1.82192,-0.255702,0.905029,1.44775,0.790096,0.0432904,2.75153e-05,0.012796,0.0505851,0.00543205,0.0895391,-0.0896945,-0.153021,0.0783496,-6.7369e-05,-0.000273798,-0.00013256,
309,1.32321,-35.1685,1.64188,27.3592,-0.219511,0.12021,0.816047,0.0363277,0.537438,0.0413174,-1.82012,-0.257619,0.901886,1.44965,0.790095,0.0432859,1.90711e-05,0.0127083,0.0503859,0.0055004,0.0895598,-0.0961953,-0.157574,0.0951632,-4.72571e-05,-0.00019212,-9.27147e-05,
310,1.33252,-35.1903,1.63068,27.3669,-0.229934,0.102721,0.796812,0.0365937,0.538446,0.0414153,-1.81831,-0.259613,0.898575,1.4513,0.790094,0.0432827,1.31731e-05,0.0133254,0.0504471,0.00484633,0.0903131,-0.100038,-0.166498,0.0821152,-3.29891e-05,-0.000134142,-6.45599e-05,
311,1.33863,-35.2118,1.62426,27.3708,-0.230315,0.0992093,0.77237,0.036862,0.539456,0.0415097,-1.81651,-0.261633,0.895216,1.4529,0.790094,0.0432805,9.0727e-06,0.0134118,0.0505987,0.00470032,0.0902771,-0.10107,-0.168002,0.0801945,-2.29242e-05,-9.32275e-05,-4.47664e-05,
312,1.34015,-35.2342,1.62187,27.3696,-0.224327,0.108421,0.751173,0.0371313,0.540469,0.041602,-1.8147,-0.263654,0.891853,1.45446,0.790093,0.043279,6.23395e-06,0.0134595,0.0507473,0.00459799,0.0902238,-0.101089,-0.168049,0.0777533,-1.58666e-05,-6.45313e-05,-3.09282e-05,
313,1.33775,-35.2575,1.62303,27.3633,-0.211748,0.125992,0.729443,0.0374006,0.541485,0.041693,-1.8129,-0.265664,0.888511,1.45597,0.790093,0.0432779,4.27543e-06,0.0134637,0.0508742,0.00453847,0.0901294,-0.100465,-0.166808,0.0756367,-1.09452e-05,-4.45175e-05,-2.1303e-05,
314,1.333,-35.2805,1.62653,27.3544,-0.187843,0.161277,0.701842,0.0376694,0.542503,0.0417835,-1.8111,-0.26765,0.885209,1.45744,0.790093,0.0432772,2.92797e-06,0.0134316,0.0509719,0.00451761,0.0899969,-0.0991773,-0.164711,0.073467,-7.52974e-06,-3.0627e-05,-1.46378e-05,
315,1.32003,-35.3053,1.63867,27.3343,-0.144811,0.222202,0.672838,0.037937,0.543524,0.0418738,-1.80931,-0.269588,0.881979,1.45886,0.790093,0.0432767,2.00296e-06,0.0133703,0.0510923,0.00451451,0.0898233,-0.0967604,-0.16088,0.0707101,-5.16896e-06,-2.10251e-05,-1.00388e-05,
316,1.29275,-35.3336,1.66573,27.2969,-0.0772833,0.317818,0.661234,0.0382016,0.544548,0.0419655,-1.80752,-0.271443,0.878869,1.46021,0.790093,0.0432763,1.36903e-06,0.0132212,0.0512252,0.00459189,0.0895176,-0.0924384,-0.154531,0.0678129,-3.54241e-06,-1.44092e-05,-6.87471e-06,
317,1.22084,-35.3773,1.73645,27.2056,-0.00639579,0.442304,0.76449,0.0384605,0.545574,0.0420612,-1.80574,-0.273167,0.875947,1.46154,0.790093,0.0432761,9.35155e-07,0.012923,0.0513653,0.00481117,0.0890135,-0.0856787,-0.14478,0.0666556,-2.42458e-06,-9.86237e-06,-4.70266e-06,
318,1.19388,-35.4078,1.76042,27.1693,0.0363908,0.493704,0.767331,0.0387052,0.5466,0.0421701,-1.80399,-0.274751,0.873271,1.46308,0.790093,0.0432759,6.38487e-07,0.0121966,0.0513147,0.00548034,0.0879961,-0.0785792,-0.132119,0.0769843,-1.65787e-06,-6.74368e-06,-3.21415e-06,
319,1.16784,-35.4373,1.78421,27.1364,0.0732408,0.537507,0.780554,0.0389444,0.547624,0.0422839,-1.80224,-0.276243,0.870724,1.46462,0.790093,0.0432758,4.35786e-07,0.0119416,0.0511654,0.00570682,0.0876847,-0.0742413,-0.126509,0.0772714,-1.13279e-06,-4.60784e-06,-2.19545e-06,
320,1.13747,-35.4686,1.81178,27.0979,0.102832,0.574348,0.811281,0.0391785,0.548646,0.0424023,-1.80049,-0.277659,0.868275,1.46619,0.790093,0.0432757,2.97363e-07,0.011691,0.0510474,0.00592545,0.0873741,-0.0705075,-0.121752,0.0785965,-7.73578e-07,-3.14669e-06,-1.4989e-06,
321,1.1139,-35.4995,1.83038,27.0658,0.106545,0.569974,0.818625,0.0394068,0.549665,0.0425258,-1.79875,-0.279015,0.865909,1.46783,0.790093,0.0432757,2.02875e-07,0.0114,0.0509228,0.00618322,0.0870015,-0.0675031,-0.117712,0.0816717,-5.28066e-07,-2.14803e-06,-1.02301e-06,
322,1.17686,-35.4996,1.76573,27.1374,0.113101,0.534892,0.674691,0.039631,0.550679,0.0426535,-1.79702,-0.280357,0.863554,1.46947,0.790093,0.0432757,1.38397e-07,0.011197,0.0507113,0.00636995,0.0867549,-0.0670655,-0.117681,0.0824088,-3.60349e-07,-1.4658e-06,-6.97991e-07,
323,1.14163,-35.5288,1.80001,27.0892,0.200201,0.649991,0.679,0.0398668,0.551696,0.0427677,-1.79527,-0.281685,0.861142,1.47084,0.790093,0.0432756,9.44058e-08,0.0118056,0.0508836,0.00568073,0.087487,-0.0663585,-0.120838,0.0680177,-2.45838e-07,-1e-06,-4.76126e-07,
324,1.07527,-35.5682,1.86499,27.0008,0.315311,0.80864,0.729994,0.0400956,0.552718,0.0428861,-1.79354,-0.282852,0.858923,1.4722,0.790093,0.0432756,7.5049e-08,0.011407,0.051171,0.00594467,0.0867469,-0.0576917,-0.109476,0.0684503,-1.70054e-07,-6.91732e-07,-3.30972e-07,
325,1.00043,-35.6116,1.93742,26.9005,0.435228,0.964287,0.787908,0.0403106,0.553743,0.0430155,-1.79183,-0.283795,0.857009,1.47367,0.790092,0.0432756,7.5049e-08,0.010706,0.0513254,0.00652242,0.0856547,-0.0462176,-0.093671,0.0735515,-1.37762e-07,-5.60378e-07,-2.78573e-07,
326,0.927927,-35.6555,2.00702,26.8033,0.549718,1.10382,0.852064,0.0405104,0.554769,0.0431583,-1.79015,-0.284499,0.855409,1.47525,0.790092,0.0432756,7.5049e-08,0.00994358,0.0512969,0.00719548,0.0845385,-0.0342412,-0.0780434,0.0793445,-1.26159e-07,-5.13182e-07,-2.63094e-07,
327,0.847343,-35.706,2.08327,26.6943,0.64164,1.21164,0.972751,0.0406956,0.555793,0.0433143,-1.78848,-0.284974,0.854095,1.47696,0.790092,0.0432756,7.5049e-08,0.00921964,0.0511577,0.00785306,0.0835149,-0.022795,-0.0639659,0.0857612,-1.22028e-07,-4.96378e-07,-2.5838e-07,
328,0.778861,-35.7597,2.1414,26.5977,0.66148,1.20337,1.03883,0.0408653,0.55681,0.0434854,-1.78684,-0.28526,0.852988,1.47892,0.790099,0.0432772,3.94619e-05,0.00843085,0.0505832,0.00857248,0.08208,-0.0131584,-0.0565727,0.0980497,0.00128964,0.000307858,0.00730464,
329,0.878851,-35.7543,2.04308,26.7116,0.658967,1.11514,0.854984,0.0410218,0.557812,0.0436682,-1.78521,-0.285492,0.851835,1.48101,0.790146,0.0432858,0.000316966,0.00774466,0.0500259,0.00909514,0.0809539,-0.0111811,-0.0583934,0.104671,0.0030866,0.000598863,0.0167414,
330,0.783269,-35.8186,2.13511,26.5722,0.744031,1.23456,1.05041,0.0411939,0.558815,0.0438296,-1.78357,-0.285711,0.850516,1.48274,0.790214,0.0433042,0.000656358,0.00862267,0.0502116,0.00800059,0.0820921,-0.0111072,-0.0671987,0.0863304,0.00362144,0.000941855,0.0163572,
331,0.720565,-35.8776,2.19205,26.4864,0.69405,1.16677,1.31779,0.0413485,0.559817,0.0440043,-1.78197,-0.285804,0.849347,1.48485,0.790301,0.0433148,0.00109779,0.00759829,0.0501884,0.00873925,0.0801317,-0.00330085,-0.0574246,0.105858,0.00464872,0.000611024,0.0220923,
332,0.732923,-35.9251,2.15771,26.4944,0.417775,0.733002,1.3581,0.0414909,0.560811,0.0441942,-1.78037,-0.285953,0.848109,1.48749,0.790389,0.043325,0.00147056,0.00710174,0.0495894,0.00940915,0.0794817,-0.00794918,-0.0635218,0.132611,0.00449301,0.000622059,0.0171493,
333,1.27582,-35.7692,1.62699,27.1993,0.0902663,0.00431829,0.405419,0.0416403,0.561782,0.0443892,-1.77874,-0.286563,0.846176,1.49023,0.790455,0.0433481,0.00159317,0.00759663,0.0482601,0.00956346,0.0807088,-0.0334549,-0.101986,0.136705,0.00274343,0.00111678,-0.000203533,
334,1.19867,-35.8218,1.70135,27.0884,0.132869,0.103069,0.556177,0.0418932,0.562762,0.0444832,-1.77696,-0.287765,0.842887,1.4911,0.790502,0.0433972,0.00148402,0.0129853,0.0491692,0.00432595,0.0885255,-0.0648413,-0.171655,0.0415306,0.00151099,0.0021093,-0.0125165,
335,1.26015,-35.8267,1.63979,27.1585,0.107757,0.0299937,0.438303,0.042138,0.563754,0.0445822,-1.77523,-0.288997,0.839613,1.49223,0.790522,0.0434258,0.00126256,0.0121574,0.0500147,0.00493702,0.0865851,-0.0610677,-0.162746,0.0565646,0.000690854,0.00116868,-0.013425,
336,1.24813,-35.8552,1.65076,27.1326,0.122944,0.0537971,0.439426,0.0423921,0.56476,0.0446684,-1.77348,-0.29026,0.836235,1.49313,0.790532,0.0434472,0.00101565,0.0127081,0.0505302,0.00423551,0.087173,-0.0635781,-0.169562,0.0447766,0.000368506,0.00091227,-0.0129448,
337,1.27056,-35.8741,1.6251,27.1467,0.120596,0.029558,0.348421,0.0426433,0.565774,0.0447539,-1.77175,-0.291506,0.832886,1.49403,0.790538,0.0434614,0.000793059,0.0125283,0.0508403,0.00425906,0.086695,-0.0621494,-0.167038,0.0448654,0.000284412,0.000591444,-0.0106887,
338,1.29761,-35.8876,1.59973,27.1637,0.161785,0.0854792,0.253955,0.0428985,0.566792,0.0448329,-1.77001,-0.292768,0.829512,1.49474,0.790542,0.0434678,0.000611699,0.0128024,0.0510496,0.00383421,0.0869824,-0.0649562,-0.16822,0.0354298,-5.74417e-05,-0.000275093,-0.00743901,
339,1.26846,-35.9226,1.62743,27.1002,0.242433,0.239514,0.255707,0.043158,0.567818,0.0449027,-1.76827,-0.293982,0.826246,1.49527,0.790537,0.0434517,0.000456962,0.0129292,0.0512485,0.00353793,0.0869256,-0.0586644,-0.162657,0.0276568,-0.000203051,-0.000879275,-0.00608149,
340,1.19406,-35.9804,1.69333,26.9595,0.341834,0.436001,0.198085,0.0434087,0.568842,0.0449752,-1.76656,-0.295001,0.823242,1.49583,0.790544,0.0434418,0.000342253,0.0124664,0.0512144,0.00368307,0.086065,-0.0497512,-0.147944,0.0280305,0.000593182,-0.000260463,-0.00465359,
341,1.17976,-36.0153,1.69938,26.92,0.346806,0.451086,0.0786179,0.0436418,0.569861,0.0450575,-1.76488,-0.295811,0.820609,1.49627,0.790568,0.0434464,0.000292954,0.0115921,0.0509884,0.00419288,0.0844759,-0.0399378,-0.128714,0.0221733,0.00130867,0.000271613,-0.00185257,
342,1.21481,-36.0251,1.66709,26.9715,0.204311,0.407396,0.610157,0.0438704,0.570873,0.0451432,-1.76319,-0.296564,0.818064,1.4965,0.7906,0.043463,0.000262375,0.0114587,0.0505059,0.00427563,0.0843077,-0.0388055,-0.12658,0.0104343,0.00160911,0.00072099,-0.00168818,
343,1.22229,-36.0519,1.65962,26.9679,0.331469,0.34611,0.484743,0.0441114,0.571878,0.0452231,-1.76149,-0.297715,0.815446,1.4977,0.790647,0.0434347,0.000386347,0.0120059,0.0503392,0.00406287,0.0849833,-0.0540294,-0.130038,0.0630143,0.00195109,-0.000983572,0.00516011,
344,1.2117,-36.0842,1.66644,26.9345,0.375917,0.390182,0.47408,0.0443532,0.572882,0.0453027,-1.75979,-0.298549,0.812748,1.49871,0.790682,0.0434324,0.000400781,0.0120999,0.0502155,0.00399234,0.0850537,-0.0411536,-0.135585,0.0503817,0.00153975,2.64974e-05,-0.000339283,
345,1.22469,-36.1075,1.65093,26.9319,0.418186,0.420626,0.417086,0.044593,0.573886,0.0453824,-1.7581,-0.299295,0.810108,1.4997,0.790713,0.0434353,0.000396017,0.011967,0.0502566,0.00400356,0.0845514,-0.036789,-0.131327,0.0492473,0.00151347,0.00017229,-0.000410324,
346,1.21558,-36.1414,1.65479,26.8893,0.494003,0.496314,0.376776,0.0448338,0.574892,0.0454579,-1.75641,-0.299945,0.80753,1.50057,0.790746,0.043444,0.00039609,0.0120462,0.0503293,0.00378665,0.0844282,-0.0324249,-0.128284,0.0435634,0.00166843,0.000388841,-0.000102419,
347,1.20221,-36.1642,1.66586,26.8713,0.529366,0.485849,0.359004,0.0450722,0.575897,0.0455318,-1.75474,-0.300459,0.805086,1.50136,0.790784,0.0434538,0.000427308,0.0118901,0.0503599,0.00372993,0.0838238,-0.0249991,-0.121012,0.0394645,0.00195123,0.000416666,0.0016011,
348,1.18262,-36.208,1.6809,26.8024,0.6473,0.654899,0.35187,0.0453081,0.576902,0.0456085,-1.75307,-0.300895,0.802656,1.50212,0.790823,0.0434621,0.000461851,0.0117948,0.0502187,0.00385449,0.0837326,-0.0213925,-0.121607,0.0376523,0.0019686,0.000369377,0.00163469,
349,1.12584,-36.2551,1.72881,26.7056,0.680531,0.661923,0.430055,0.0455386,0.577907,0.0456823,-1.75142,-0.301141,0.800479,1.50284,0.790878,0.043467,0.000595051,0.0114414,0.0503708,0.00376732,0.0825484,-0.0106307,-0.106285,0.036576,0.00282739,0.000194923,0.00739266,
350,1.18289,-36.269,1.66771,26.7544,0.718897,0.676857,0.260635,0.0457594,0.578906,0.0457674,-1.74978,-0.301321,0.798376,1.50371,0.790935,0.0434626,0.00075424,0.0109873,0.0498725,0.00429824,0.0817666,-0.00766713,-0.105053,0.0441826,0.00290508,-0.000120091,0.00805509,
351,1.17265,-36.2967,1.67258,26.7182,0.782923,0.708157,0.237892,0.0459874,0.579904,0.0458401,-1.74814,-0.301366,0.796288,1.50428,0.791,0.0434777,0.00088043,0.0114435,0.0499692,0.0035999,0.0821431,-0.0032216,-0.103888,0.0274301,0.00322727,0.000680671,0.00583497,
352,1.15824,-36.3311,1.68115,26.6713,0.870855,0.789664,0.214406,0.0462146,0.580901,0.0459111,-1.74651,-0.301328,0.794259,1.50477,0.791067,0.0434892,0.0010247,0.0113354,0.0498785,0.00358001,0.081702,0.00263131,-0.101045,0.0249747,0.00345375,0.000463319,0.00750573,
353,1.13883,-36.3673,1.69436,26.6167,0.969174,0.879758,0.196841,0.0464379,0.581898,0.0459806,-1.74489,-0.301136,0.792358,1.50522,0.791146,0.0434972,0.00122501,0.0111146,0.0498992,0.00352329,0.0809765,0.0107569,-0.0938095,0.0224041,0.00399997,0.000327044,0.0106508,
354,1.11443,-36.4038,1.71325,26.5594,1.0703,0.970912,0.219563,0.0466561,0.582894,0.0460496,-1.74329,-0.300767,0.790618,1.50562,0.791235,0.043502,0.0014818,0.0108468,0.0499033,0.00350802,0.0802049,0.0197763,-0.0857014,0.0203857,0.00452989,0.000197557,0.013538,
355,1.08145,-36.4502,1.73878,26.4751,1.21663,1.12957,0.213891,0.0468685,0.58389,0.0461192,-1.74171,-0.300225,0.789038,1.50606,0.791335,0.043501,0.00179852,0.0105501,0.0498614,0.00355086,0.0794018,0.0288575,-0.0776687,0.0223372,0.00511482,-2.87987e-05,0.0168469,
356,1.04219,-36.4964,1.7706,26.3801,1.37375,1.27039,0.190616,0.0470723,0.584886,0.0461884,-1.74015,-0.299427,0.787717,1.50648,0.791454,0.0434977,0.00221423,0.0100867,0.0498986,0.00355559,0.0781199,0.0420328,-0.0637292,0.0213539,0.00610749,-0.000145734,0.0222021,
357,0.995183,-36.5483,1.80705,26.2678,1.56019,1.42012,0.0225968,0.0472661,0.585881,0.0462594,-1.73862,-0.298344,0.786652,1.50684,0.791592,0.0434929,0.00270368,0.00959506,0.0498145,0.00365578,0.076882,0.0562793,-0.0511901,0.0186177,0.0069423,-0.000227649,0.0257035,
358,0.938824,-36.5971,1.85481,26.1683,1.53111,1.58297,0.0955838,0.0474475,0.586872,0.0463331,-1.73711,-0.2969,0.785849,1.50688,0.791749,0.0434962,0.00323569,0.00899221,0.0496723,0.00378204,0.0754439,0.0736666,-0.0379339,0.00150804,0.00788185,2.82566e-05,0.027801,
359,0.928439,-36.6206,1.85382,26.1356,1.64297,1.78074,-1.9074,0.0476167,0.587861,0.0464165,-1.73564,-0.295485,0.785334,1.50705,0.791926,0.043492,0.0038245,0.00843057,0.0495128,0.00421115,0.0741161,0.0706531,-0.023428,0.00878439,0.00898644,-8.20869e-05,0.0302427,
360,1.21386,-36.6357,1.4689,26.2318,1.11356,1.50369,-1.02224,0.0477678,0.588848,0.046495,-1.73418,-0.293618,0.785128,1.50336,0.792241,0.0436489,0.00525118,0.00772966,0.049748,0.00388649,0.0732778,0.0857432,-0.0059425,-0.19012,0.0134232,0.00582301,0.0395896,
361,0.757211,-36.7052,2.11594,26.0318,2.30679,1.80289,1.90618,0.0479898,0.589831,0.0465198,-1.73267,-0.292828,0.784595,1.50131,0.792464,0.0437007,0.00578853,0.01141,0.0488865,0.000935306,0.0751566,0.0356621,-0.0301273,-0.101041,0.00951637,0.00231415,0.0100273,
362,0.698983,-36.7313,2.1721,26.0246,1.25955,1.60596,1.82157,0.0481348,0.590821,0.0466339,-1.73125,-0.29035,0.784425,1.50495,0.792849,0.0435104,0.00855808,0.00658499,0.0501317,0.00634114,0.0717815,0.143717,-0.00508344,0.189348,0.0165936,-0.00716216,0.0897064,
363,0.729666,-36.7341,2.11481,26.1126,1.01736,1.38622,1.01297,0.0482572,0.591805,0.0468,-1.72978,-0.289164,0.784038,1.50863,0.793107,0.04346,0.00898753,0.0066803,0.0488366,0.00781532,0.0727375,0.0434511,-0.0222751,0.181357,0.0107525,-0.000939706,-0.00284622,
364,0.779136,-36.7468,2.04337,26.1893,0.864543,1.32079,0.739974,0.0483966,0.592779,0.0469537,-1.7283,-0.288629,0.783236,1.51069,0.79329,0.0435114,0.00853329,0.00721502,0.0487499,0.00747309,0.0737481,0.0201829,-0.0430768,0.1007,0.00790601,0.00233661,-0.031567,
365,0.875414,-36.7644,1.91329,26.2524,0.80718,1.23978,0.251562,0.0485494,0.593758,0.0470932,-1.72681,-0.28844,0.78226,1.51219,0.793434,0.0435752,0.00787829,0.00775292,0.0491595,0.00682801,0.0741904,0.00610595,-0.0498715,0.0737086,0.00681666,0.00273276,-0.0330323,
366,0.847736,-36.8069,1.95015,26.2063,1.21971,1.30225,0.137779,0.0487203,0.594743,0.0472066,-1.72531,-0.288346,0.781132,1.51272,0.79357,0.0436538,0.00727622,0.00864516,0.049356,0.00554707,0.0747588,0.00204304,-0.0573294,0.0253196,0.00658898,0.00328057,-0.0297945,
367,0.834841,-36.8419,1.95811,26.1929,1.22269,1.30569,0.020078,0.0488865,0.595733,0.0473114,-1.72384,-0.287648,0.780065,1.51298,0.793716,0.0436964,0.00690349,0.00807732,0.0497178,0.00540506,0.073838,0.0403905,-0.0524423,0.0135318,0.00721393,0.00157777,-0.0150547,
368,0.815372,-36.8771,1.97058,26.1673,1.24412,1.32327,0.0381013,0.0490444,0.596725,0.0474204,-1.72237,-0.286817,0.779021,1.51302,0.79386,0.0437316,0.00664549,0.00788413,0.0495777,0.00544098,0.0737313,0.0413278,-0.0520078,0.00191998,0.00721732,0.00155021,-0.0106201,
369,0.797136,-36.9113,1.98319,26.1506,1.24167,1.31048,0.113381,0.0491989,0.597714,0.0475308,-1.7209,-0.285959,0.778009,1.5131,0.794008,0.0437573,0.00649006,0.00769101,0.0494695,0.00551866,0.0734148,0.0433257,-0.0504252,0.00375214,0.00745651,0.00121606,-0.00579871,
370,0.771293,-36.943,2.01416,26.1398,1.03274,1.34061,0.531143,0.0493506,0.598701,0.0476445,-1.71943,-0.285102,0.776984,1.51332,0.794157,0.0437766,0.00639405,0.00756127,0.0493081,0.005653,0.0732707,0.0430721,-0.0515441,0.0113172,0.00752087,0.0010124,-0.0033628,
371,0.73527,-36.977,2.06221,26.1426,0.816792,1.25492,1.01755,0.0494985,0.599686,0.0477693,-1.71797,-0.284597,0.776001,1.51437,0.794312,0.0437881,0.00637877,0.00744547,0.0492737,0.0061201,0.0730309,0.0232133,-0.0487569,0.0532643,0.00786292,0.000906048,-0.000491521,
372,0.728892,-37.0041,2.07281,26.1677,0.715367,1.06816,1.57162,0.0496437,0.600667,0.0479096,-1.7165,-0.284501,0.774907,1.5164,0.794463,0.0437991,0.00633946,0.007336,0.0489586,0.00687034,0.0732791,0.00275551,-0.056072,0.102059,0.0075265,0.000923372,-0.00316604,
373,0.726026,-37.0277,2.08922,26.2096,0.443797,0.870056,2.21451,0.0497942,0.601641,0.0480568,-1.71501,-0.284635,0.773514,1.51953,0.794597,0.0438055,0.00619857,0.00755455,0.0485926,0.00722523,0.0739487,-0.00697099,-0.0725481,0.157492,0.0064869,0.000632428,-0.00878847,
374,0.700601,-37.0384,2.14096,26.2878,-0.0685943,0.402152,3.22546,0.0499481,0.602609,0.0482164,-1.71351,-0.285223,0.771773,1.52396,0.794711,0.0438147,0.00593248,0.00781037,0.0482949,0.00776152,0.0747447,-0.0321558,-0.0899066,0.221987,0.00547695,0.000814282,-0.0159479,
375,0.768234,-37.1166,1.98442,26.0494,1.23799,1.47688,-0.612054,0.0501059,0.603561,0.0484032,-1.71196,-0.286727,0.769259,1.5304,0.7948,0.0438311,0.0055,0.00808639,0.0474884,0.00901717,0.0766763,-0.0797516,-0.130591,0.32336,0.00350124,0.0012997,-0.0307675,
376,0.704077,-37.1748,2.05675,26.0413,1.08097,1.53663,0.553748,0.0502521,0.604541,0.0484806,-1.71061,-0.286119,0.768065,1.5293,0.795138,0.0439876,0.00684893,0.00639843,0.0511016,0.00462929,0.0699456,0.0426855,-0.0388519,-0.0604251,0.0142887,0.00481814,0.0421736,
377,0.710171,-37.1972,2.0415,26.0696,1.08003,1.5085,0.426591,0.0503751,0.605559,0.0486028,-1.7092,-0.285492,0.767452,1.53038,0.795372,0.0440424,0.00725402,0.00636849,0.0505876,0.00597886,0.0708365,0.0286891,-0.0293163,0.0562021,0.00957547,0.00204879,0.00410567,
378,0.70036,-37.2277,2.04568,26.0676,1.08131,1.50898,0.421254,0.0505048,0.606562,0.0487194,-1.70777,-0.284923,0.766819,1.53126,0.795537,0.0440774,0.00716196,0.00650182,0.0499083,0.00585966,0.0714282,0.0286307,-0.0318795,0.0434971,0.00757617,0.00146936,-0.00848537,
379,0.686803,-37.2614,2.05087,26.0529,1.09308,1.51726,0.395919,0.0506339,0.607555,0.0488378,-1.70634,-0.284348,0.76618,1.53212,0.795683,0.0441036,0.00697418,0.00646158,0.0495431,0.00591964,0.0714691,0.0288587,-0.0319915,0.0429826,0.00719883,0.00122538,-0.00879899,
380,0.671438,-37.2961,2.05908,26.0354,1.10076,1.52517,0.384049,0.0507612,0.608542,0.0489566,-1.70492,-0.283753,0.76555,1.53293,0.795829,0.0441271,0.0068296,0.00634447,0.0493086,0.00594543,0.0713076,0.0299866,-0.0313944,0.0404599,0.00737394,0.00114105,-0.00559353,
381,0.654078,-37.3317,2.06954,26.0199,1.09117,1.52249,0.405446,0.0508857,0.609525,0.0490767,-1.7035,-0.283142,0.764933,1.53371,0.79598,0.0441495,0.00675053,0.0062051,0.0491315,0.0060004,0.0710966,0.0307294,-0.0308175,0.0392812,0.00765994,0.00111068,-0.00244363,
382,0.636479,-37.3658,2.08355,26.0148,1.04512,1.49119,0.49588,0.0510073,0.610505,0.0491995,-1.70208,-0.282542,0.764313,1.53454,0.796135,0.0441717,0.006718,0.00607752,0.0489545,0.00611464,0.0709196,0.0298693,-0.0311652,0.0414279,0.00787183,0.00111855,-0.000578523,
